.nuke/nuke.LUT/logC-Filmlook_display/AlexaV3_EI0160_LogC2Film_EL_nuke3d.cube
# Alexa conversion LUT, logc2logc, film. Full in/legal out.
# created by alexalutconv (2.07)
LUT_3D_SIZE 5
DOMAIN_MIN 0.000000 0.000000 0.000000
DOMAIN_MAX 0.903226 0.903226 0.903226
0.062561 0.062561 0.062561
0.308341 0.062561 0.062561
0.554120 0.062561 0.062561
0.799900 0.062561 0.062561
0.918866 0.062561 0.062561
0.062561 0.340308 0.062561
0.253373 0.315719 0.062561
0.499152 0.291131 0.062561
0.744932 0.266542 0.062561
0.918866 0.241954 0.062561
0.062561 0.618054 0.062561
0.198405 0.593466 0.062561
0.444184 0.568877 0.062561
0.689964 0.544289 0.062561
0.918866 0.519700 0.062561
0.062561 0.895801 0.062561
0.143437 0.871213 0.062561
0.389216 0.846624 0.062561
0.634996 0.822036 0.062561
0.880775 0.797447 0.062561
0.062561 0.918866 0.062561
0.088469 0.918866 0.062561
0.334248 0.918866 0.062561
0.580028 0.918866 0.062561
0.825807 0.918866 0.062561
0.065109 0.062561 0.379711
0.310888 0.062561 0.354589
0.556668 0.062561 0.329466
0.802447 0.062561 0.304344
0.918866 0.062561 0.279221
0.062561 0.280509 0.281043
0.255920 0.255920 0.255920
0.501700 0.231332 0.230798
0.747479 0.206743 0.205675
0.918866 0.182155 0.180552
0.062561 0.558256 0.182374
0.200952 0.533667 0.157252
0.446732 0.509078 0.132129
0.692511 0.484490 0.107006
0.918866 0.459901 0.081884
0.062561 0.836002 0.083706
0.145984 0.811414 0.062561
0.391764 0.786825 0.062561
0.637543 0.762237 0.062561
0.883323 0.737648 0.062561
0.062561 0.918866 0.062561
0.091016 0.918866 0.062561
0.336796 0.918866 0.062561
0.582575 0.918866 0.062561
0.828355 0.918866 0.062561
0.067656 0.062561 0.696862
0.313436 0.062561 0.671739
0.559215 0.062561 0.646617
0.804995 0.062561 0.621494
0.918866 0.062561 0.596371
0.062561 0.220710 0.598193
0.258468 0.196121 0.573071
0.504247 0.171533 0.547948
0.750027 0.146944 0.522825
0.918866 0.122356 0.497703
0.062561 0.498457 0.499525
0.203500 0.473868 0.474402
0.449279 0.449279 0.449279
0.695059 0.424691 0.424157
0.918866 0.400102 0.399034
0.062561 0.776203 0.400856
0.148532 0.751615 0.375734
0.394312 0.727026 0.350611
0.640091 0.702438 0.325488
0.885870 0.677849 0.300366
0.062561 0.918866 0.302188
0.093564 0.918866 0.277065
0.339344 0.918866 0.251942
0.585123 0.918866 0.226820
0.830903 0.918866 0.201697
0.070204 0.062561 0.918866
0.315984 0.062561 0.918866
0.561763 0.062561 0.918866
0.807543 0.062561 0.918866
0.918866 0.062561 0.913522
0.062561 0.160911 0.915344
0.261016 0.136322 0.890221
0.506795 0.111734 0.865098
0.752575 0.087145 0.839976
0.918866 0.062561 0.814853
0.062561 0.438658 0.816675
0.206048 0.414069 0.791552
0.451827 0.389481 0.766430
0.697607 0.364892 0.741307
0.918866 0.340303 0.716185
0.062561 0.716404 0.718007
0.151080 0.691816 0.692884
0.396859 0.667227 0.667761
0.642639 0.642639 0.642639
0.888418 0.618050 0.617516
0.062561 0.918866 0.619338
0.096112 0.918866 0.594215
0.341891 0.918866 0.569093
0.587671 0.918866 0.543970
0.833450 0.895797 0.518847
0.072752 0.062561 0.918866
0.318531 0.062561 0.918866
0.564311 0.062561 0.918866
0.810090 0.062561 0.918866
0.918866 0.062561 0.918866
0.062561 0.101112 0.918866
0.263563 0.076523 0.918866
0.509343 0.062561 0.918866
0.755122 0.062561 0.918866
0.918866 0.062561 0.918866
0.062561 0.378859 0.918866
0.208595 0.354270 0.918866
0.454375 0.329682 0.918866
0.700154 0.305093 0.918866
0.918866 0.280504 0.918866
0.062561 0.656605 0.918866
0.153627 0.632017 0.918866
0.399407 0.607428 0.918866
0.645186 0.582840 0.918866
0.890966 0.558251 0.918866
0.062561 0.918866 0.918866
0.098659 0.909764 0.911366
0.344439 0.885175 0.886243
0.590218 0.860586 0.861120
0.835998 0.835998 0.835998
