.nuke/nuke.LUT/logC-Filmlook_display/AlexaV3_EI0160_LogC2Film_EL_nuke3d.cube
# Alexa conversion LUT, logc2logc, film. Full in/legal out.
# created by alexalutconv (2.07)
LUT_3D_SIZE 8
DOMAIN_MIN 0.000000 0.000000 0.000000
DOMAIN_MAX 0.903226 0.903226 0.903226
0.062561 0.062561 0.062561
0.203007 0.062561 0.062561
0.343452 0.062561 0.062561
0.483897 0.062561 0.062561
0.624343 0.062561 0.062561
0.764788 0.062561 0.062561
0.905234 0.062561 0.062561
0.918866 0.062561 0.062561
0.062561 0.221273 0.062561
0.171596 0.207223 0.062561
0.312042 0.193172 0.062561
0.452487 0.179122 0.062561
0.592933 0.165071 0.062561
0.733378 0.151020 0.062561
0.873823 0.136970 0.062561
0.918866 0.122919 0.062561
0.062561 0.379986 0.062561
0.140186 0.365935 0.062561
0.280631 0.351885 0.062561
0.421077 0.337834 0.062561
0.561522 0.323783 0.062561
0.701968 0.309733 0.062561
0.842413 0.295682 0.062561
0.918866 0.281632 0.062561
0.062561 0.538698 0.062561
0.108776 0.524648 0.062561
0.249221 0.510597 0.062561
0.389667 0.496546 0.062561
0.530112 0.482496 0.062561
0.670557 0.468445 0.062561
0.811003 0.454395 0.062561
0.918866 0.440344 0.062561
0.062561 0.697411 0.062561
0.077365 0.683360 0.062561
0.217811 0.669309 0.062561
0.358256 0.655259 0.062561
0.498702 0.641208 0.062561
0.639147 0.627158 0.062561
0.779593 0.613107 0.062561
0.918866 0.599056 0.062561
0.062561 0.856123 0.062561
0.062561 0.842072 0.062561
0.186401 0.828022 0.062561
0.326846 0.813971 0.062561
0.467291 0.799921 0.062561
0.607737 0.785870 0.062561
0.748182 0.771819 0.062561
0.888628 0.757769 0.062561
0.062561 0.918866 0.062561
0.062561 0.918866 0.062561
0.154990 0.918866 0.062561
0.295436 0.918866 0.062561
0.435881 0.918866 0.062561
0.576327 0.918866 0.062561
0.716772 0.918866 0.062561
0.857217 0.916481 0.062561
0.062561 0.918866 0.062561
0.062561 0.918866 0.062561
0.123580 0.918866 0.062561
0.264025 0.918866 0.062561
0.404471 0.918866 0.062561
0.544916 0.918866 0.062561
0.685362 0.918866 0.062561
0.825807 0.918866 0.062561
0.064017 0.062561 0.243790
0.204462 0.062561 0.229434
0.344908 0.062561 0.215078
0.485353 0.062561 0.200723
0.625799 0.062561 0.186367
0.766244 0.062561 0.172011
0.906689 0.062561 0.157655
0.918866 0.062561 0.143299
0.062561 0.187103 0.187408
0.173052 0.173052 0.173052
0.313497 0.159001 0.158696
0.453943 0.144951 0.144340
0.594388 0.130900 0.129985
0.734834 0.116850 0.115629
0.875279 0.102799 0.101273
0.918866 0.088748 0.086917
0.062561 0.345815 0.131026
0.141642 0.331764 0.116670
0.282087 0.317714 0.102314
0.422533 0.303663 0.087958
0.562978 0.289613 0.073603
0.703423 0.275562 0.062561
0.843869 0.261511 0.062561
0.918866 0.247461 0.062561
0.062561 0.504527 0.074644
0.110232 0.490477 0.062561
0.250677 0.476426 0.062561
0.391122 0.462376 0.062561
0.531568 0.448325 0.062561
0.672013 0.434274 0.062561
0.812459 0.420224 0.062561
0.918866 0.406173 0.062561
0.062561 0.663240 0.062561
0.078821 0.649189 0.062561
0.219267 0.635139 0.062561
0.359712 0.621088 0.062561
0.500158 0.607037 0.062561
0.640603 0.592987 0.062561
0.781048 0.578936 0.062561
0.918866 0.564886 0.062561
0.062561 0.821952 0.062561
0.062561 0.807902 0.062561
0.187856 0.793851 0.062561
0.328302 0.779800 0.062561
0.468747 0.765750 0.062561
0.609193 0.751699 0.062561
0.749638 0.737649 0.062561
0.890084 0.723598 0.062561
0.062561 0.918866 0.062561
0.062561 0.918866 0.062561
0.156446 0.918866 0.062561
0.296892 0.918866 0.062561
0.437337 0.918866 0.062561
0.577782 0.910412 0.062561
0.718228 0.896361 0.062561
0.858673 0.882310 0.062561
0.062561 0.918866 0.062561
0.062561 0.918866 0.062561
0.125036 0.918866 0.062561
0.265481 0.918866 0.062561
0.405927 0.918866 0.062561
0.546372 0.918866 0.062561
0.686818 0.918866 0.062561
0.827263 0.918866 0.062561
0.065473 0.062561 0.425019
0.205918 0.062561 0.410663
0.346364 0.062561 0.396307
0.486809 0.062561 0.381951
0.627254 0.062561 0.367596
0.767700 0.062561 0.353240
0.908145 0.062561 0.338884
0.918866 0.062561 0.324528
0.062561 0.152932 0.368637
0.174508 0.138881 0.354281
0.314953 0.124831 0.339925
0.455399 0.110780 0.325569
0.595844 0.096729 0.311213
0.736290 0.082679 0.296858
0.876735 0.068628 0.282502
0.918866 0.062561 0.268146
0.062561 0.311644 0.312255
0.143098 0.297594 0.297899
0.283543 0.283543 0.283543
0.423988 0.269492 0.269187
0.564434 0.255442 0.254831
0.704879 0.241391 0.240476
0.845325 0.227341 0.226120
0.918866 0.213290 0.211764
0.062561 0.470357 0.255873
0.111687 0.456306 0.241517
0.252133 0.442255 0.227161
0.392578 0.428205 0.212805
0.533024 0.414154 0.198449
0.673469 0.400104 0.184094
0.813914 0.386053 0.169738
0.918866 0.372002 0.155382
0.062561 0.629069 0.199491
0.080277 0.615018 0.185135
0.220722 0.600968 0.170779
0.361168 0.586917 0.156423
0.501613 0.572867 0.142067
0.642059 0.558816 0.127712
0.782504 0.544765 0.113356
0.918866 0.530715 0.099000
0.062561 0.787781 0.143108
0.062561 0.773731 0.128753
0.189312 0.759680 0.114397
0.329758 0.745630 0.100041
0.470203 0.731579 0.085685
0.610648 0.717528 0.071330
0.751094 0.703478 0.062561
0.891539 0.689427 0.062561
0.062561 0.918866 0.086726
0.062561 0.918866 0.072371
0.157902 0.918393 0.062561
0.298347 0.904342 0.062561
0.438793 0.890291 0.062561
0.579238 0.876241 0.062561
0.719684 0.862190 0.062561
0.860129 0.848140 0.062561
0.062561 0.918866 0.062561
0.062561 0.918866 0.062561
0.126492 0.918866 0.062561
0.266937 0.918866 0.062561
0.407383 0.918866 0.062561
0.547828 0.918866 0.062561
0.688273 0.918866 0.062561
0.828719 0.918866 0.062561
0.066929 0.062561 0.606247
0.207374 0.062561 0.591892
0.347819 0.062561 0.577536
0.488265 0.062561 0.563180
0.628710 0.062561 0.548824
0.769156 0.062561 0.534469
0.909601 0.062561 0.520113
0.918866 0.062561 0.505757
0.062561 0.118761 0.549865
0.175964 0.104710 0.535510
0.316409 0.090660 0.521154
0.456855 0.076609 0.506798
0.597300 0.062561 0.492442
0.737745 0.062561 0.478086
0.878191 0.062561 0.463731
0.918866 0.062561 0.449375
0.062561 0.277473 0.493483
0.144553 0.263423 0.479128
0.284999 0.249372 0.464772
0.425444 0.235322 0.450416
0.565890 0.221271 0.436060
0.706335 0.207220 0.421704
0.846781 0.193170 0.407349
0.918866 0.179119 0.392993
0.062561 0.436186 0.437101
0.113143 0.422135 0.422746
0.253589 0.408085 0.408390
0.394034 0.394034 0.394034
0.534479 0.379983 0.379678
0.674925 0.365933 0.365322
0.815370 0.351882 0.350967
0.918866 0.337832 0.336611
0.062561 0.594898 0.380719
0.081733 0.580848 0.366364
0.222178 0.566797 0.352008
0.362624 0.552746 0.337652
0.503069 0.538696 0.323296
0.643515 0.524645 0.308940
0.783960 0.510595 0.294585
0.918866 0.496544 0.280229
0.062561 0.753611 0.324337
0.062561 0.739560 0.309981
0.190768 0.725509 0.295626
0.331213 0.711459 0.281270
0.471659 0.697408 0.266914
0.612104 0.683358 0.252558
0.752550 0.669307 0.238203
0.892995 0.655256 0.223847
0.062561 0.912323 0.267955
0.062561 0.898272 0.253599
0.159358 0.884222 0.239244
0.299803 0.870171 0.224888
0.440249 0.856121 0.210532
0.580694 0.842070 0.196176
0.721139 0.828019 0.181821
0.861585 0.813969 0.167465
0.062561 0.918866 0.211573
0.062561 0.918866 0.197217
0.127947 0.918866 0.182862
0.268393 0.918866 0.168506
0.408838 0.918866 0.154150
0.549284 0.918866 0.139794
0.689729 0.918866 0.125439
0.830175 0.918866 0.111083
0.068384 0.062561 0.787476
0.208830 0.062561 0.773120
0.349275 0.062561 0.758765
0.489721 0.062561 0.744409
0.630166 0.062561 0.730053
0.770611 0.062561 0.715697
0.911057 0.062561 0.701342
0.918866 0.062561 0.686986
0.062561 0.084590 0.731094
0.177419 0.070540 0.716738
0.317865 0.062561 0.702383
0.458310 0.062561 0.688027
0.598756 0.062561 0.673671
0.739201 0.062561 0.659315
0.879647 0.062561 0.644959
0.918866 0.062561 0.630604
0.062561 0.243303 0.674712
0.146009 0.229252 0.660356
0.286455 0.215201 0.646001
0.426900 0.201151 0.631645
0.567346 0.187100 0.617289
0.707791 0.173050 0.602933
0.848236 0.158999 0.588577
0.918866 0.144948 0.574222
0.062561 0.402015 0.618330
0.114599 0.387964 0.603974
0.255044 0.373914 0.589619
0.395490 0.359863 0.575263
0.535935 0.345813 0.560907
0.676381 0.331762 0.546551
0.816826 0.317711 0.532195
0.918866 0.303661 0.517840
0.062561 0.560727 0.561948
0.083189 0.546677 0.547592
0.223634 0.532626 0.533237
0.364080 0.518576 0.518881
0.504525 0.504525 0.504525
0.644970 0.490474 0.490169
0.785416 0.476424 0.475813
0.918866 0.462373 0.461458
0.062561 0.719440 0.505566
0.062561 0.705389 0.491210
0.192224 0.691339 0.476854
0.332669 0.677288 0.462499
0.473115 0.663237 0.448143
0.613560 0.649187 0.433787
0.754006 0.635136 0.419431
0.894451 0.621086 0.405076
0.062561 0.878152 0.449184
0.062561 0.864102 0.434828
0.160814 0.850051 0.420472
0.301259 0.836000 0.406117
0.441704 0.821950 0.391761
0.582150 0.807899 0.377405
0.722595 0.793849 0.363049
0.863041 0.779798 0.348694
0.062561 0.918866 0.392802
0.062561 0.918866 0.378446
0.129403 0.918866 0.364090
0.269849 0.918866 0.349735
0.410294 0.918866 0.335379
0.550740 0.918866 0.321023
0.691185 0.918866 0.306667
0.831630 0.918866 0.292312
0.069840 0.062561 0.918866
0.210286 0.062561 0.918866
0.350731 0.062561 0.918866
0.491176 0.062561 0.918866
0.631622 0.062561 0.911282
0.772067 0.062561 0.896926
0.912513 0.062561 0.882570
0.918866 0.062561 0.868215
0.062561 0.062561 0.912323
0.178875 0.062561 0.897967
0.319321 0.062561 0.883611
0.459766 0.062561 0.869256
0.600212 0.062561 0.854900
0.740657 0.062561 0.840544
0.881102 0.062561 0.826188
0.918866 0.062561 0.811832
0.062561 0.209132 0.855941
0.147465 0.195081 0.841585
0.287910 0.181031 0.827229
0.428356 0.166980 0.812874
0.568801 0.152929 0.798518
0.709247 0.138879 0.784162
0.849692 0.124828 0.769806
0.918866 0.110778 0.755450
0.062561 0.367844 0.799559
0.116055 0.353794 0.785203
0.256500 0.339743 0.770847
0.396946 0.325692 0.756492
0.537391 0.311642 0.742136
0.677836 0.297591 0.727780
0.818282 0.283541 0.713424
0.918866 0.269490 0.699068
0.062561 0.526557 0.743177
0.084644 0.512506 0.728821
0.225090 0.498455 0.714465
0.365535 0.484405 0.700110
0.505981 0.470354 0.685754
0.646426 0.456304 0.671398
0.786872 0.442253 0.657042
0.918866 0.428202 0.642686
0.062561 0.685269 0.686795
0.062561 0.671218 0.672439
0.193680 0.657168 0.658083
0.334125 0.643117 0.643727
0.474570 0.629067 0.629372
0.615016 0.615016 0.615016
0.755461 0.600965 0.600660
0.895907 0.586915 0.586304
0.062561 0.843981 0.630413
0.062561 0.829931 0.616057
0.162269 0.815880 0.601701
0.302715 0.801830 0.587345
0.443160 0.787779 0.572990
0.583606 0.773728 0.558634
0.724051 0.759678 0.544278
0.864497 0.745627 0.529922
0.062561 0.918866 0.574031
0.062561 0.918866 0.559675
0.130859 0.918866 0.545319
0.271305 0.918866 0.530963
0.411750 0.918866 0.516608
0.552195 0.918866 0.502252
0.692641 0.918390 0.487896
0.833086 0.904340 0.473540
0.071296 0.062561 0.918866
0.211741 0.062561 0.918866
0.352187 0.062561 0.918866
0.492632 0.062561 0.918866
0.633078 0.062561 0.918866
0.773523 0.062561 0.918866
0.913969 0.062561 0.918866
0.918866 0.062561 0.918866
0.062561 0.062561 0.918866
0.180331 0.062561 0.918866
0.320777 0.062561 0.918866
0.461222 0.062561 0.918866
0.601667 0.062561 0.918866
0.742113 0.062561 0.918866
0.882558 0.062561 0.918866
0.918866 0.062561 0.918866
0.062561 0.174961 0.918866
0.148921 0.160910 0.918866
0.289366 0.146860 0.918866
0.429812 0.132809 0.918866
0.570257 0.118758 0.918866
0.710703 0.104708 0.918866
0.851148 0.090657 0.918866
0.918866 0.076607 0.918866
0.062561 0.333673 0.918866
0.117511 0.319623 0.918866
0.257956 0.305572 0.918866
0.398401 0.291522 0.918866
0.538847 0.277471 0.918866
0.679292 0.263420 0.909009
0.819738 0.249370 0.894653
0.918866 0.235319 0.880297
0.062561 0.492386 0.918866
0.086100 0.478335 0.910050
0.226546 0.464285 0.895694
0.366991 0.450234 0.881338
0.507437 0.436183 0.866983
0.647882 0.422133 0.852627
0.788327 0.408082 0.838271
0.918866 0.394031 0.823915
0.062561 0.651098 0.868024
0.062561 0.637048 0.853668
0.195135 0.622997 0.839312
0.335581 0.608946 0.824956
0.476026 0.594896 0.810600
0.616472 0.580845 0.796245
0.756917 0.566794 0.781889
0.897363 0.552744 0.767533
0.062561 0.809811 0.811642
0.062561 0.795760 0.797286
0.163725 0.781709 0.782930
0.304171 0.767659 0.768574
0.444616 0.753608 0.754218
0.585061 0.739557 0.739863
0.725507 0.725507 0.725507
0.865952 0.711456 0.711151
0.062561 0.918866 0.755260
0.062561 0.918866 0.740904
0.132315 0.918866 0.726548
0.272760 0.918866 0.712192
0.413206 0.912321 0.697836
0.553651 0.898270 0.683481
0.694097 0.884219 0.669125
0.834542 0.870169 0.654769
0.072752 0.062561 0.918866
0.213197 0.062561 0.918866
0.353643 0.062561 0.918866
0.494088 0.062561 0.918866
0.634533 0.062561 0.918866
0.774979 0.062561 0.918866
0.915424 0.062561 0.918866
0.918866 0.062561 0.918866
0.062561 0.062561 0.918866
0.181787 0.062561 0.918866
0.322232 0.062561 0.918866
0.462678 0.062561 0.918866
0.603123 0.062561 0.918866
0.743569 0.062561 0.918866
0.884014 0.062561 0.918866
0.918866 0.062561 0.918866
0.062561 0.140790 0.918866
0.150377 0.126739 0.918866
0.290822 0.112689 0.918866
0.431268 0.098638 0.918866
0.571713 0.084588 0.918866
0.712158 0.070537 0.918866
0.852604 0.062561 0.918866
0.918866 0.062561 0.918866
0.062561 0.299502 0.918866
0.118966 0.285452 0.918866
0.259412 0.271401 0.918866
0.399857 0.257351 0.918866
0.540303 0.243300 0.918866
0.680748 0.229249 0.918866
0.821194 0.215199 0.918866
0.918866 0.201148 0.918866
0.062561 0.458215 0.918866
0.087556 0.444164 0.918866
0.228002 0.430114 0.918866
0.368447 0.416063 0.918866
0.508892 0.402012 0.918866
0.649338 0.387962 0.918866
0.789783 0.373911 0.918866
0.918866 0.359861 0.918866
0.062561 0.616927 0.918866
0.062561 0.602877 0.918866
0.196591 0.588826 0.918866
0.337037 0.574775 0.918866
0.477482 0.560725 0.918866
0.617928 0.546674 0.918866
0.758373 0.532624 0.918866
0.898818 0.518573 0.918866
0.062561 0.775640 0.918866
0.062561 0.761589 0.918866
0.165181 0.747538 0.918866
0.305626 0.733488 0.918866
0.446072 0.719437 0.918866
0.586517 0.705387 0.918866
0.726963 0.691336 0.906736
0.867408 0.677285 0.892380
0.062561 0.918866 0.918866
0.062561 0.918866 0.918866
0.133771 0.906251 0.907777
0.274216 0.892200 0.893421
0.414662 0.878150 0.879065
0.555107 0.864099 0.864709
0.695552 0.850048 0.850354
0.835998 0.835998 0.835998
