.nuke/nuke.LUT/logC-Filmlook_display/AlexaV3_EI0160_LogC2Film_EL_nuke3d.cube
# Alexa conversion LUT, logc2logc, film. Full in/legal out.
# created by alexalutconv (2.07)
LUT_3D_SIZE 32
0.062561 0.062561 0.062561
0.097672 0.062561 0.062561
0.132784 0.062561 0.062561
0.167895 0.062561 0.062561
0.203007 0.062561 0.062561
0.238118 0.062561 0.062561
0.273229 0.062561 0.062561
0.308341 0.062561 0.062561
0.343452 0.062561 0.062561
0.378563 0.062561 0.062561
0.413675 0.062561 0.062561
0.448786 0.062561 0.062561
0.483897 0.062561 0.062561
0.519009 0.062561 0.062561
0.554120 0.062561 0.062561
0.589231 0.062561 0.062561
0.624343 0.062561 0.062561
0.659454 0.062561 0.062561
0.694566 0.062561 0.062561
0.729677 0.062561 0.062561
0.764788 0.062561 0.062561
0.799900 0.062561 0.062561
0.835011 0.062561 0.062561
0.870122 0.062561 0.062561
0.905234 0.062561 0.062561
0.918866 0.062561 0.062561
0.918866 0.062561 0.062561
0.918866 0.062561 0.062561
0.918866 0.062561 0.062561
0.918866 0.062561 0.062561
0.918866 0.062561 0.062561
0.918866 0.062561 0.062561
0.062561 0.102239 0.062561
0.089820 0.098727 0.062561
0.124931 0.095214 0.062561
0.160043 0.091701 0.062561
0.195154 0.088189 0.062561
0.230265 0.084676 0.062561
0.265377 0.081163 0.062561
0.300488 0.077651 0.062561
0.335599 0.074138 0.062561
0.370711 0.070625 0.062561
0.405822 0.067113 0.062561
0.440933 0.063600 0.062561
0.476045 0.062561 0.062561
0.511156 0.062561 0.062561
0.546268 0.062561 0.062561
0.581379 0.062561 0.062561
0.616490 0.062561 0.062561
0.651602 0.062561 0.062561
0.686713 0.062561 0.062561
0.721824 0.062561 0.062561
0.756936 0.062561 0.062561
0.792047 0.062561 0.062561
0.827158 0.062561 0.062561
0.862270 0.062561 0.062561
0.897381 0.062561 0.062561
0.918866 0.062561 0.062561
0.918866 0.062561 0.062561
0.918866 0.062561 0.062561
0.918866 0.062561 0.062561
0.918866 0.062561 0.062561
0.918866 0.062561 0.062561
0.918866 0.062561 0.062561
0.062561 0.141917 0.062561
0.081967 0.138405 0.062561
0.117079 0.134892 0.062561
0.152190 0.131379 0.062561
0.187301 0.127867 0.062561
0.222413 0.124354 0.062561
0.257524 0.120841 0.062561
0.292635 0.117329 0.062561
0.327747 0.113816 0.062561
0.362858 0.110303 0.062561
0.397970 0.106791 0.062561
0.433081 0.103278 0.062561
0.468192 0.099765 0.062561
0.503304 0.096253 0.062561
0.538415 0.092740 0.062561
0.573526 0.089228 0.062561
0.608638 0.085715 0.062561
0.643749 0.082202 0.062561
0.678860 0.078690 0.062561
0.713972 0.075177 0.062561
0.749083 0.071664 0.062561
0.784194 0.068152 0.062561
0.819306 0.064639 0.062561
0.854417 0.062561 0.062561
0.889529 0.062561 0.062561
0.918866 0.062561 0.062561
0.918866 0.062561 0.062561
0.918866 0.062561 0.062561
0.918866 0.062561 0.062561
0.918866 0.062561 0.062561
0.918866 0.062561 0.062561
0.918866 0.062561 0.062561
0.062561 0.181595 0.062561
0.074115 0.178083 0.062561
0.109226 0.174570 0.062561
0.144337 0.171057 0.062561
0.179449 0.167545 0.062561
0.214560 0.164032 0.062561
0.249672 0.160519 0.062561
0.284783 0.157007 0.062561
0.319894 0.153494 0.062561
0.355006 0.149982 0.062561
0.390117 0.146469 0.062561
0.425228 0.142956 0.062561
0.460340 0.139444 0.062561
0.495451 0.135931 0.062561
0.530562 0.132418 0.062561
0.565674 0.128906 0.062561
0.600785 0.125393 0.062561
0.635896 0.121880 0.062561
0.671008 0.118368 0.062561
0.706119 0.114855 0.062561
0.741231 0.111342 0.062561
0.776342 0.107830 0.062561
0.811453 0.104317 0.062561
0.846565 0.100804 0.062561
0.881676 0.097292 0.062561
0.916787 0.093779 0.062561
0.918866 0.090266 0.062561
0.918866 0.086754 0.062561
0.918866 0.083241 0.062561
0.918866 0.079729 0.062561
0.918866 0.076216 0.062561
0.918866 0.072703 0.062561
0.062561 0.221273 0.062561
0.066262 0.217761 0.062561
0.101374 0.214248 0.062561
0.136485 0.210736 0.062561
0.171596 0.207223 0.062561
0.206708 0.203710 0.062561
0.241819 0.200198 0.062561
0.276930 0.196685 0.062561
0.312042 0.193172 0.062561
0.347153 0.189660 0.062561
0.382264 0.186147 0.062561
0.417376 0.182634 0.062561
0.452487 0.179122 0.062561
0.487598 0.175609 0.062561
0.522710 0.172096 0.062561
0.557821 0.168584 0.062561
0.592933 0.165071 0.062561
0.628044 0.161558 0.062561
0.663155 0.158046 0.062561
0.698267 0.154533 0.062561
0.733378 0.151020 0.062561
0.768489 0.147508 0.062561
0.803601 0.143995 0.062561
0.838712 0.140483 0.062561
0.873823 0.136970 0.062561
0.908935 0.133457 0.062561
0.918866 0.129945 0.062561
0.918866 0.126432 0.062561
0.918866 0.122919 0.062561
0.918866 0.119407 0.062561
0.918866 0.115894 0.062561
0.918866 0.112381 0.062561
0.062561 0.260952 0.062561
0.062561 0.257439 0.062561
0.093521 0.253926 0.062561
0.128632 0.250414 0.062561
0.163744 0.246901 0.062561
0.198855 0.243388 0.062561
0.233966 0.239876 0.062561
0.269078 0.236363 0.062561
0.304189 0.232850 0.062561
0.339300 0.229338 0.062561
0.374412 0.225825 0.062561
0.409523 0.222312 0.062561
0.444635 0.218800 0.062561
0.479746 0.215287 0.062561
0.514857 0.211774 0.062561
0.549969 0.208262 0.062561
0.585080 0.204749 0.062561
0.620191 0.201237 0.062561
0.655303 0.197724 0.062561
0.690414 0.194211 0.062561
0.725525 0.190699 0.062561
0.760637 0.187186 0.062561
0.795748 0.183673 0.062561
0.830859 0.180161 0.062561
0.865971 0.176648 0.062561
0.901082 0.173135 0.062561
0.918866 0.169623 0.062561
0.918866 0.166110 0.062561
0.918866 0.162597 0.062561
0.918866 0.159085 0.062561
0.918866 0.155572 0.062561
0.918866 0.152059 0.062561
0.062561 0.300630 0.062561
0.062561 0.297117 0.062561
0.085668 0.293604 0.062561
0.120780 0.290092 0.062561
0.155891 0.286579 0.062561
0.191002 0.283066 0.062561
0.226114 0.279554 0.062561
0.261225 0.276041 0.062561
0.296337 0.272528 0.062561
0.331448 0.269016 0.062561
0.366559 0.265503 0.062561
0.401671 0.261991 0.062561
0.436782 0.258478 0.062561
0.471893 0.254965 0.062561
0.507005 0.251453 0.062561
0.542116 0.247940 0.062561
0.577227 0.244427 0.062561
0.612339 0.240915 0.062561
0.647450 0.237402 0.062561
0.682561 0.233889 0.062561
0.717673 0.230377 0.062561
0.752784 0.226864 0.062561
0.787896 0.223351 0.062561
0.823007 0.219839 0.062561
0.858118 0.216326 0.062561
0.893230 0.212813 0.062561
0.918866 0.209301 0.062561
0.918866 0.205788 0.062561
0.918866 0.202275 0.062561
0.918866 0.198763 0.062561
0.918866 0.195250 0.062561
0.918866 0.191738 0.062561
0.062561 0.340308 0.062561
0.062561 0.336795 0.062561
0.077816 0.333282 0.062561
0.112927 0.329770 0.062561
0.148039 0.326257 0.062561
0.183150 0.322745 0.062561
0.218261 0.319232 0.062561
0.253373 0.315719 0.062561
0.288484 0.312207 0.062561
0.323595 0.308694 0.062561
0.358707 0.305181 0.062561
0.393818 0.301669 0.062561
0.428929 0.298156 0.062561
0.464041 0.294643 0.062561
0.499152 0.291131 0.062561
0.534263 0.287618 0.062561
0.569375 0.284105 0.062561
0.604486 0.280593 0.062561
0.639598 0.277080 0.062561
0.674709 0.273567 0.062561
0.709820 0.270055 0.062561
0.744932 0.266542 0.062561
0.780043 0.263029 0.062561
0.815154 0.259517 0.062561
0.850266 0.256004 0.062561
0.885377 0.252492 0.062561
0.918866 0.248979 0.062561
0.918866 0.245466 0.062561
0.918866 0.241954 0.062561
0.918866 0.238441 0.062561
0.918866 0.234928 0.062561
0.918866 0.231416 0.062561
0.062561 0.379986 0.062561
0.062561 0.376473 0.062561
0.069963 0.372961 0.062561
0.105075 0.369448 0.062561
0.140186 0.365935 0.062561
0.175297 0.362423 0.062561
0.210409 0.358910 0.062561
0.245520 0.355397 0.062561
0.280631 0.351885 0.062561
0.315743 0.348372 0.062561
0.350854 0.344859 0.062561
0.385965 0.341347 0.062561
0.421077 0.337834 0.062561
0.456188 0.334321 0.062561
0.491300 0.330809 0.062561
0.526411 0.327296 0.062561
0.561522 0.323783 0.062561
0.596634 0.320271 0.062561
0.631745 0.316758 0.062561
0.666856 0.313246 0.062561
0.701968 0.309733 0.062561
0.737079 0.306220 0.062561
0.772190 0.302708 0.062561
0.807302 0.299195 0.062561
0.842413 0.295682 0.062561
0.877524 0.292170 0.062561
0.912636 0.288657 0.062561
0.918866 0.285144 0.062561
0.918866 0.281632 0.062561
0.918866 0.278119 0.062561
0.918866 0.274606 0.062561
0.918866 0.271094 0.062561
0.062561 0.419664 0.062561
0.062561 0.416151 0.062561
0.062561 0.412639 0.062561
0.097222 0.409126 0.062561
0.132333 0.405613 0.062561
0.167445 0.402101 0.062561
0.202556 0.398588 0.062561
0.237667 0.395075 0.062561
0.272779 0.391563 0.062561
0.307890 0.388050 0.062561
0.343002 0.384537 0.062561
0.378113 0.381025 0.062561
0.413224 0.377512 0.062561
0.448336 0.374000 0.062561
0.483447 0.370487 0.062561
0.518558 0.366974 0.062561
0.553670 0.363462 0.062561
0.588781 0.359949 0.062561
0.623892 0.356436 0.062561
0.659004 0.352924 0.062561
0.694115 0.349411 0.062561
0.729226 0.345898 0.062561
0.764338 0.342386 0.062561
0.799449 0.338873 0.062561
0.834561 0.335360 0.062561
0.869672 0.331848 0.062561
0.904783 0.328335 0.062561
0.918866 0.324822 0.062561
0.918866 0.321310 0.062561
0.918866 0.317797 0.062561
0.918866 0.314284 0.062561
0.918866 0.310772 0.062561
0.062561 0.459342 0.062561
0.062561 0.455829 0.062561
0.062561 0.452317 0.062561
0.089369 0.448804 0.062561
0.124481 0.445291 0.062561
0.159592 0.441779 0.062561
0.194704 0.438266 0.062561
0.229815 0.434754 0.062561
0.264926 0.431241 0.062561
0.300038 0.427728 0.062561
0.335149 0.424216 0.062561
0.370260 0.420703 0.062561
0.405372 0.417190 0.062561
0.440483 0.413678 0.062561
0.475594 0.410165 0.062561
0.510706 0.406652 0.062561
0.545817 0.403140 0.062561
0.580928 0.399627 0.062561
0.616040 0.396114 0.062561
0.651151 0.392602 0.062561
0.686263 0.389089 0.062561
0.721374 0.385576 0.062561
0.756485 0.382064 0.062561
0.791597 0.378551 0.062561
0.826708 0.375038 0.062561
0.861819 0.371526 0.062561
0.896931 0.368013 0.062561
0.918866 0.364501 0.062561
0.918866 0.360988 0.062561
0.918866 0.357475 0.062561
0.918866 0.353963 0.062561
0.918866 0.350450 0.062561
0.062561 0.499020 0.062561
0.062561 0.495508 0.062561
0.062561 0.491995 0.062561
0.081517 0.488482 0.062561
0.116628 0.484970 0.062561
0.151740 0.481457 0.062561
0.186851 0.477944 0.062561
0.221962 0.474432 0.062561
0.257074 0.470919 0.062561
0.292185 0.467406 0.062561
0.327296 0.463894 0.062561
0.362408 0.460381 0.062561
0.397519 0.456868 0.062561
0.432630 0.453356 0.062561
0.467742 0.449843 0.062561
0.502853 0.446330 0.062561
0.537965 0.442818 0.062561
0.573076 0.439305 0.062561
0.608187 0.435792 0.062561
0.643299 0.432280 0.062561
0.678410 0.428767 0.062561
0.713521 0.425255 0.062561
0.748633 0.421742 0.062561
0.783744 0.418229 0.062561
0.818855 0.414717 0.062561
0.853967 0.411204 0.062561
0.889078 0.407691 0.062561
0.918866 0.404179 0.062561
0.918866 0.400666 0.062561
0.918866 0.397153 0.062561
0.918866 0.393641 0.062561
0.918866 0.390128 0.062561
0.062561 0.538698 0.062561
0.062561 0.535186 0.062561
0.062561 0.531673 0.062561
0.073664 0.528160 0.062561
0.108776 0.524648 0.062561
0.143887 0.521135 0.062561
0.178998 0.517622 0.062561
0.214110 0.514110 0.062561
0.249221 0.510597 0.062561
0.284332 0.507084 0.062561
0.319444 0.503572 0.062561
0.354555 0.500059 0.062561
0.389667 0.496546 0.062561
0.424778 0.493034 0.062561
0.459889 0.489521 0.062561
0.495001 0.486009 0.062561
0.530112 0.482496 0.062561
0.565223 0.478983 0.062561
0.600335 0.475471 0.062561
0.635446 0.471958 0.062561
0.670557 0.468445 0.062561
0.705669 0.464933 0.062561
0.740780 0.461420 0.062561
0.775891 0.457907 0.062561
0.811003 0.454395 0.062561
0.846114 0.450882 0.062561
0.881226 0.447369 0.062561
0.916337 0.443857 0.062561
0.918866 0.440344 0.062561
0.918866 0.436831 0.062561
0.918866 0.433319 0.062561
0.918866 0.429806 0.062561
0.062561 0.578376 0.062561
0.062561 0.574864 0.062561
0.062561 0.571351 0.062561
0.065812 0.567838 0.062561
0.100923 0.564326 0.062561
0.136034 0.560813 0.062561
0.171146 0.557300 0.062561
0.206257 0.553788 0.062561
0.241369 0.550275 0.062561
0.276480 0.546763 0.062561
0.311591 0.543250 0.062561
0.346703 0.539737 0.062561
0.381814 0.536225 0.062561
0.416925 0.532712 0.062561
0.452037 0.529199 0.062561
0.487148 0.525687 0.062561
0.522259 0.522174 0.062561
0.557371 0.518661 0.062561
0.592482 0.515149 0.062561
0.627593 0.511636 0.062561
0.662705 0.508123 0.062561
0.697816 0.504611 0.062561
0.732928 0.501098 0.062561
0.768039 0.497585 0.062561
0.803150 0.494073 0.062561
0.838262 0.490560 0.062561
0.873373 0.487047 0.062561
0.908484 0.483535 0.062561
0.918866 0.480022 0.062561
0.918866 0.476510 0.062561
0.918866 0.472997 0.062561
0.918866 0.469484 0.062561
0.062561 0.618054 0.062561
0.062561 0.614542 0.062561
0.062561 0.611029 0.062561
0.062561 0.607517 0.062561
0.093071 0.604004 0.062561
0.128182 0.600491 0.062561
0.163293 0.596979 0.062561
0.198405 0.593466 0.062561
0.233516 0.589953 0.062561
0.268627 0.586441 0.062561
0.303739 0.582928 0.062561
0.338850 0.579415 0.062561
0.373961 0.575903 0.062561
0.409073 0.572390 0.062561
0.444184 0.568877 0.062561
0.479295 0.565365 0.062561
0.514407 0.561852 0.062561
0.549518 0.558339 0.062561
0.584630 0.554827 0.062561
0.619741 0.551314 0.062561
0.654852 0.547801 0.062561
0.689964 0.544289 0.062561
0.725075 0.540776 0.062561
0.760186 0.537264 0.062561
0.795298 0.533751 0.062561
0.830409 0.530238 0.062561
0.865520 0.526726 0.062561
0.900632 0.523213 0.062561
0.918866 0.519700 0.062561
0.918866 0.516188 0.062561
0.918866 0.512675 0.062561
0.918866 0.509162 0.062561
0.062561 0.657733 0.062561
0.062561 0.654220 0.062561
0.062561 0.650707 0.062561
0.062561 0.647195 0.062561
0.085218 0.643682 0.062561
0.120329 0.640169 0.062561
0.155441 0.636657 0.062561
0.190552 0.633144 0.062561
0.225663 0.629631 0.062561
0.260775 0.626119 0.062561
0.295886 0.622606 0.062561
0.330997 0.619093 0.062561
0.366109 0.615581 0.062561
0.401220 0.612068 0.062561
0.436332 0.608555 0.062561
0.471443 0.605043 0.062561
0.506554 0.601530 0.062561
0.541666 0.598018 0.062561
0.576777 0.594505 0.062561
0.611888 0.590992 0.062561
0.647000 0.587480 0.062561
0.682111 0.583967 0.062561
0.717222 0.580454 0.062561
0.752334 0.576942 0.062561
0.787445 0.573429 0.062561
0.822556 0.569916 0.062561
0.857668 0.566404 0.062561
0.892779 0.562891 0.062561
0.918866 0.559378 0.062561
0.918866 0.555866 0.062561
0.918866 0.552353 0.062561
0.918866 0.548840 0.062561
0.062561 0.697411 0.062561
0.062561 0.693898 0.062561
0.062561 0.690385 0.062561
0.062561 0.686873 0.062561
0.077365 0.683360 0.062561
0.112477 0.679847 0.062561
0.147588 0.676335 0.062561
0.182700 0.672822 0.062561
0.217811 0.669309 0.062561
0.252922 0.665797 0.062561
0.288034 0.662284 0.062561
0.323145 0.658772 0.062561
0.358256 0.655259 0.062561
0.393368 0.651746 0.062561
0.428479 0.648234 0.062561
0.463590 0.644721 0.062561
0.498702 0.641208 0.062561
0.533813 0.637696 0.062561
0.568924 0.634183 0.062561
0.604036 0.630670 0.062561
0.639147 0.627158 0.062561
0.674258 0.623645 0.062561
0.709370 0.620132 0.062561
0.744481 0.616620 0.062561
0.779593 0.613107 0.062561
0.814704 0.609594 0.062561
0.849815 0.606082 0.062561
0.884927 0.602569 0.062561
0.918866 0.599056 0.062561
0.918866 0.595544 0.062561
0.918866 0.592031 0.062561
0.918866 0.588519 0.062561
0.062561 0.737089 0.062561
0.062561 0.733576 0.062561
0.062561 0.730063 0.062561
0.062561 0.726551 0.062561
0.069513 0.723038 0.062561
0.104624 0.719526 0.062561
0.139736 0.716013 0.062561
0.174847 0.712500 0.062561
0.209958 0.708988 0.062561
0.245070 0.705475 0.062561
0.280181 0.701962 0.062561
0.315292 0.698450 0.062561
0.350404 0.694937 0.062561
0.385515 0.691424 0.062561
0.420626 0.687912 0.062561
0.455738 0.684399 0.062561
0.490849 0.680886 0.062561
0.525961 0.677374 0.062561
0.561072 0.673861 0.062561
0.596183 0.670348 0.062561
0.631295 0.666836 0.062561
0.666406 0.663323 0.062561
0.701517 0.659810 0.062561
0.736629 0.656298 0.062561
0.771740 0.652785 0.062561
0.806851 0.649273 0.062561
0.841963 0.645760 0.062561
0.877074 0.642247 0.062561
0.912185 0.638735 0.062561
0.918866 0.635222 0.062561
0.918866 0.631709 0.062561
0.918866 0.628197 0.062561
0.062561 0.776767 0.062561
0.062561 0.773254 0.062561
0.062561 0.769742 0.062561
0.062561 0.766229 0.062561
0.062561 0.762716 0.062561
0.096772 0.759204 0.062561
0.131883 0.755691 0.062561
0.166994 0.752178 0.062561
0.202106 0.748666 0.062561
0.237217 0.745153 0.062561
0.272328 0.741640 0.062561
0.307440 0.738128 0.062561
0.342551 0.734615 0.062561
0.377663 0.731102 0.062561
0.412774 0.727590 0.062561
0.447885 0.724077 0.062561
0.482997 0.720564 0.062561
0.518108 0.717052 0.062561
0.553219 0.713539 0.062561
0.588331 0.710027 0.062561
0.623442 0.706514 0.062561
0.658553 0.703001 0.062561
0.693665 0.699489 0.062561
0.728776 0.695976 0.062561
0.763887 0.692463 0.062561
0.798999 0.688951 0.062561
0.834110 0.685438 0.062561
0.869221 0.681925 0.062561
0.904333 0.678413 0.062561
0.918866 0.674900 0.062561
0.918866 0.671387 0.062561
0.918866 0.667875 0.062561
0.062561 0.816445 0.062561
0.062561 0.812932 0.062561
0.062561 0.809420 0.062561
0.062561 0.805907 0.062561
0.062561 0.802394 0.062561
0.088919 0.798882 0.062561
0.124030 0.795369 0.062561
0.159142 0.791856 0.062561
0.194253 0.788344 0.062561
0.229365 0.784831 0.062561
0.264476 0.781318 0.062561
0.299587 0.777806 0.062561
0.334699 0.774293 0.062561
0.369810 0.770781 0.062561
0.404921 0.767268 0.062561
0.440033 0.763755 0.062561
0.475144 0.760243 0.062561
0.510255 0.756730 0.062561
0.545367 0.753217 0.062561
0.580478 0.749705 0.062561
0.615589 0.746192 0.062561
0.650701 0.742679 0.062561
0.685812 0.739167 0.062561
0.720924 0.735654 0.062561
0.756035 0.732141 0.062561
0.791146 0.728629 0.062561
0.826258 0.725116 0.062561
0.861369 0.721603 0.062561
0.896480 0.718091 0.062561
0.918866 0.714578 0.062561
0.918866 0.711065 0.062561
0.918866 0.707553 0.062561
0.062561 0.856123 0.062561
0.062561 0.852610 0.062561
0.062561 0.849098 0.062561
0.062561 0.845585 0.062561
0.062561 0.842072 0.062561
0.081067 0.838560 0.062561
0.116178 0.835047 0.062561
0.151289 0.831535 0.062561
0.186401 0.828022 0.062561
0.221512 0.824509 0.062561
0.256623 0.820997 0.062561
0.291735 0.817484 0.062561
0.326846 0.813971 0.062561
0.361957 0.810459 0.062561
0.397069 0.806946 0.062561
0.432180 0.803433 0.062561
0.467291 0.799921 0.062561
0.502403 0.796408 0.062561
0.537514 0.792895 0.062561
0.572626 0.789383 0.062561
0.607737 0.785870 0.062561
0.642848 0.782357 0.062561
0.677960 0.778845 0.062561
0.713071 0.775332 0.062561
0.748182 0.771819 0.062561
0.783294 0.768307 0.062561
0.818405 0.764794 0.062561
0.853516 0.761282 0.062561
0.888628 0.757769 0.062561
0.918866 0.754256 0.062561
0.918866 0.750744 0.062561
0.918866 0.747231 0.062561
0.062561 0.895801 0.062561
0.062561 0.892289 0.062561
0.062561 0.888776 0.062561
0.062561 0.885263 0.062561
0.062561 0.881751 0.062561
0.073214 0.878238 0.062561
0.108325 0.874725 0.062561
0.143437 0.871213 0.062561
0.178548 0.867700 0.062561
0.213659 0.864187 0.062561
0.248771 0.860675 0.062561
0.283882 0.857162 0.062561
0.318993 0.853649 0.062561
0.354105 0.850137 0.062561
0.389216 0.846624 0.062561
0.424328 0.843111 0.062561
0.459439 0.839599 0.062561
0.494550 0.836086 0.062561
0.529662 0.832573 0.062561
0.564773 0.829061 0.062561
0.599884 0.825548 0.062561
0.634996 0.822036 0.062561
0.670107 0.818523 0.062561
0.705218 0.815010 0.062561
0.740330 0.811498 0.062561
0.775441 0.807985 0.062561
0.810552 0.804472 0.062561
0.845664 0.800960 0.062561
0.880775 0.797447 0.062561
0.915887 0.793934 0.062561
0.918866 0.790422 0.062561
0.918866 0.786909 0.062561
0.062561 0.918866 0.062561
0.062561 0.918866 0.062561
0.062561 0.918866 0.062561
0.062561 0.918866 0.062561
0.062561 0.918866 0.062561
0.065361 0.917916 0.062561
0.100473 0.914403 0.062561
0.135584 0.910891 0.062561
0.170695 0.907378 0.062561
0.205807 0.903865 0.062561
0.240918 0.900353 0.062561
0.276030 0.896840 0.062561
0.311141 0.893327 0.062561
0.346252 0.889815 0.062561
0.381364 0.886302 0.062561
0.416475 0.882790 0.062561
0.451586 0.879277 0.062561
0.486698 0.875764 0.062561
0.521809 0.872252 0.062561
0.556920 0.868739 0.062561
0.592032 0.865226 0.062561
0.627143 0.861714 0.062561
0.662254 0.858201 0.062561
0.697366 0.854688 0.062561
0.732477 0.851176 0.062561
0.767589 0.847663 0.062561
0.802700 0.844150 0.062561
0.837811 0.840638 0.062561
0.872923 0.837125 0.062561
0.908034 0.833612 0.062561
0.918866 0.830100 0.062561
0.918866 0.826587 0.062561
0.062561 0.918866 0.062561
0.062561 0.918866 0.062561
0.062561 0.918866 0.062561
0.062561 0.918866 0.062561
0.062561 0.918866 0.062561
0.062561 0.918866 0.062561
0.092620 0.918866 0.062561
0.127732 0.918866 0.062561
0.162843 0.918866 0.062561
0.197954 0.918866 0.062561
0.233066 0.918866 0.062561
0.268177 0.918866 0.062561
0.303288 0.918866 0.062561
0.338400 0.918866 0.062561
0.373511 0.918866 0.062561
0.408622 0.918866 0.062561
0.443734 0.918866 0.062561
0.478845 0.915442 0.062561
0.513956 0.911930 0.062561
0.549068 0.908417 0.062561
0.584179 0.904904 0.062561
0.619291 0.901392 0.062561
0.654402 0.897879 0.062561
0.689513 0.894366 0.062561
0.724625 0.890854 0.062561
0.759736 0.887341 0.062561
0.794847 0.883828 0.062561
0.829959 0.880316 0.062561
0.865070 0.876803 0.062561
0.900181 0.873291 0.062561
0.918866 0.869778 0.062561
0.918866 0.866265 0.062561
0.062561 0.918866 0.062561
0.062561 0.918866 0.062561
0.062561 0.918866 0.062561
0.062561 0.918866 0.062561
0.062561 0.918866 0.062561
0.062561 0.918866 0.062561
0.084768 0.918866 0.062561
0.119879 0.918866 0.062561
0.154990 0.918866 0.062561
0.190102 0.918866 0.062561
0.225213 0.918866 0.062561
0.260324 0.918866 0.062561
0.295436 0.918866 0.062561
0.330547 0.918866 0.062561
0.365658 0.918866 0.062561
0.400770 0.918866 0.062561
0.435881 0.918866 0.062561
0.470993 0.918866 0.062561
0.506104 0.918866 0.062561
0.541215 0.918866 0.062561
0.576327 0.918866 0.062561
0.611438 0.918866 0.062561
0.646549 0.918866 0.062561
0.681661 0.918866 0.062561
0.716772 0.918866 0.062561
0.751883 0.918866 0.062561
0.786995 0.918866 0.062561
0.822106 0.918866 0.062561
0.857217 0.916481 0.062561
0.892329 0.912969 0.062561
0.918866 0.909456 0.062561
0.918866 0.905943 0.062561
0.062561 0.918866 0.062561
0.062561 0.918866 0.062561
0.062561 0.918866 0.062561
0.062561 0.918866 0.062561
0.062561 0.918866 0.062561
0.062561 0.918866 0.062561
0.076915 0.918866 0.062561
0.112026 0.918866 0.062561
0.147138 0.918866 0.062561
0.182249 0.918866 0.062561
0.217360 0.918866 0.062561
0.252472 0.918866 0.062561
0.287583 0.918866 0.062561
0.322695 0.918866 0.062561
0.357806 0.918866 0.062561
0.392917 0.918866 0.062561
0.428029 0.918866 0.062561
0.463140 0.918866 0.062561
0.498251 0.918866 0.062561
0.533363 0.918866 0.062561
0.568474 0.918866 0.062561
0.603585 0.918866 0.062561
0.638697 0.918866 0.062561
0.673808 0.918866 0.062561
0.708919 0.918866 0.062561
0.744031 0.918866 0.062561
0.779142 0.918866 0.062561
0.814254 0.918866 0.062561
0.849365 0.918866 0.062561
0.884476 0.918866 0.062561
0.918866 0.918866 0.062561
0.918866 0.918866 0.062561
0.062561 0.918866 0.062561
0.062561 0.918866 0.062561
0.062561 0.918866 0.062561
0.062561 0.918866 0.062561
0.062561 0.918866 0.062561
0.062561 0.918866 0.062561
0.069062 0.918866 0.062561
0.104174 0.918866 0.062561
0.139285 0.918866 0.062561
0.174397 0.918866 0.062561
0.209508 0.918866 0.062561
0.244619 0.918866 0.062561
0.279731 0.918866 0.062561
0.314842 0.918866 0.062561
0.349953 0.918866 0.062561
0.385065 0.918866 0.062561
0.420176 0.918866 0.062561
0.455287 0.918866 0.062561
0.490399 0.918866 0.062561
0.525510 0.918866 0.062561
0.560621 0.918866 0.062561
0.595733 0.918866 0.062561
0.630844 0.918866 0.062561
0.665956 0.918866 0.062561
0.701067 0.918866 0.062561
0.736178 0.918866 0.062561
0.771290 0.918866 0.062561
0.806401 0.918866 0.062561
0.841512 0.918866 0.062561
0.876624 0.918866 0.062561
0.911735 0.918866 0.062561
0.918866 0.918866 0.062561
0.062561 0.918866 0.062561
0.062561 0.918866 0.062561
0.062561 0.918866 0.062561
0.062561 0.918866 0.062561
0.062561 0.918866 0.062561
0.062561 0.918866 0.062561
0.062561 0.918866 0.062561
0.096321 0.918866 0.062561
0.131433 0.918866 0.062561
0.166544 0.918866 0.062561
0.201655 0.918866 0.062561
0.236767 0.918866 0.062561
0.271878 0.918866 0.062561
0.306989 0.918866 0.062561
0.342101 0.918866 0.062561
0.377212 0.918866 0.062561
0.412323 0.918866 0.062561
0.447435 0.918866 0.062561
0.482546 0.918866 0.062561
0.517658 0.918866 0.062561
