.nuke/nuke.LUT/linear-2-logC_exteded/AlexaV3_EI0800_Linear2LogC_EE_nuke3d.cube
# Alexa conversion LUT, lin2logc. Full in/full out.
# created by alexalutconv (2.07)
LUT_3D_SIZE 32
0.000000 0.000000 0.000000
0.572803 0.000000 0.000000
0.653846 0.000000 0.000000
0.699496 0.000000 0.000000
0.731425 0.000000 0.000000
0.756003 0.000000 0.000000
0.775988 0.000000 0.000000
0.792831 0.000000 0.000000
0.807386 0.000000 0.000000
0.820201 0.000000 0.000000
0.831648 0.000000 0.000000
0.841991 0.000000 0.000000
0.851425 0.000000 0.000000
0.860097 0.000000 0.000000
0.868119 0.000000 0.000000
0.875584 0.000000 0.000000
0.882564 0.000000 0.000000
0.889117 0.000000 0.000000
0.895293 0.000000 0.000000
0.901133 0.000000 0.000000
0.906671 0.000000 0.000000
0.911938 0.000000 0.000000
0.916958 0.000000 0.000000
0.921754 0.000000 0.000000
0.926346 0.000000 0.000000
0.930749 0.000000 0.000000
0.934978 0.000000 0.000000
0.939047 0.000000 0.000000
0.942967 0.000000 0.000000
0.946749 0.000000 0.000000
0.950403 0.000000 0.000000
0.953936 0.000000 0.000000
0.000000 0.572803 0.000000
0.572803 0.572803 0.000000
0.653846 0.572803 0.000000
0.699496 0.572803 0.000000
0.731425 0.572803 0.000000
0.756003 0.572803 0.000000
0.775988 0.572803 0.000000
0.792831 0.572803 0.000000
0.807386 0.572803 0.000000
0.820201 0.572803 0.000000
0.831648 0.572803 0.000000
0.841991 0.572803 0.000000
0.851425 0.572803 0.000000
0.860097 0.572803 0.000000
0.868119 0.572803 0.000000
0.875584 0.572803 0.000000
0.882564 0.572803 0.000000
0.889117 0.572803 0.000000
0.895293 0.572803 0.000000
0.901133 0.572803 0.000000
0.906671 0.572803 0.000000
0.911938 0.572803 0.000000
0.916958 0.572803 0.000000
0.921754 0.572803 0.000000
0.926346 0.572803 0.000000
0.930749 0.572803 0.000000
0.934978 0.572803 0.000000
0.939047 0.572803 0.000000
0.942967 0.572803 0.000000
0.946749 0.572803 0.000000
0.950403 0.572803 0.000000
0.953936 0.572803 0.000000
0.000000 0.653846 0.000000
0.572803 0.653846 0.000000
0.653846 0.653846 0.000000
0.699496 0.653846 0.000000
0.731425 0.653846 0.000000
0.756003 0.653846 0.000000
0.775988 0.653846 0.000000
0.792831 0.653846 0.000000
0.807386 0.653846 0.000000
0.820201 0.653846 0.000000
0.831648 0.653846 0.000000
0.841991 0.653846 0.000000
0.851425 0.653846 0.000000
0.860097 0.653846 0.000000
0.868119 0.653846 0.000000
0.875584 0.653846 0.000000
0.882564 0.653846 0.000000
0.889117 0.653846 0.000000
0.895293 0.653846 0.000000
0.901133 0.653846 0.000000
0.906671 0.653846 0.000000
0.911938 0.653846 0.000000
0.916958 0.653846 0.000000
0.921754 0.653846 0.000000
0.926346 0.653846 0.000000
0.930749 0.653846 0.000000
0.934978 0.653846 0.000000
0.939047 0.653846 0.000000
0.942967 0.653846 0.000000
0.946749 0.653846 0.000000
0.950403 0.653846 0.000000
0.953936 0.653846 0.000000
0.000000 0.699496 0.000000
0.572803 0.699496 0.000000
0.653846 0.699496 0.000000
0.699496 0.699496 0.000000
0.731425 0.699496 0.000000
0.756003 0.699496 0.000000
0.775988 0.699496 0.000000
0.792831 0.699496 0.000000
0.807386 0.699496 0.000000
0.820201 0.699496 0.000000
0.831648 0.699496 0.000000
0.841991 0.699496 0.000000
0.851425 0.699496 0.000000
0.860097 0.699496 0.000000
0.868119 0.699496 0.000000
0.875584 0.699496 0.000000
0.882564 0.699496 0.000000
0.889117 0.699496 0.000000
0.895293 0.699496 0.000000
0.901133 0.699496 0.000000
0.906671 0.699496 0.000000
0.911938 0.699496 0.000000
0.916958 0.699496 0.000000
0.921754 0.699496 0.000000
0.926346 0.699496 0.000000
0.930749 0.699496 0.000000
0.934978 0.699496 0.000000
0.939047 0.699496 0.000000
0.942967 0.699496 0.000000
0.946749 0.699496 0.000000
0.950403 0.699496 0.000000
0.953936 0.699496 0.000000
0.000000 0.731425 0.000000
0.572803 0.731425 0.000000
0.653846 0.731425 0.000000
0.699496 0.731425 0.000000
0.731425 0.731425 0.000000
0.756003 0.731425 0.000000
0.775988 0.731425 0.000000
0.792831 0.731425 0.000000
0.807386 0.731425 0.000000
0.820201 0.731425 0.000000
0.831648 0.731425 0.000000
0.841991 0.731425 0.000000
0.851425 0.731425 0.000000
0.860097 0.731425 0.000000
0.868119 0.731425 0.000000
0.875584 0.731425 0.000000
0.882564 0.731425 0.000000
0.889117 0.731425 0.000000
0.895293 0.731425 0.000000
0.901133 0.731425 0.000000
0.906671 0.731425 0.000000
0.911938 0.731425 0.000000
0.916958 0.731425 0.000000
0.921754 0.731425 0.000000
0.926346 0.731425 0.000000
0.930749 0.731425 0.000000
0.934978 0.731425 0.000000
0.939047 0.731425 0.000000
0.942967 0.731425 0.000000
0.946749 0.731425 0.000000
0.950403 0.731425 0.000000
0.953936 0.731425 0.000000
0.000000 0.756003 0.000000
0.572803 0.756003 0.000000
0.653846 0.756003 0.000000
0.699496 0.756003 0.000000
0.731425 0.756003 0.000000
0.756003 0.756003 0.000000
0.775988 0.756003 0.000000
0.792831 0.756003 0.000000
0.807386 0.756003 0.000000
0.820201 0.756003 0.000000
0.831648 0.756003 0.000000
0.841991 0.756003 0.000000
0.851425 0.756003 0.000000
0.860097 0.756003 0.000000
0.868119 0.756003 0.000000
0.875584 0.756003 0.000000
0.882564 0.756003 0.000000
0.889117 0.756003 0.000000
0.895293 0.756003 0.000000
0.901133 0.756003 0.000000
0.906671 0.756003 0.000000
0.911938 0.756003 0.000000
0.916958 0.756003 0.000000
0.921754 0.756003 0.000000
0.926346 0.756003 0.000000
0.930749 0.756003 0.000000
0.934978 0.756003 0.000000
0.939047 0.756003 0.000000
0.942967 0.756003 0.000000
0.946749 0.756003 0.000000
0.950403 0.756003 0.000000
0.953936 0.756003 0.000000
0.000000 0.775988 0.000000
0.572803 0.775988 0.000000
0.653846 0.775988 0.000000
0.699496 0.775988 0.000000
0.731425 0.775988 0.000000
0.756003 0.775988 0.000000
0.775988 0.775988 0.000000
0.792831 0.775988 0.000000
0.807386 0.775988 0.000000
0.820201 0.775988 0.000000
0.831648 0.775988 0.000000
0.841991 0.775988 0.000000
0.851425 0.775988 0.000000
0.860097 0.775988 0.000000
0.868119 0.775988 0.000000
0.875584 0.775988 0.000000
0.882564 0.775988 0.000000
0.889117 0.775988 0.000000
0.895293 0.775988 0.000000
0.901133 0.775988 0.000000
0.906671 0.775988 0.000000
0.911938 0.775988 0.000000
0.916958 0.775988 0.000000
0.921754 0.775988 0.000000
0.926346 0.775988 0.000000
0.930749 0.775988 0.000000
0.934978 0.775988 0.000000
0.939047 0.775988 0.000000
0.942967 0.775988 0.000000
0.946749 0.775988 0.000000
0.950403 0.775988 0.000000
0.953936 0.775988 0.000000
0.000000 0.792831 0.000000
0.572803 0.792831 0.000000
0.653846 0.792831 0.000000
0.699496 0.792831 0.000000
0.731425 0.792831 0.000000
0.756003 0.792831 0.000000
0.775988 0.792831 0.000000
0.792831 0.792831 0.000000
0.807386 0.792831 0.000000
0.820201 0.792831 0.000000
0.831648 0.792831 0.000000
0.841991 0.792831 0.000000
0.851425 0.792831 0.000000
0.860097 0.792831 0.000000
0.868119 0.792831 0.000000
0.875584 0.792831 0.000000
0.882564 0.792831 0.000000
0.889117 0.792831 0.000000
0.895293 0.792831 0.000000
0.901133 0.792831 0.000000
0.906671 0.792831 0.000000
0.911938 0.792831 0.000000
0.916958 0.792831 0.000000
0.921754 0.792831 0.000000
0.926346 0.792831 0.000000
0.930749 0.792831 0.000000
0.934978 0.792831 0.000000
0.939047 0.792831 0.000000
0.942967 0.792831 0.000000
0.946749 0.792831 0.000000
0.950403 0.792831 0.000000
0.953936 0.792831 0.000000
0.000000 0.807386 0.000000
0.572803 0.807386 0.000000
0.653846 0.807386 0.000000
0.699496 0.807386 0.000000
0.731425 0.807386 0.000000
0.756003 0.807386 0.000000
0.775988 0.807386 0.000000
0.792831 0.807386 0.000000
0.807386 0.807386 0.000000
0.820201 0.807386 0.000000
0.831648 0.807386 0.000000
0.841991 0.807386 0.000000
0.851425 0.807386 0.000000
0.860097 0.807386 0.000000
0.868119 0.807386 0.000000
0.875584 0.807386 0.000000
0.882564 0.807386 0.000000
0.889117 0.807386 0.000000
0.895293 0.807386 0.000000
0.901133 0.807386 0.000000
0.906671 0.807386 0.000000
0.911938 0.807386 0.000000
0.916958 0.807386 0.000000
0.921754 0.807386 0.000000
0.926346 0.807386 0.000000
0.930749 0.807386 0.000000
0.934978 0.807386 0.000000
0.939047 0.807386 0.000000
0.942967 0.807386 0.000000
0.946749 0.807386 0.000000
0.950403 0.807386 0.000000
0.953936 0.807386 0.000000
0.000000 0.820201 0.000000
0.572803 0.820201 0.000000
0.653846 0.820201 0.000000
0.699496 0.820201 0.000000
0.731425 0.820201 0.000000
0.756003 0.820201 0.000000
0.775988 0.820201 0.000000
0.792831 0.820201 0.000000
0.807386 0.820201 0.000000
0.820201 0.820201 0.000000
0.831648 0.820201 0.000000
0.841991 0.820201 0.000000
0.851425 0.820201 0.000000
0.860097 0.820201 0.000000
0.868119 0.820201 0.000000
0.875584 0.820201 0.000000
0.882564 0.820201 0.000000
0.889117 0.820201 0.000000
0.895293 0.820201 0.000000
0.901133 0.820201 0.000000
0.906671 0.820201 0.000000
0.911938 0.820201 0.000000
0.916958 0.820201 0.000000
0.921754 0.820201 0.000000
0.926346 0.820201 0.000000
0.930749 0.820201 0.000000
0.934978 0.820201 0.000000
0.939047 0.820201 0.000000
0.942967 0.820201 0.000000
0.946749 0.820201 0.000000
0.950403 0.820201 0.000000
0.953936 0.820201 0.000000
0.000000 0.831648 0.000000
0.572803 0.831648 0.000000
0.653846 0.831648 0.000000
0.699496 0.831648 0.000000
0.731425 0.831648 0.000000
0.756003 0.831648 0.000000
0.775988 0.831648 0.000000
0.792831 0.831648 0.000000
0.807386 0.831648 0.000000
0.820201 0.831648 0.000000
0.831648 0.831648 0.000000
0.841991 0.831648 0.000000
0.851425 0.831648 0.000000
0.860097 0.831648 0.000000
0.868119 0.831648 0.000000
0.875584 0.831648 0.000000
0.882564 0.831648 0.000000
0.889117 0.831648 0.000000
0.895293 0.831648 0.000000
0.901133 0.831648 0.000000
0.906671 0.831648 0.000000
0.911938 0.831648 0.000000
0.916958 0.831648 0.000000
0.921754 0.831648 0.000000
0.926346 0.831648 0.000000
0.930749 0.831648 0.000000
0.934978 0.831648 0.000000
0.939047 0.831648 0.000000
0.942967 0.831648 0.000000
0.946749 0.831648 0.000000
0.950403 0.831648 0.000000
0.953936 0.831648 0.000000
0.000000 0.841991 0.000000
0.572803 0.841991 0.000000
0.653846 0.841991 0.000000
0.699496 0.841991 0.000000
0.731425 0.841991 0.000000
0.756003 0.841991 0.000000
0.775988 0.841991 0.000000
0.792831 0.841991 0.000000
0.807386 0.841991 0.000000
0.820201 0.841991 0.000000
0.831648 0.841991 0.000000
0.841991 0.841991 0.000000
0.851425 0.841991 0.000000
0.860097 0.841991 0.000000
0.868119 0.841991 0.000000
0.875584 0.841991 0.000000
0.882564 0.841991 0.000000
0.889117 0.841991 0.000000
0.895293 0.841991 0.000000
0.901133 0.841991 0.000000
0.906671 0.841991 0.000000
0.911938 0.841991 0.000000
0.916958 0.841991 0.000000
0.921754 0.841991 0.000000
0.926346 0.841991 0.000000
0.930749 0.841991 0.000000
0.934978 0.841991 0.000000
0.939047 0.841991 0.000000
0.942967 0.841991 0.000000
0.946749 0.841991 0.000000
0.950403 0.841991 0.000000
0.953936 0.841991 0.000000
0.000000 0.851425 0.000000
0.572803 0.851425 0.000000
0.653846 0.851425 0.000000
0.699496 0.851425 0.000000
0.731425 0.851425 0.000000
0.756003 0.851425 0.000000
0.775988 0.851425 0.000000
0.792831 0.851425 0.000000
0.807386 0.851425 0.000000
0.820201 0.851425 0.000000
0.831648 0.851425 0.000000
0.841991 0.851425 0.000000
0.851425 0.851425 0.000000
0.860097 0.851425 0.000000
0.868119 0.851425 0.000000
0.875584 0.851425 0.000000
0.882564 0.851425 0.000000
0.889117 0.851425 0.000000
0.895293 0.851425 0.000000
0.901133 0.851425 0.000000
0.906671 0.851425 0.000000
0.911938 0.851425 0.000000
0.916958 0.851425 0.000000
0.921754 0.851425 0.000000
0.926346 0.851425 0.000000
0.930749 0.851425 0.000000
0.934978 0.851425 0.000000
0.939047 0.851425 0.000000
0.942967 0.851425 0.000000
0.946749 0.851425 0.000000
0.950403 0.851425 0.000000
0.953936 0.851425 0.000000
0.000000 0.860097 0.000000
0.572803 0.860097 0.000000
0.653846 0.860097 0.000000
0.699496 0.860097 0.000000
0.731425 0.860097 0.000000
0.756003 0.860097 0.000000
0.775988 0.860097 0.000000
0.792831 0.860097 0.000000
0.807386 0.860097 0.000000
0.820201 0.860097 0.000000
0.831648 0.860097 0.000000
0.841991 0.860097 0.000000
0.851425 0.860097 0.000000
0.860097 0.860097 0.000000
0.868119 0.860097 0.000000
0.875584 0.860097 0.000000
0.882564 0.860097 0.000000
0.889117 0.860097 0.000000
0.895293 0.860097 0.000000
0.901133 0.860097 0.000000
0.906671 0.860097 0.000000
0.911938 0.860097 0.000000
0.916958 0.860097 0.000000
0.921754 0.860097 0.000000
0.926346 0.860097 0.000000
0.930749 0.860097 0.000000
0.934978 0.860097 0.000000
0.939047 0.860097 0.000000
0.942967 0.860097 0.000000
0.946749 0.860097 0.000000
0.950403 0.860097 0.000000
0.953936 0.860097 0.000000
0.000000 0.868119 0.000000
0.572803 0.868119 0.000000
0.653846 0.868119 0.000000
0.699496 0.868119 0.000000
0.731425 0.868119 0.000000
0.756003 0.868119 0.000000
0.775988 0.868119 0.000000
0.792831 0.868119 0.000000
0.807386 0.868119 0.000000
0.820201 0.868119 0.000000
0.831648 0.868119 0.000000
0.841991 0.868119 0.000000
0.851425 0.868119 0.000000
0.860097 0.868119 0.000000
0.868119 0.868119 0.000000
0.875584 0.868119 0.000000
0.882564 0.868119 0.000000
0.889117 0.868119 0.000000
0.895293 0.868119 0.000000
0.901133 0.868119 0.000000
0.906671 0.868119 0.000000
0.911938 0.868119 0.000000
0.916958 0.868119 0.000000
0.921754 0.868119 0.000000
0.926346 0.868119 0.000000
0.930749 0.868119 0.000000
0.934978 0.868119 0.000000
0.939047 0.868119 0.000000
0.942967 0.868119 0.000000
0.946749 0.868119 0.000000
0.950403 0.868119 0.000000
0.953936 0.868119 0.000000
0.000000 0.875584 0.000000
0.572803 0.875584 0.000000
0.653846 0.875584 0.000000
0.699496 0.875584 0.000000
0.731425 0.875584 0.000000
0.756003 0.875584 0.000000
0.775988 0.875584 0.000000
0.792831 0.875584 0.000000
0.807386 0.875584 0.000000
0.820201 0.875584 0.000000
0.831648 0.875584 0.000000
0.841991 0.875584 0.000000
0.851425 0.875584 0.000000
0.860097 0.875584 0.000000
0.868119 0.875584 0.000000
0.875584 0.875584 0.000000
0.882564 0.875584 0.000000
0.889117 0.875584 0.000000
0.895293 0.875584 0.000000
0.901133 0.875584 0.000000
0.906671 0.875584 0.000000
0.911938 0.875584 0.000000
0.916958 0.875584 0.000000
0.921754 0.875584 0.000000
0.926346 0.875584 0.000000
0.930749 0.875584 0.000000
0.934978 0.875584 0.000000
0.939047 0.875584 0.000000
0.942967 0.875584 0.000000
0.946749 0.875584 0.000000
0.950403 0.875584 0.000000
0.953936 0.875584 0.000000
0.000000 0.882564 0.000000
0.572803 0.882564 0.000000
0.653846 0.882564 0.000000
0.699496 0.882564 0.000000
0.731425 0.882564 0.000000
0.756003 0.882564 0.000000
0.775988 0.882564 0.000000
0.792831 0.882564 0.000000
0.807386 0.882564 0.000000
0.820201 0.882564 0.000000
0.831648 0.882564 0.000000
0.841991 0.882564 0.000000
0.851425 0.882564 0.000000
0.860097 0.882564 0.000000
0.868119 0.882564 0.000000
0.875584 0.882564 0.000000
0.882564 0.882564 0.000000
0.889117 0.882564 0.000000
0.895293 0.882564 0.000000
0.901133 0.882564 0.000000
0.906671 0.882564 0.000000
0.911938 0.882564 0.000000
0.916958 0.882564 0.000000
0.921754 0.882564 0.000000
0.926346 0.882564 0.000000
0.930749 0.882564 0.000000
0.934978 0.882564 0.000000
0.939047 0.882564 0.000000
0.942967 0.882564 0.000000
0.946749 0.882564 0.000000
0.950403 0.882564 0.000000
0.953936 0.882564 0.000000
0.000000 0.889117 0.000000
0.572803 0.889117 0.000000
0.653846 0.889117 0.000000
0.699496 0.889117 0.000000
0.731425 0.889117 0.000000
0.756003 0.889117 0.000000
0.775988 0.889117 0.000000
0.792831 0.889117 0.000000
0.807386 0.889117 0.000000
0.820201 0.889117 0.000000
0.831648 0.889117 0.000000
0.841991 0.889117 0.000000
0.851425 0.889117 0.000000
0.860097 0.889117 0.000000
0.868119 0.889117 0.000000
0.875584 0.889117 0.000000
0.882564 0.889117 0.000000
0.889117 0.889117 0.000000
0.895293 0.889117 0.000000
0.901133 0.889117 0.000000
0.906671 0.889117 0.000000
0.911938 0.889117 0.000000
0.916958 0.889117 0.000000
0.921754 0.889117 0.000000
0.926346 0.889117 0.000000
0.930749 0.889117 0.000000
0.934978 0.889117 0.000000
0.939047 0.889117 0.000000
0.942967 0.889117 0.000000
0.946749 0.889117 0.000000
0.950403 0.889117 0.000000
0.953936 0.889117 0.000000
0.000000 0.895293 0.000000
0.572803 0.895293 0.000000
0.653846 0.895293 0.000000
0.699496 0.895293 0.000000
0.731425 0.895293 0.000000
0.756003 0.895293 0.000000
0.775988 0.895293 0.000000
0.792831 0.895293 0.000000
0.807386 0.895293 0.000000
0.820201 0.895293 0.000000
0.831648 0.895293 0.000000
0.841991 0.895293 0.000000
0.851425 0.895293 0.000000
0.860097 0.895293 0.000000
0.868119 0.895293 0.000000
0.875584 0.895293 0.000000
0.882564 0.895293 0.000000
0.889117 0.895293 0.000000
0.895293 0.895293 0.000000
0.901133 0.895293 0.000000
0.906671 0.895293 0.000000
0.911938 0.895293 0.000000
0.916958 0.895293 0.000000
0.921754 0.895293 0.000000
0.926346 0.895293 0.000000
0.930749 0.895293 0.000000
0.934978 0.895293 0.000000
0.939047 0.895293 0.000000
0.942967 0.895293 0.000000
0.946749 0.895293 0.000000
0.950403 0.895293 0.000000
0.953936 0.895293 0.000000
0.000000 0.901133 0.000000
0.572803 0.901133 0.000000
0.653846 0.901133 0.000000
0.699496 0.901133 0.000000
0.731425 0.901133 0.000000
0.756003 0.901133 0.000000
0.775988 0.901133 0.000000
0.792831 0.901133 0.000000
0.807386 0.901133 0.000000
0.820201 0.901133 0.000000
0.831648 0.901133 0.000000
0.841991 0.901133 0.000000
0.851425 0.901133 0.000000
0.860097 0.901133 0.000000
0.868119 0.901133 0.000000
0.875584 0.901133 0.000000
0.882564 0.901133 0.000000
0.889117 0.901133 0.000000
0.895293 0.901133 0.000000
0.901133 0.901133 0.000000
0.906671 0.901133 0.000000
0.911938 0.901133 0.000000
0.916958 0.901133 0.000000
0.921754 0.901133 0.000000
0.926346 0.901133 0.000000
0.930749 0.901133 0.000000
0.934978 0.901133 0.000000
0.939047 0.901133 0.000000
0.942967 0.901133 0.000000
0.946749 0.901133 0.000000
0.950403 0.901133 0.000000
0.953936 0.901133 0.000000
0.000000 0.906671 0.000000
0.572803 0.906671 0.000000
0.653846 0.906671 0.000000
0.699496 0.906671 0.000000
0.731425 0.906671 0.000000
0.756003 0.906671 0.000000
0.775988 0.906671 0.000000
0.792831 0.906671 0.000000
0.807386 0.906671 0.000000
0.820201 0.906671 0.000000
0.831648 0.906671 0.000000
0.841991 0.906671 0.000000
0.851425 0.906671 0.000000
0.860097 0.906671 0.000000
0.868119 0.906671 0.000000
0.875584 0.906671 0.000000
0.882564 0.906671 0.000000
0.889117 0.906671 0.000000
0.895293 0.906671 0.000000
0.901133 0.906671 0.000000
0.906671 0.906671 0.000000
0.911938 0.906671 0.000000
0.916958 0.906671 0.000000
0.921754 0.906671 0.000000
0.926346 0.906671 0.000000
0.930749 0.906671 0.000000
0.934978 0.906671 0.000000
0.939047 0.906671 0.000000
0.942967 0.906671 0.000000
0.946749 0.906671 0.000000
0.950403 0.906671 0.000000
0.953936 0.906671 0.000000
0.000000 0.911938 0.000000
0.572803 0.911938 0.000000
0.653846 0.911938 0.000000
0.699496 0.911938 0.000000
0.731425 0.911938 0.000000
0.756003 0.911938 0.000000
0.775988 0.911938 0.000000
0.792831 0.911938 0.000000
0.807386 0.911938 0.000000
0.820201 0.911938 0.000000
0.831648 0.911938 0.000000
0.841991 0.911938 0.000000
0.851425 0.911938 0.000000
0.860097 0.911938 0.000000
0.868119 0.911938 0.000000
0.875584 0.911938 0.000000
0.882564 0.911938 0.000000
0.889117 0.911938 0.000000
0.895293 0.911938 0.000000
0.901133 0.911938 0.000000
0.906671 0.911938 0.000000
0.911938 0.911938 0.000000
0.916958 0.911938 0.000000
0.921754 0.911938 0.000000
0.926346 0.911938 0.000000
0.930749 0.911938 0.000000
0.934978 0.911938 0.000000
0.939047 0.911938 0.000000
0.942967 0.911938 0.000000
0.946749 0.911938 0.000000
0.950403 0.911938 0.000000
0.953936 0.911938 0.000000
0.000000 0.916958 0.000000
0.572803 0.916958 0.000000
0.653846 0.916958 0.000000
0.699496 0.916958 0.000000
0.731425 0.916958 0.000000
0.756003 0.916958 0.000000
0.775988 0.916958 0.000000
0.792831 0.916958 0.000000
0.807386 0.916958 0.000000
0.820201 0.916958 0.000000
0.831648 0.916958 0.000000
0.841991 0.916958 0.000000
0.851425 0.916958 0.000000
0.860097 0.916958 0.000000
0.868119 0.916958 0.000000
0.875584 0.916958 0.000000
0.882564 0.916958 0.000000
0.889117 0.916958 0.000000
0.895293 0.916958 0.000000
0.901133 0.916958 0.000000
0.906671 0.916958 0.000000
0.911938 0.916958 0.000000
0.916958 0.916958 0.000000
0.921754 0.916958 0.000000
0.926346 0.916958 0.000000
0.930749 0.916958 0.000000
0.934978 0.916958 0.000000
0.939047 0.916958 0.000000
0.942967 0.916958 0.000000
0.946749 0.916958 0.000000
0.950403 0.916958 0.000000
0.953936 0.916958 0.000000
0.000000 0.921754 0.000000
0.572803 0.921754 0.000000
0.653846 0.921754 0.000000
0.699496 0.921754 0.000000
0.731425 0.921754 0.000000
0.756003 0.921754 0.000000
0.775988 0.921754 0.000000
0.792831 0.921754 0.000000
0.807386 0.921754 0.000000
0.820201 0.921754 0.000000
0.831648 0.921754 0.000000
0.841991 0.921754 0.000000
0.851425 0.921754 0.000000
0.860097 0.921754 0.000000
0.868119 0.921754 0.000000
0.875584 0.921754 0.000000
0.882564 0.921754 0.000000
0.889117 0.921754 0.000000
0.895293 0.921754 0.000000
0.901133 0.921754 0.000000
0.906671 0.921754 0.000000
0.911938 0.921754 0.000000
0.916958 0.921754 0.000000
0.921754 0.921754 0.000000
0.926346 0.921754 0.000000
0.930749 0.921754 0.000000
0.934978 0.921754 0.000000
0.939047 0.921754 0.000000
0.942967 0.921754 0.000000
0.946749 0.921754 0.000000
0.950403 0.921754 0.000000
0.953936 0.921754 0.000000
0.000000 0.926346 0.000000
0.572803 0.926346 0.000000
0.653846 0.926346 0.000000
0.699496 0.926346 0.000000
0.731425 0.926346 0.000000
0.756003 0.926346 0.000000
0.775988 0.926346 0.000000
0.792831 0.926346 0.000000
0.807386 0.926346 0.000000
0.820201 0.926346 0.000000
0.831648 0.926346 0.000000
0.841991 0.926346 0.000000
0.851425 0.926346 0.000000
0.860097 0.926346 0.000000
0.868119 0.926346 0.000000
0.875584 0.926346 0.000000
0.882564 0.926346 0.000000
0.889117 0.926346 0.000000
0.895293 0.926346 0.000000
0.901133 0.926346 0.000000
0.906671 0.926346 0.000000
0.911938 0.926346 0.000000
0.916958 0.926346 0.000000
0.921754 0.926346 0.000000
0.926346 0.926346 0.000000
0.930749 0.926346 0.000000
0.934978 0.926346 0.000000
0.939047 0.926346 0.000000
0.942967 0.926346 0.000000
0.946749 0.926346 0.000000
0.950403 0.926346 0.000000
0.953936 0.926346 0.000000
0.000000 0.930749 0.000000
0.572803 0.930749 0.000000
0.653846 0.930749 0.000000
0.699496 0.930749 0.000000
0.731425 0.930749 0.000000
0.756003 0.930749 0.000000
0.775988 0.930749 0.000000
0.792831 0.930749 0.000000
0.807386 0.930749 0.000000
0.820201 0.930749 0.000000
0.831648 0.930749 0.000000
0.841991 0.930749 0.000000
0.851425 0.930749 0.000000
0.860097 0.930749 0.000000
0.868119 0.930749 0.000000
0.875584 0.930749 0.000000
0.882564 0.930749 0.000000
0.889117 0.930749 0.000000
0.895293 0.930749 0.000000
0.901133 0.930749 0.000000
0.906671 0.930749 0.000000
0.911938 0.930749 0.000000
0.916958 0.930749 0.000000
0.921754 0.930749 0.000000
0.926346 0.930749 0.000000
0.930749 0.930749 0.000000
0.934978 0.930749 0.000000
0.939047 0.930749 0.000000
0.942967 0.930749 0.000000
0.946749 0.930749 0.000000
0.950403 0.930749 0.000000
0.953936 0.930749 0.000000
0.000000 0.934978 0.000000
0.572803 0.934978 0.000000
0.653846 0.934978 0.000000
0.699496 0.934978 0.000000
0.731425 0.934978 0.000000
0.756003 0.934978 0.000000
0.775988 0.934978 0.000000
0.792831 0.934978 0.000000
0.807386 0.934978 0.000000
0.820201 0.934978 0.000000
0.831648 0.934978 0.000000
0.841991 0.934978 0.000000
0.851425 0.934978 0.000000
0.860097 0.934978 0.000000
0.868119 0.934978 0.000000
0.875584 0.934978 0.000000
0.882564 0.934978 0.000000
0.889117 0.934978 0.000000
0.895293 0.934978 0.000000
0.901133 0.934978 0.000000
0.906671 0.934978 0.000000
0.911938 0.934978 0.000000
0.916958 0.934978 0.000000
0.921754 0.934978 0.000000
0.926346 0.934978 0.000000
0.930749 0.934978 0.000000
0.934978 0.934978 0.000000
0.939047 0.934978 0.000000
0.942967 0.934978 0.000000
0.946749 0.934978 0.000000
0.950403 0.934978 0.000000
0.953936 0.934978 0.000000
0.000000 0.939047 0.000000
0.572803 0.939047 0.000000
0.653846 0.939047 0.000000
0.699496 0.939047 0.000000
0.731425 0.939047 0.000000
0.756003 0.939047 0.000000
0.775988 0.939047 0.000000
0.792831 0.939047 0.000000
0.807386 0.939047 0.000000
0.820201 0.939047 0.000000
0.831648 0.939047 0.000000
0.841991 0.939047 0.000000
0.851425 0.939047 0.000000
0.860097 0.939047 0.000000
0.868119 0.939047 0.000000
0.875584 0.939047 0.000000
0.882564 0.939047 0.000000
0.889117 0.939047 0.000000
0.895293 0.939047 0.000000
0.901133 0.939047 0.000000
0.906671 0.939047 0.000000
