.nuke/nuke.LUT/linear-2-logC_exteded/AlexaV3_EI0800_Linear2LogC_EE_nuke3d.cube
# Alexa conversion LUT, lin2logc. Full in/full out.
# created by alexalutconv (2.07)
LUT_3D_SIZE 5
DOMAIN_MIN 0.000000 0.000000 0.000000
DOMAIN_MAX 0.903226 0.903226 0.903226
0.000000 0.000000 0.000000
0.792831 0.000000 0.000000
0.868119 0.000000 0.000000
0.911938 0.000000 0.000000
0.942967 0.000000 0.000000
0.000000 0.792831 0.000000
0.792831 0.792831 0.000000
0.868119 0.792831 0.000000
0.911938 0.792831 0.000000
0.942967 0.792831 0.000000
0.000000 0.868119 0.000000
0.792831 0.868119 0.000000
0.868119 0.868119 0.000000
0.911938 0.868119 0.000000
0.942967 0.868119 0.000000
0.000000 0.911938 0.000000
0.792831 0.911938 0.000000
0.868119 0.911938 0.000000
0.911938 0.911938 0.000000
0.942967 0.911938 0.000000
0.000000 0.942967 0.000000
0.792831 0.942967 0.000000
0.868119 0.942967 0.000000
0.911938 0.942967 0.000000
0.942967 0.942967 0.000000
0.000000 0.000000 0.792831
0.792831 0.000000 0.792831
0.868119 0.000000 0.792831
0.911938 0.000000 0.792831
0.942967 0.000000 0.792831
0.000000 0.792831 0.792831
0.792831 0.792831 0.792831
0.868119 0.792831 0.792831
0.911938 0.792831 0.792831
0.942967 0.792831 0.792831
0.000000 0.868119 0.792831
0.792831 0.868119 0.792831
0.868119 0.868119 0.792831
0.911938 0.868119 0.792831
0.942967 0.868119 0.792831
0.000000 0.911938 0.792831
0.792831 0.911938 0.792831
0.868119 0.911938 0.792831
0.911938 0.911938 0.792831
0.942967 0.911938 0.792831
0.000000 0.942967 0.792831
0.792831 0.942967 0.792831
0.868119 0.942967 0.792831
0.911938 0.942967 0.792831
0.942967 0.942967 0.792831
0.000000 0.000000 0.868119
0.792831 0.000000 0.868119
0.868119 0.000000 0.868119
0.911938 0.000000 0.868119
0.942967 0.000000 0.868119
0.000000 0.792831 0.868119
0.792831 0.792831 0.868119
0.868119 0.792831 0.868119
0.911938 0.792831 0.868119
0.942967 0.792831 0.868119
0.000000 0.868119 0.868119
0.792831 0.868119 0.868119
0.868119 0.868119 0.868119
0.911938 0.868119 0.868119
0.942967 0.868119 0.868119
0.000000 0.911938 0.868119
0.792831 0.911938 0.868119
0.868119 0.911938 0.868119
0.911938 0.911938 0.868119
0.942967 0.911938 0.868119
0.000000 0.942967 0.868119
0.792831 0.942967 0.868119
0.868119 0.942967 0.868119
0.911938 0.942967 0.868119
0.942967 0.942967 0.868119
0.000000 0.000000 0.911938
0.792831 0.000000 0.911938
0.868119 0.000000 0.911938
0.911938 0.000000 0.911938
0.942967 0.000000 0.911938
0.000000 0.792831 0.911938
0.792831 0.792831 0.911938
0.868119 0.792831 0.911938
0.911938 0.792831 0.911938
0.942967 0.792831 0.911938
0.000000 0.868119 0.911938
0.792831 0.868119 0.911938
0.868119 0.868119 0.911938
0.911938 0.868119 0.911938
0.942967 0.868119 0.911938
0.000000 0.911938 0.911938
0.792831 0.911938 0.911938
0.868119 0.911938 0.911938
0.911938 0.911938 0.911938
0.942967 0.911938 0.911938
0.000000 0.942967 0.911938
0.792831 0.942967 0.911938
0.868119 0.942967 0.911938
0.911938 0.942967 0.911938
0.942967 0.942967 0.911938
0.000000 0.000000 0.942967
0.792831 0.000000 0.942967
0.868119 0.000000 0.942967
0.911938 0.000000 0.942967
0.942967 0.000000 0.942967
0.000000 0.792831 0.942967
0.792831 0.792831 0.942967
0.868119 0.792831 0.942967
0.911938 0.792831 0.942967
0.942967 0.792831 0.942967
0.000000 0.868119 0.942967
0.792831 0.868119 0.942967
0.868119 0.868119 0.942967
0.911938 0.868119 0.942967
0.942967 0.868119 0.942967
0.000000 0.911938 0.942967
0.792831 0.911938 0.942967
0.868119 0.911938 0.942967
0.911938 0.911938 0.942967
0.942967 0.911938 0.942967
0.000000 0.942967 0.942967
0.792831 0.942967 0.942967
0.868119 0.942967 0.942967
0.911938 0.942967 0.942967
0.942967 0.942967 0.942967
