.nuke/nuke.LUT/linear-2-logC_exteded/AlexaV3_EI2560_Linear2LogC_EE_nuke3d.cube
# Alexa conversion LUT, lin2logc. Full in/full out.
# created by alexalutconv (2.07)
LUT_3D_SIZE 32
0.000000 0.000000 0.000000
0.679595 0.000000 0.000000
0.755866 0.000000 0.000000
0.798725 0.000000 0.000000
0.828057 0.000000 0.000000
0.849735 0.000000 0.000000
0.866813 0.000000 0.000000
0.880835 0.000000 0.000000
0.892689 0.000000 0.000000
0.902930 0.000000 0.000000
0.911927 0.000000 0.000000
0.919936 0.000000 0.000000
0.927144 0.000000 0.000000
0.933688 0.000000 0.000000
0.939677 0.000000 0.000000
0.945192 0.000000 0.000000
0.950300 0.000000 0.000000
0.955053 0.000000 0.000000
0.959496 0.000000 0.000000
0.963665 0.000000 0.000000
0.967590 0.000000 0.000000
0.971296 0.000000 0.000000
0.974807 0.000000 0.000000
0.978140 0.000000 0.000000
0.981312 0.000000 0.000000
0.984337 0.000000 0.000000
0.987227 0.000000 0.000000
0.989993 0.000000 0.000000
0.992646 0.000000 0.000000
0.995192 0.000000 0.000000
0.997642 0.000000 0.000000
1.000000 0.000000 0.000000
0.000000 0.679595 0.000000
0.679595 0.679595 0.000000
0.755866 0.679595 0.000000
0.798725 0.679595 0.000000
0.828057 0.679595 0.000000
0.849735 0.679595 0.000000
0.866813 0.679595 0.000000
0.880835 0.679595 0.000000
0.892689 0.679595 0.000000
0.902930 0.679595 0.000000
0.911927 0.679595 0.000000
0.919936 0.679595 0.000000
0.927144 0.679595 0.000000
0.933688 0.679595 0.000000
0.939677 0.679595 0.000000
0.945192 0.679595 0.000000
0.950300 0.679595 0.000000
0.955053 0.679595 0.000000
0.959496 0.679595 0.000000
0.963665 0.679595 0.000000
0.967590 0.679595 0.000000
0.971296 0.679595 0.000000
0.974807 0.679595 0.000000
0.978140 0.679595 0.000000
0.981312 0.679595 0.000000
0.984337 0.679595 0.000000
0.987227 0.679595 0.000000
0.989993 0.679595 0.000000
0.992646 0.679595 0.000000
0.995192 0.679595 0.000000
0.997642 0.679595 0.000000
1.000000 0.679595 0.000000
0.000000 0.755866 0.000000
0.679595 0.755866 0.000000
0.755866 0.755866 0.000000
0.798725 0.755866 0.000000
0.828057 0.755866 0.000000
0.849735 0.755866 0.000000
0.866813 0.755866 0.000000
0.880835 0.755866 0.000000
0.892689 0.755866 0.000000
0.902930 0.755866 0.000000
0.911927 0.755866 0.000000
0.919936 0.755866 0.000000
0.927144 0.755866 0.000000
0.933688 0.755866 0.000000
0.939677 0.755866 0.000000
0.945192 0.755866 0.000000
0.950300 0.755866 0.000000
0.955053 0.755866 0.000000
0.959496 0.755866 0.000000
0.963665 0.755866 0.000000
0.967590 0.755866 0.000000
0.971296 0.755866 0.000000
0.974807 0.755866 0.000000
0.978140 0.755866 0.000000
0.981312 0.755866 0.000000
0.984337 0.755866 0.000000
0.987227 0.755866 0.000000
0.989993 0.755866 0.000000
0.992646 0.755866 0.000000
0.995192 0.755866 0.000000
0.997642 0.755866 0.000000
1.000000 0.755866 0.000000
0.000000 0.798725 0.000000
0.679595 0.798725 0.000000
0.755866 0.798725 0.000000
0.798725 0.798725 0.000000
0.828057 0.798725 0.000000
0.849735 0.798725 0.000000
0.866813 0.798725 0.000000
0.880835 0.798725 0.000000
0.892689 0.798725 0.000000
0.902930 0.798725 0.000000
0.911927 0.798725 0.000000
0.919936 0.798725 0.000000
0.927144 0.798725 0.000000
0.933688 0.798725 0.000000
0.939677 0.798725 0.000000
0.945192 0.798725 0.000000
0.950300 0.798725 0.000000
0.955053 0.798725 0.000000
0.959496 0.798725 0.000000
0.963665 0.798725 0.000000
0.967590 0.798725 0.000000
0.971296 0.798725 0.000000
0.974807 0.798725 0.000000
0.978140 0.798725 0.000000
0.981312 0.798725 0.000000
0.984337 0.798725 0.000000
0.987227 0.798725 0.000000
0.989993 0.798725 0.000000
0.992646 0.798725 0.000000
0.995192 0.798725 0.000000
0.997642 0.798725 0.000000
1.000000 0.798725 0.000000
0.000000 0.828057 0.000000
0.679595 0.828057 0.000000
0.755866 0.828057 0.000000
0.798725 0.828057 0.000000
0.828057 0.828057 0.000000
0.849735 0.828057 0.000000
0.866813 0.828057 0.000000
0.880835 0.828057 0.000000
0.892689 0.828057 0.000000
0.902930 0.828057 0.000000
0.911927 0.828057 0.000000
0.919936 0.828057 0.000000
0.927144 0.828057 0.000000
0.933688 0.828057 0.000000
0.939677 0.828057 0.000000
0.945192 0.828057 0.000000
0.950300 0.828057 0.000000
0.955053 0.828057 0.000000
0.959496 0.828057 0.000000
0.963665 0.828057 0.000000
0.967590 0.828057 0.000000
0.971296 0.828057 0.000000
0.974807 0.828057 0.000000
0.978140 0.828057 0.000000
0.981312 0.828057 0.000000
0.984337 0.828057 0.000000
0.987227 0.828057 0.000000
0.989993 0.828057 0.000000
0.992646 0.828057 0.000000
0.995192 0.828057 0.000000
0.997642 0.828057 0.000000
1.000000 0.828057 0.000000
0.000000 0.849735 0.000000
0.679595 0.849735 0.000000
0.755866 0.849735 0.000000
0.798725 0.849735 0.000000
0.828057 0.849735 0.000000
0.849735 0.849735 0.000000
0.866813 0.849735 0.000000
0.880835 0.849735 0.000000
0.892689 0.849735 0.000000
0.902930 0.849735 0.000000
0.911927 0.849735 0.000000
0.919936 0.849735 0.000000
0.927144 0.849735 0.000000
0.933688 0.849735 0.000000
0.939677 0.849735 0.000000
0.945192 0.849735 0.000000
0.950300 0.849735 0.000000
0.955053 0.849735 0.000000
0.959496 0.849735 0.000000
0.963665 0.849735 0.000000
0.967590 0.849735 0.000000
0.971296 0.849735 0.000000
0.974807 0.849735 0.000000
0.978140 0.849735 0.000000
0.981312 0.849735 0.000000
0.984337 0.849735 0.000000
0.987227 0.849735 0.000000
0.989993 0.849735 0.000000
0.992646 0.849735 0.000000
0.995192 0.849735 0.000000
0.997642 0.849735 0.000000
1.000000 0.849735 0.000000
0.000000 0.866813 0.000000
0.679595 0.866813 0.000000
0.755866 0.866813 0.000000
0.798725 0.866813 0.000000
0.828057 0.866813 0.000000
0.849735 0.866813 0.000000
0.866813 0.866813 0.000000
0.880835 0.866813 0.000000
0.892689 0.866813 0.000000
0.902930 0.866813 0.000000
0.911927 0.866813 0.000000
0.919936 0.866813 0.000000
0.927144 0.866813 0.000000
0.933688 0.866813 0.000000
0.939677 0.866813 0.000000
0.945192 0.866813 0.000000
0.950300 0.866813 0.000000
0.955053 0.866813 0.000000
0.959496 0.866813 0.000000
0.963665 0.866813 0.000000
0.967590 0.866813 0.000000
0.971296 0.866813 0.000000
0.974807 0.866813 0.000000
0.978140 0.866813 0.000000
0.981312 0.866813 0.000000
0.984337 0.866813 0.000000
0.987227 0.866813 0.000000
0.989993 0.866813 0.000000
0.992646 0.866813 0.000000
0.995192 0.866813 0.000000
0.997642 0.866813 0.000000
1.000000 0.866813 0.000000
0.000000 0.880835 0.000000
0.679595 0.880835 0.000000
0.755866 0.880835 0.000000
0.798725 0.880835 0.000000
0.828057 0.880835 0.000000
0.849735 0.880835 0.000000
0.866813 0.880835 0.000000
0.880835 0.880835 0.000000
0.892689 0.880835 0.000000
0.902930 0.880835 0.000000
0.911927 0.880835 0.000000
0.919936 0.880835 0.000000
0.927144 0.880835 0.000000
0.933688 0.880835 0.000000
0.939677 0.880835 0.000000
0.945192 0.880835 0.000000
0.950300 0.880835 0.000000
0.955053 0.880835 0.000000
0.959496 0.880835 0.000000
0.963665 0.880835 0.000000
0.967590 0.880835 0.000000
0.971296 0.880835 0.000000
0.974807 0.880835 0.000000
0.978140 0.880835 0.000000
0.981312 0.880835 0.000000
0.984337 0.880835 0.000000
0.987227 0.880835 0.000000
0.989993 0.880835 0.000000
0.992646 0.880835 0.000000
0.995192 0.880835 0.000000
0.997642 0.880835 0.000000
1.000000 0.880835 0.000000
0.000000 0.892689 0.000000
0.679595 0.892689 0.000000
0.755866 0.892689 0.000000
0.798725 0.892689 0.000000
0.828057 0.892689 0.000000
0.849735 0.892689 0.000000
0.866813 0.892689 0.000000
0.880835 0.892689 0.000000
0.892689 0.892689 0.000000
0.902930 0.892689 0.000000
0.911927 0.892689 0.000000
0.919936 0.892689 0.000000
0.927144 0.892689 0.000000
0.933688 0.892689 0.000000
0.939677 0.892689 0.000000
0.945192 0.892689 0.000000
0.950300 0.892689 0.000000
0.955053 0.892689 0.000000
0.959496 0.892689 0.000000
0.963665 0.892689 0.000000
0.967590 0.892689 0.000000
0.971296 0.892689 0.000000
0.974807 0.892689 0.000000
0.978140 0.892689 0.000000
0.981312 0.892689 0.000000
0.984337 0.892689 0.000000
0.987227 0.892689 0.000000
0.989993 0.892689 0.000000
0.992646 0.892689 0.000000
0.995192 0.892689 0.000000
0.997642 0.892689 0.000000
1.000000 0.892689 0.000000
0.000000 0.902930 0.000000
0.679595 0.902930 0.000000
0.755866 0.902930 0.000000
0.798725 0.902930 0.000000
0.828057 0.902930 0.000000
0.849735 0.902930 0.000000
0.866813 0.902930 0.000000
0.880835 0.902930 0.000000
0.892689 0.902930 0.000000
0.902930 0.902930 0.000000
0.911927 0.902930 0.000000
0.919936 0.902930 0.000000
0.927144 0.902930 0.000000
0.933688 0.902930 0.000000
0.939677 0.902930 0.000000
0.945192 0.902930 0.000000
0.950300 0.902930 0.000000
0.955053 0.902930 0.000000
0.959496 0.902930 0.000000
0.963665 0.902930 0.000000
0.967590 0.902930 0.000000
0.971296 0.902930 0.000000
0.974807 0.902930 0.000000
0.978140 0.902930 0.000000
0.981312 0.902930 0.000000
0.984337 0.902930 0.000000
0.987227 0.902930 0.000000
0.989993 0.902930 0.000000
0.992646 0.902930 0.000000
0.995192 0.902930 0.000000
0.997642 0.902930 0.000000
1.000000 0.902930 0.000000
0.000000 0.911927 0.000000
0.679595 0.911927 0.000000
0.755866 0.911927 0.000000
0.798725 0.911927 0.000000
0.828057 0.911927 0.000000
0.849735 0.911927 0.000000
0.866813 0.911927 0.000000
0.880835 0.911927 0.000000
0.892689 0.911927 0.000000
0.902930 0.911927 0.000000
0.911927 0.911927 0.000000
0.919936 0.911927 0.000000
0.927144 0.911927 0.000000
0.933688 0.911927 0.000000
0.939677 0.911927 0.000000
0.945192 0.911927 0.000000
0.950300 0.911927 0.000000
0.955053 0.911927 0.000000
0.959496 0.911927 0.000000
0.963665 0.911927 0.000000
0.967590 0.911927 0.000000
0.971296 0.911927 0.000000
0.974807 0.911927 0.000000
0.978140 0.911927 0.000000
0.981312 0.911927 0.000000
0.984337 0.911927 0.000000
0.987227 0.911927 0.000000
0.989993 0.911927 0.000000
0.992646 0.911927 0.000000
0.995192 0.911927 0.000000
0.997642 0.911927 0.000000
1.000000 0.911927 0.000000
0.000000 0.919936 0.000000
0.679595 0.919936 0.000000
0.755866 0.919936 0.000000
0.798725 0.919936 0.000000
0.828057 0.919936 0.000000
0.849735 0.919936 0.000000
0.866813 0.919936 0.000000
0.880835 0.919936 0.000000
0.892689 0.919936 0.000000
0.902930 0.919936 0.000000
0.911927 0.919936 0.000000
0.919936 0.919936 0.000000
0.927144 0.919936 0.000000
0.933688 0.919936 0.000000
0.939677 0.919936 0.000000
0.945192 0.919936 0.000000
0.950300 0.919936 0.000000
0.955053 0.919936 0.000000
0.959496 0.919936 0.000000
0.963665 0.919936 0.000000
0.967590 0.919936 0.000000
0.971296 0.919936 0.000000
0.974807 0.919936 0.000000
0.978140 0.919936 0.000000
0.981312 0.919936 0.000000
0.984337 0.919936 0.000000
0.987227 0.919936 0.000000
0.989993 0.919936 0.000000
0.992646 0.919936 0.000000
0.995192 0.919936 0.000000
0.997642 0.919936 0.000000
1.000000 0.919936 0.000000
0.000000 0.927144 0.000000
0.679595 0.927144 0.000000
0.755866 0.927144 0.000000
0.798725 0.927144 0.000000
0.828057 0.927144 0.000000
0.849735 0.927144 0.000000
0.866813 0.927144 0.000000
0.880835 0.927144 0.000000
0.892689 0.927144 0.000000
0.902930 0.927144 0.000000
0.911927 0.927144 0.000000
0.919936 0.927144 0.000000
0.927144 0.927144 0.000000
0.933688 0.927144 0.000000
0.939677 0.927144 0.000000
0.945192 0.927144 0.000000
0.950300 0.927144 0.000000
0.955053 0.927144 0.000000
0.959496 0.927144 0.000000
0.963665 0.927144 0.000000
0.967590 0.927144 0.000000
0.971296 0.927144 0.000000
0.974807 0.927144 0.000000
0.978140 0.927144 0.000000
0.981312 0.927144 0.000000
0.984337 0.927144 0.000000
0.987227 0.927144 0.000000
0.989993 0.927144 0.000000
0.992646 0.927144 0.000000
0.995192 0.927144 0.000000
0.997642 0.927144 0.000000
1.000000 0.927144 0.000000
0.000000 0.933688 0.000000
0.679595 0.933688 0.000000
0.755866 0.933688 0.000000
0.798725 0.933688 0.000000
0.828057 0.933688 0.000000
0.849735 0.933688 0.000000
0.866813 0.933688 0.000000
0.880835 0.933688 0.000000
0.892689 0.933688 0.000000
0.902930 0.933688 0.000000
0.911927 0.933688 0.000000
0.919936 0.933688 0.000000
0.927144 0.933688 0.000000
0.933688 0.933688 0.000000
0.939677 0.933688 0.000000
0.945192 0.933688 0.000000
0.950300 0.933688 0.000000
0.955053 0.933688 0.000000
0.959496 0.933688 0.000000
0.963665 0.933688 0.000000
0.967590 0.933688 0.000000
0.971296 0.933688 0.000000
0.974807 0.933688 0.000000
0.978140 0.933688 0.000000
0.981312 0.933688 0.000000
0.984337 0.933688 0.000000
0.987227 0.933688 0.000000
0.989993 0.933688 0.000000
0.992646 0.933688 0.000000
0.995192 0.933688 0.000000
0.997642 0.933688 0.000000
1.000000 0.933688 0.000000
0.000000 0.939677 0.000000
0.679595 0.939677 0.000000
0.755866 0.939677 0.000000
0.798725 0.939677 0.000000
0.828057 0.939677 0.000000
0.849735 0.939677 0.000000
0.866813 0.939677 0.000000
0.880835 0.939677 0.000000
0.892689 0.939677 0.000000
0.902930 0.939677 0.000000
0.911927 0.939677 0.000000
0.919936 0.939677 0.000000
0.927144 0.939677 0.000000
0.933688 0.939677 0.000000
0.939677 0.939677 0.000000
0.945192 0.939677 0.000000
0.950300 0.939677 0.000000
0.955053 0.939677 0.000000
0.959496 0.939677 0.000000
0.963665 0.939677 0.000000
0.967590 0.939677 0.000000
0.971296 0.939677 0.000000
0.974807 0.939677 0.000000
0.978140 0.939677 0.000000
0.981312 0.939677 0.000000
0.984337 0.939677 0.000000
0.987227 0.939677 0.000000
0.989993 0.939677 0.000000
0.992646 0.939677 0.000000
0.995192 0.939677 0.000000
0.997642 0.939677 0.000000
1.000000 0.939677 0.000000
0.000000 0.945192 0.000000
0.679595 0.945192 0.000000
0.755866 0.945192 0.000000
0.798725 0.945192 0.000000
0.828057 0.945192 0.000000
0.849735 0.945192 0.000000
0.866813 0.945192 0.000000
0.880835 0.945192 0.000000
0.892689 0.945192 0.000000
0.902930 0.945192 0.000000
0.911927 0.945192 0.000000
0.919936 0.945192 0.000000
0.927144 0.945192 0.000000
0.933688 0.945192 0.000000
0.939677 0.945192 0.000000
0.945192 0.945192 0.000000
0.950300 0.945192 0.000000
0.955053 0.945192 0.000000
0.959496 0.945192 0.000000
0.963665 0.945192 0.000000
0.967590 0.945192 0.000000
0.971296 0.945192 0.000000
0.974807 0.945192 0.000000
0.978140 0.945192 0.000000
0.981312 0.945192 0.000000
0.984337 0.945192 0.000000
0.987227 0.945192 0.000000
0.989993 0.945192 0.000000
0.992646 0.945192 0.000000
0.995192 0.945192 0.000000
0.997642 0.945192 0.000000
1.000000 0.945192 0.000000
0.000000 0.950300 0.000000
0.679595 0.950300 0.000000
0.755866 0.950300 0.000000
0.798725 0.950300 0.000000
0.828057 0.950300 0.000000
0.849735 0.950300 0.000000
0.866813 0.950300 0.000000
0.880835 0.950300 0.000000
0.892689 0.950300 0.000000
0.902930 0.950300 0.000000
0.911927 0.950300 0.000000
0.919936 0.950300 0.000000
0.927144 0.950300 0.000000
0.933688 0.950300 0.000000
0.939677 0.950300 0.000000
0.945192 0.950300 0.000000
0.950300 0.950300 0.000000
0.955053 0.950300 0.000000
0.959496 0.950300 0.000000
0.963665 0.950300 0.000000
0.967590 0.950300 0.000000
0.971296 0.950300 0.000000
0.974807 0.950300 0.000000
0.978140 0.950300 0.000000
0.981312 0.950300 0.000000
0.984337 0.950300 0.000000
0.987227 0.950300 0.000000
0.989993 0.950300 0.000000
0.992646 0.950300 0.000000
0.995192 0.950300 0.000000
0.997642 0.950300 0.000000
1.000000 0.950300 0.000000
0.000000 0.955053 0.000000
0.679595 0.955053 0.000000
0.755866 0.955053 0.000000
0.798725 0.955053 0.000000
0.828057 0.955053 0.000000
0.849735 0.955053 0.000000
0.866813 0.955053 0.000000
0.880835 0.955053 0.000000
0.892689 0.955053 0.000000
0.902930 0.955053 0.000000
0.911927 0.955053 0.000000
0.919936 0.955053 0.000000
0.927144 0.955053 0.000000
0.933688 0.955053 0.000000
0.939677 0.955053 0.000000
0.945192 0.955053 0.000000
0.950300 0.955053 0.000000
0.955053 0.955053 0.000000
0.959496 0.955053 0.000000
0.963665 0.955053 0.000000
0.967590 0.955053 0.000000
0.971296 0.955053 0.000000
0.974807 0.955053 0.000000
0.978140 0.955053 0.000000
0.981312 0.955053 0.000000
0.984337 0.955053 0.000000
0.987227 0.955053 0.000000
0.989993 0.955053 0.000000
0.992646 0.955053 0.000000
0.995192 0.955053 0.000000
0.997642 0.955053 0.000000
1.000000 0.955053 0.000000
0.000000 0.959496 0.000000
0.679595 0.959496 0.000000
0.755866 0.959496 0.000000
0.798725 0.959496 0.000000
0.828057 0.959496 0.000000
0.849735 0.959496 0.000000
0.866813 0.959496 0.000000
0.880835 0.959496 0.000000
0.892689 0.959496 0.000000
0.902930 0.959496 0.000000
0.911927 0.959496 0.000000
0.919936 0.959496 0.000000
0.927144 0.959496 0.000000
0.933688 0.959496 0.000000
0.939677 0.959496 0.000000
0.945192 0.959496 0.000000
0.950300 0.959496 0.000000
0.955053 0.959496 0.000000
0.959496 0.959496 0.000000
0.963665 0.959496 0.000000
0.967590 0.959496 0.000000
0.971296 0.959496 0.000000
0.974807 0.959496 0.000000
0.978140 0.959496 0.000000
0.981312 0.959496 0.000000
0.984337 0.959496 0.000000
0.987227 0.959496 0.000000
0.989993 0.959496 0.000000
0.992646 0.959496 0.000000
0.995192 0.959496 0.000000
0.997642 0.959496 0.000000
1.000000 0.959496 0.000000
0.000000 0.963665 0.000000
0.679595 0.963665 0.000000
0.755866 0.963665 0.000000
0.798725 0.963665 0.000000
0.828057 0.963665 0.000000
0.849735 0.963665 0.000000
0.866813 0.963665 0.000000
0.880835 0.963665 0.000000
0.892689 0.963665 0.000000
0.902930 0.963665 0.000000
0.911927 0.963665 0.000000
0.919936 0.963665 0.000000
0.927144 0.963665 0.000000
0.933688 0.963665 0.000000
0.939677 0.963665 0.000000
0.945192 0.963665 0.000000
0.950300 0.963665 0.000000
0.955053 0.963665 0.000000
0.959496 0.963665 0.000000
0.963665 0.963665 0.000000
0.967590 0.963665 0.000000
0.971296 0.963665 0.000000
0.974807 0.963665 0.000000
0.978140 0.963665 0.000000
0.981312 0.963665 0.000000
0.984337 0.963665 0.000000
0.987227 0.963665 0.000000
0.989993 0.963665 0.000000
0.992646 0.963665 0.000000
0.995192 0.963665 0.000000
0.997642 0.963665 0.000000
1.000000 0.963665 0.000000
0.000000 0.967590 0.000000
0.679595 0.967590 0.000000
0.755866 0.967590 0.000000
0.798725 0.967590 0.000000
0.828057 0.967590 0.000000
0.849735 0.967590 0.000000
0.866813 0.967590 0.000000
0.880835 0.967590 0.000000
0.892689 0.967590 0.000000
0.902930 0.967590 0.000000
0.911927 0.967590 0.000000
0.919936 0.967590 0.000000
0.927144 0.967590 0.000000
0.933688 0.967590 0.000000
0.939677 0.967590 0.000000
0.945192 0.967590 0.000000
0.950300 0.967590 0.000000
0.955053 0.967590 0.000000
0.959496 0.967590 0.000000
0.963665 0.967590 0.000000
0.967590 0.967590 0.000000
0.971296 0.967590 0.000000
0.974807 0.967590 0.000000
0.978140 0.967590 0.000000
0.981312 0.967590 0.000000
0.984337 0.967590 0.000000
0.987227 0.967590 0.000000
0.989993 0.967590 0.000000
0.992646 0.967590 0.000000
0.995192 0.967590 0.000000
0.997642 0.967590 0.000000
1.000000 0.967590 0.000000
0.000000 0.971296 0.000000
0.679595 0.971296 0.000000
0.755866 0.971296 0.000000
0.798725 0.971296 0.000000
0.828057 0.971296 0.000000
0.849735 0.971296 0.000000
0.866813 0.971296 0.000000
0.880835 0.971296 0.000000
0.892689 0.971296 0.000000
0.902930 0.971296 0.000000
0.911927 0.971296 0.000000
0.919936 0.971296 0.000000
0.927144 0.971296 0.000000
0.933688 0.971296 0.000000
0.939677 0.971296 0.000000
0.945192 0.971296 0.000000
0.950300 0.971296 0.000000
0.955053 0.971296 0.000000
0.959496 0.971296 0.000000
0.963665 0.971296 0.000000
0.967590 0.971296 0.000000
0.971296 0.971296 0.000000
0.974807 0.971296 0.000000
0.978140 0.971296 0.000000
0.981312 0.971296 0.000000
0.984337 0.971296 0.000000
0.987227 0.971296 0.000000
0.989993 0.971296 0.000000
0.992646 0.971296 0.000000
0.995192 0.971296 0.000000
0.997642 0.971296 0.000000
1.000000 0.971296 0.000000
0.000000 0.974807 0.000000
0.679595 0.974807 0.000000
0.755866 0.974807 0.000000
0.798725 0.974807 0.000000
0.828057 0.974807 0.000000
0.849735 0.974807 0.000000
0.866813 0.974807 0.000000
0.880835 0.974807 0.000000
0.892689 0.974807 0.000000
0.902930 0.974807 0.000000
0.911927 0.974807 0.000000
0.919936 0.974807 0.000000
0.927144 0.974807 0.000000
0.933688 0.974807 0.000000
0.939677 0.974807 0.000000
0.945192 0.974807 0.000000
0.950300 0.974807 0.000000
0.955053 0.974807 0.000000
0.959496 0.974807 0.000000
0.963665 0.974807 0.000000
0.967590 0.974807 0.000000
0.971296 0.974807 0.000000
0.974807 0.974807 0.000000
0.978140 0.974807 0.000000
0.981312 0.974807 0.000000
0.984337 0.974807 0.000000
0.987227 0.974807 0.000000
0.989993 0.974807 0.000000
0.992646 0.974807 0.000000
0.995192 0.974807 0.000000
0.997642 0.974807 0.000000
1.000000 0.974807 0.000000
0.000000 0.978140 0.000000
0.679595 0.978140 0.000000
0.755866 0.978140 0.000000
0.798725 0.978140 0.000000
0.828057 0.978140 0.000000
0.849735 0.978140 0.000000
0.866813 0.978140 0.000000
0.880835 0.978140 0.000000
0.892689 0.978140 0.000000
0.902930 0.978140 0.000000
0.911927 0.978140 0.000000
0.919936 0.978140 0.000000
0.927144 0.978140 0.000000
0.933688 0.978140 0.000000
0.939677 0.978140 0.000000
0.945192 0.978140 0.000000
0.950300 0.978140 0.000000
0.955053 0.978140 0.000000
0.959496 0.978140 0.000000
0.963665 0.978140 0.000000
0.967590 0.978140 0.000000
0.971296 0.978140 0.000000
0.974807 0.978140 0.000000
0.978140 0.978140 0.000000
0.981312 0.978140 0.000000
0.984337 0.978140 0.000000
0.987227 0.978140 0.000000
0.989993 0.978140 0.000000
0.992646 0.978140 0.000000
0.995192 0.978140 0.000000
0.997642 0.978140 0.000000
1.000000 0.978140 0.000000
0.000000 0.981312 0.000000
0.679595 0.981312 0.000000
0.755866 0.981312 0.000000
0.798725 0.981312 0.000000
0.828057 0.981312 0.000000
0.849735 0.981312 0.000000
0.866813 0.981312 0.000000
0.880835 0.981312 0.000000
0.892689 0.981312 0.000000
0.902930 0.981312 0.000000
0.911927 0.981312 0.000000
0.919936 0.981312 0.000000
0.927144 0.981312 0.000000
0.933688 0.981312 0.000000
0.939677 0.981312 0.000000
0.945192 0.981312 0.000000
0.950300 0.981312 0.000000
0.955053 0.981312 0.000000
0.959496 0.981312 0.000000
0.963665 0.981312 0.000000
0.967590 0.981312 0.000000
0.971296 0.981312 0.000000
0.974807 0.981312 0.000000
0.978140 0.981312 0.000000
0.981312 0.981312 0.000000
0.984337 0.981312 0.000000
0.987227 0.981312 0.000000
0.989993 0.981312 0.000000
0.992646 0.981312 0.000000
0.995192 0.981312 0.000000
0.997642 0.981312 0.000000
1.000000 0.981312 0.000000
0.000000 0.984337 0.000000
0.679595 0.984337 0.000000
0.755866 0.984337 0.000000
0.798725 0.984337 0.000000
0.828057 0.984337 0.000000
0.849735 0.984337 0.000000
0.866813 0.984337 0.000000
0.880835 0.984337 0.000000
0.892689 0.984337 0.000000
0.902930 0.984337 0.000000
0.911927 0.984337 0.000000
0.919936 0.984337 0.000000
0.927144 0.984337 0.000000
0.933688 0.984337 0.000000
0.939677 0.984337 0.000000
0.945192 0.984337 0.000000
0.950300 0.984337 0.000000
0.955053 0.984337 0.000000
0.959496 0.984337 0.000000
0.963665 0.984337 0.000000
0.967590 0.984337 0.000000
0.971296 0.984337 0.000000
0.974807 0.984337 0.000000
0.978140 0.984337 0.000000
0.981312 0.984337 0.000000
0.984337 0.984337 0.000000
0.987227 0.984337 0.000000
0.989993 0.984337 0.000000
0.992646 0.984337 0.000000
0.995192 0.984337 0.000000
0.997642 0.984337 0.000000
1.000000 0.984337 0.000000
0.000000 0.987227 0.000000
0.679595 0.987227 0.000000
0.755866 0.987227 0.000000
0.798725 0.987227 0.000000
0.828057 0.987227 0.000000
0.849735 0.987227 0.000000
0.866813 0.987227 0.000000
0.880835 0.987227 0.000000
0.892689 0.987227 0.000000
0.902930 0.987227 0.000000
0.911927 0.987227 0.000000
0.919936 0.987227 0.000000
0.927144 0.987227 0.000000
0.933688 0.987227 0.000000
0.939677 0.987227 0.000000
0.945192 0.987227 0.000000
0.950300 0.987227 0.000000
0.955053 0.987227 0.000000
0.959496 0.987227 0.000000
0.963665 0.987227 0.000000
0.967590 0.987227 0.000000
0.971296 0.987227 0.000000
0.974807 0.987227 0.000000
0.978140 0.987227 0.000000
0.981312 0.987227 0.000000
0.984337 0.987227 0.000000
0.987227 0.987227 0.000000
0.989993 0.987227 0.000000
0.992646 0.987227 0.000000
0.995192 0.987227 0.000000
0.997642 0.987227 0.000000
1.000000 0.987227 0.000000
0.000000 0.989993 0.000000
0.679595 0.989993 0.000000
0.755866 0.989993 0.000000
0.798725 0.989993 0.000000
0.828057 0.989993 0.000000
0.849735 0.989993 0.000000
0.866813 0.989993 0.000000
0.880835 0.989993 0.000000
0.892689 0.989993 0.000000
0.902930 0.989993 0.000000
0.911927 0.989993 0.000000
0.919936 0.989993 0.000000
0.927144 0.989993 0.000000
0.933688 0.989993 0.000000
0.939677 0.989993 0.000000
0.945192 0.989993 0.000000
0.950300 0.989993 0.000000
0.955053 0.989993 0.000000
0.959496 0.989993 0.000000
0.963665 0.989993 0.000000
0.967590 0.989993 0.000000
