.nuke/nuke.LUT/linear-2-logC_exteded/AlexaV3_EI1280_Linear2LogC_EE_nuke3d.cube
# Alexa conversion LUT, lin2logc. Full in/full out.
# created by alexalutconv (2.07)
LUT_3D_SIZE 5
DOMAIN_MIN 0.000000 0.000000 0.000000
DOMAIN_MAX 0.903226 0.903226 0.903226
0.000000 0.000000 0.000000
0.832467 0.000000 0.000000
0.905842 0.000000 0.000000
0.948540 0.000000 0.000000
0.978773 0.000000 0.000000
0.000000 0.832467 0.000000
0.832467 0.832467 0.000000
0.905842 0.832467 0.000000
0.948540 0.832467 0.000000
0.978773 0.832467 0.000000
0.000000 0.905842 0.000000
0.832467 0.905842 0.000000
0.905842 0.905842 0.000000
0.948540 0.905842 0.000000
0.978773 0.905842 0.000000
0.000000 0.948540 0.000000
0.832467 0.948540 0.000000
0.905842 0.948540 0.000000
0.948540 0.948540 0.000000
0.978773 0.948540 0.000000
0.000000 0.978773 0.000000
0.832467 0.978773 0.000000
0.905842 0.978773 0.000000
0.948540 0.978773 0.000000
0.978773 0.978773 0.000000
0.000000 0.000000 0.832467
0.832467 0.000000 0.832467
0.905842 0.000000 0.832467
0.948540 0.000000 0.832467
0.978773 0.000000 0.832467
0.000000 0.832467 0.832467
0.832467 0.832467 0.832467
0.905842 0.832467 0.832467
0.948540 0.832467 0.832467
0.978773 0.832467 0.832467
0.000000 0.905842 0.832467
0.832467 0.905842 0.832467
0.905842 0.905842 0.832467
0.948540 0.905842 0.832467
0.978773 0.905842 0.832467
0.000000 0.948540 0.832467
0.832467 0.948540 0.832467
0.905842 0.948540 0.832467
0.948540 0.948540 0.832467
0.978773 0.948540 0.832467
0.000000 0.978773 0.832467
0.832467 0.978773 0.832467
0.905842 0.978773 0.832467
0.948540 0.978773 0.832467
0.978773 0.978773 0.832467
0.000000 0.000000 0.905842
0.832467 0.000000 0.905842
0.905842 0.000000 0.905842
0.948540 0.000000 0.905842
0.978773 0.000000 0.905842
0.000000 0.832467 0.905842
0.832467 0.832467 0.905842
0.905842 0.832467 0.905842
0.948540 0.832467 0.905842
0.978773 0.832467 0.905842
0.000000 0.905842 0.905842
0.832467 0.905842 0.905842
0.905842 0.905842 0.905842
0.948540 0.905842 0.905842
0.978773 0.905842 0.905842
0.000000 0.948540 0.905842
0.832467 0.948540 0.905842
0.905842 0.948540 0.905842
0.948540 0.948540 0.905842
0.978773 0.948540 0.905842
0.000000 0.978773 0.905842
0.832467 0.978773 0.905842
0.905842 0.978773 0.905842
0.948540 0.978773 0.905842
0.978773 0.978773 0.905842
0.000000 0.000000 0.948540
0.832467 0.000000 0.948540
0.905842 0.000000 0.948540
0.948540 0.000000 0.948540
0.978773 0.000000 0.948540
0.000000 0.832467 0.948540
0.832467 0.832467 0.948540
0.905842 0.832467 0.948540
0.948540 0.832467 0.948540
0.978773 0.832467 0.948540
0.000000 0.905842 0.948540
0.832467 0.905842 0.948540
0.905842 0.905842 0.948540
0.948540 0.905842 0.948540
0.978773 0.905842 0.948540
0.000000 0.948540 0.948540
0.832467 0.948540 0.948540
0.905842 0.948540 0.948540
0.948540 0.948540 0.948540
0.978773 0.948540 0.948540
0.000000 0.978773 0.948540
0.832467 0.978773 0.948540
0.905842 0.978773 0.948540
0.948540 0.978773 0.948540
0.978773 0.978773 0.948540
0.000000 0.000000 0.978773
0.832467 0.000000 0.978773
0.905842 0.000000 0.978773
0.948540 0.000000 0.978773
0.978773 0.000000 0.978773
0.000000 0.832467 0.978773
0.832467 0.832467 0.978773
0.905842 0.832467 0.978773
0.948540 0.832467 0.978773
0.978773 0.832467 0.978773
0.000000 0.905842 0.978773
0.832467 0.905842 0.978773
0.905842 0.905842 0.978773
0.948540 0.905842 0.978773
0.978773 0.905842 0.978773
0.000000 0.948540 0.978773
0.832467 0.948540 0.978773
0.905842 0.948540 0.978773
0.948540 0.948540 0.978773
0.978773 0.948540 0.978773
0.000000 0.978773 0.978773
0.832467 0.978773 0.978773
0.905842 0.978773 0.978773
0.948540 0.978773 0.978773
0.978773 0.978773 0.978773
