.nuke/nuke.LUT/linear-2-logC_exteded/AlexaV3_EI3200_Linear2LogC_EE_nuke3d.cube
# Alexa conversion LUT, lin2logc. Full in/full out.
# created by alexalutconv (2.07)
LUT_3D_SIZE 32
0.000000 0.000000 0.000000
0.698370 0.000000 0.000000
0.773671 0.000000 0.000000
0.815730 0.000000 0.000000
0.843573 0.000000 0.000000
0.863934 0.000000 0.000000
0.879841 0.000000 0.000000
0.892814 0.000000 0.000000
0.903720 0.000000 0.000000
0.913097 0.000000 0.000000
0.921300 0.000000 0.000000
0.928575 0.000000 0.000000
0.935100 0.000000 0.000000
0.941009 0.000000 0.000000
0.946400 0.000000 0.000000
0.951353 0.000000 0.000000
0.955931 0.000000 0.000000
0.960182 0.000000 0.000000
0.964148 0.000000 0.000000
0.967863 0.000000 0.000000
0.971356 0.000000 0.000000
0.974649 0.000000 0.000000
0.977763 0.000000 0.000000
0.980717 0.000000 0.000000
0.983524 0.000000 0.000000
0.986198 0.000000 0.000000
0.988750 0.000000 0.000000
0.991191 0.000000 0.000000
0.993528 0.000000 0.000000
0.995771 0.000000 0.000000
0.997926 0.000000 0.000000
1.000000 0.000000 0.000000
0.000000 0.698370 0.000000
0.698370 0.698370 0.000000
0.773671 0.698370 0.000000
0.815730 0.698370 0.000000
0.843573 0.698370 0.000000
0.863934 0.698370 0.000000
0.879841 0.698370 0.000000
0.892814 0.698370 0.000000
0.903720 0.698370 0.000000
0.913097 0.698370 0.000000
0.921300 0.698370 0.000000
0.928575 0.698370 0.000000
0.935100 0.698370 0.000000
0.941009 0.698370 0.000000
0.946400 0.698370 0.000000
0.951353 0.698370 0.000000
0.955931 0.698370 0.000000
0.960182 0.698370 0.000000
0.964148 0.698370 0.000000
0.967863 0.698370 0.000000
0.971356 0.698370 0.000000
0.974649 0.698370 0.000000
0.977763 0.698370 0.000000
0.980717 0.698370 0.000000
0.983524 0.698370 0.000000
0.986198 0.698370 0.000000
0.988750 0.698370 0.000000
0.991191 0.698370 0.000000
0.993528 0.698370 0.000000
0.995771 0.698370 0.000000
0.997926 0.698370 0.000000
1.000000 0.698370 0.000000
0.000000 0.773671 0.000000
0.698370 0.773671 0.000000
0.773671 0.773671 0.000000
0.815730 0.773671 0.000000
0.843573 0.773671 0.000000
0.863934 0.773671 0.000000
0.879841 0.773671 0.000000
0.892814 0.773671 0.000000
0.903720 0.773671 0.000000
0.913097 0.773671 0.000000
0.921300 0.773671 0.000000
0.928575 0.773671 0.000000
0.935100 0.773671 0.000000
0.941009 0.773671 0.000000
0.946400 0.773671 0.000000
0.951353 0.773671 0.000000
0.955931 0.773671 0.000000
0.960182 0.773671 0.000000
0.964148 0.773671 0.000000
0.967863 0.773671 0.000000
0.971356 0.773671 0.000000
0.974649 0.773671 0.000000
0.977763 0.773671 0.000000
0.980717 0.773671 0.000000
0.983524 0.773671 0.000000
0.986198 0.773671 0.000000
0.988750 0.773671 0.000000
0.991191 0.773671 0.000000
0.993528 0.773671 0.000000
0.995771 0.773671 0.000000
0.997926 0.773671 0.000000
1.000000 0.773671 0.000000
0.000000 0.815730 0.000000
0.698370 0.815730 0.000000
0.773671 0.815730 0.000000
0.815730 0.815730 0.000000
0.843573 0.815730 0.000000
0.863934 0.815730 0.000000
0.879841 0.815730 0.000000
0.892814 0.815730 0.000000
0.903720 0.815730 0.000000
0.913097 0.815730 0.000000
0.921300 0.815730 0.000000
0.928575 0.815730 0.000000
0.935100 0.815730 0.000000
0.941009 0.815730 0.000000
0.946400 0.815730 0.000000
0.951353 0.815730 0.000000
0.955931 0.815730 0.000000
0.960182 0.815730 0.000000
0.964148 0.815730 0.000000
0.967863 0.815730 0.000000
0.971356 0.815730 0.000000
0.974649 0.815730 0.000000
0.977763 0.815730 0.000000
0.980717 0.815730 0.000000
0.983524 0.815730 0.000000
0.986198 0.815730 0.000000
0.988750 0.815730 0.000000
0.991191 0.815730 0.000000
0.993528 0.815730 0.000000
0.995771 0.815730 0.000000
0.997926 0.815730 0.000000
1.000000 0.815730 0.000000
0.000000 0.843573 0.000000
0.698370 0.843573 0.000000
0.773671 0.843573 0.000000
0.815730 0.843573 0.000000
0.843573 0.843573 0.000000
0.863934 0.843573 0.000000
0.879841 0.843573 0.000000
0.892814 0.843573 0.000000
0.903720 0.843573 0.000000
0.913097 0.843573 0.000000
0.921300 0.843573 0.000000
0.928575 0.843573 0.000000
0.935100 0.843573 0.000000
0.941009 0.843573 0.000000
0.946400 0.843573 0.000000
0.951353 0.843573 0.000000
0.955931 0.843573 0.000000
0.960182 0.843573 0.000000
0.964148 0.843573 0.000000
0.967863 0.843573 0.000000
0.971356 0.843573 0.000000
0.974649 0.843573 0.000000
0.977763 0.843573 0.000000
0.980717 0.843573 0.000000
0.983524 0.843573 0.000000
0.986198 0.843573 0.000000
0.988750 0.843573 0.000000
0.991191 0.843573 0.000000
0.993528 0.843573 0.000000
0.995771 0.843573 0.000000
0.997926 0.843573 0.000000
1.000000 0.843573 0.000000
0.000000 0.863934 0.000000
0.698370 0.863934 0.000000
0.773671 0.863934 0.000000
0.815730 0.863934 0.000000
0.843573 0.863934 0.000000
0.863934 0.863934 0.000000
0.879841 0.863934 0.000000
0.892814 0.863934 0.000000
0.903720 0.863934 0.000000
0.913097 0.863934 0.000000
0.921300 0.863934 0.000000
0.928575 0.863934 0.000000
0.935100 0.863934 0.000000
0.941009 0.863934 0.000000
0.946400 0.863934 0.000000
0.951353 0.863934 0.000000
0.955931 0.863934 0.000000
0.960182 0.863934 0.000000
0.964148 0.863934 0.000000
0.967863 0.863934 0.000000
0.971356 0.863934 0.000000
0.974649 0.863934 0.000000
0.977763 0.863934 0.000000
0.980717 0.863934 0.000000
0.983524 0.863934 0.000000
0.986198 0.863934 0.000000
0.988750 0.863934 0.000000
0.991191 0.863934 0.000000
0.993528 0.863934 0.000000
0.995771 0.863934 0.000000
0.997926 0.863934 0.000000
1.000000 0.863934 0.000000
0.000000 0.879841 0.000000
0.698370 0.879841 0.000000
0.773671 0.879841 0.000000
0.815730 0.879841 0.000000
0.843573 0.879841 0.000000
0.863934 0.879841 0.000000
0.879841 0.879841 0.000000
0.892814 0.879841 0.000000
0.903720 0.879841 0.000000
0.913097 0.879841 0.000000
0.921300 0.879841 0.000000
0.928575 0.879841 0.000000
0.935100 0.879841 0.000000
0.941009 0.879841 0.000000
0.946400 0.879841 0.000000
0.951353 0.879841 0.000000
0.955931 0.879841 0.000000
0.960182 0.879841 0.000000
0.964148 0.879841 0.000000
0.967863 0.879841 0.000000
0.971356 0.879841 0.000000
0.974649 0.879841 0.000000
0.977763 0.879841 0.000000
0.980717 0.879841 0.000000
0.983524 0.879841 0.000000
0.986198 0.879841 0.000000
0.988750 0.879841 0.000000
0.991191 0.879841 0.000000
0.993528 0.879841 0.000000
0.995771 0.879841 0.000000
0.997926 0.879841 0.000000
1.000000 0.879841 0.000000
0.000000 0.892814 0.000000
0.698370 0.892814 0.000000
0.773671 0.892814 0.000000
0.815730 0.892814 0.000000
0.843573 0.892814 0.000000
0.863934 0.892814 0.000000
0.879841 0.892814 0.000000
0.892814 0.892814 0.000000
0.903720 0.892814 0.000000
0.913097 0.892814 0.000000
0.921300 0.892814 0.000000
0.928575 0.892814 0.000000
0.935100 0.892814 0.000000
0.941009 0.892814 0.000000
0.946400 0.892814 0.000000
0.951353 0.892814 0.000000
0.955931 0.892814 0.000000
0.960182 0.892814 0.000000
0.964148 0.892814 0.000000
0.967863 0.892814 0.000000
0.971356 0.892814 0.000000
0.974649 0.892814 0.000000
0.977763 0.892814 0.000000
0.980717 0.892814 0.000000
0.983524 0.892814 0.000000
0.986198 0.892814 0.000000
0.988750 0.892814 0.000000
0.991191 0.892814 0.000000
0.993528 0.892814 0.000000
0.995771 0.892814 0.000000
0.997926 0.892814 0.000000
1.000000 0.892814 0.000000
0.000000 0.903720 0.000000
0.698370 0.903720 0.000000
0.773671 0.903720 0.000000
0.815730 0.903720 0.000000
0.843573 0.903720 0.000000
0.863934 0.903720 0.000000
0.879841 0.903720 0.000000
0.892814 0.903720 0.000000
0.903720 0.903720 0.000000
0.913097 0.903720 0.000000
0.921300 0.903720 0.000000
0.928575 0.903720 0.000000
0.935100 0.903720 0.000000
0.941009 0.903720 0.000000
0.946400 0.903720 0.000000
0.951353 0.903720 0.000000
0.955931 0.903720 0.000000
0.960182 0.903720 0.000000
0.964148 0.903720 0.000000
0.967863 0.903720 0.000000
0.971356 0.903720 0.000000
0.974649 0.903720 0.000000
0.977763 0.903720 0.000000
0.980717 0.903720 0.000000
0.983524 0.903720 0.000000
0.986198 0.903720 0.000000
0.988750 0.903720 0.000000
0.991191 0.903720 0.000000
0.993528 0.903720 0.000000
0.995771 0.903720 0.000000
0.997926 0.903720 0.000000
1.000000 0.903720 0.000000
0.000000 0.913097 0.000000
0.698370 0.913097 0.000000
0.773671 0.913097 0.000000
0.815730 0.913097 0.000000
0.843573 0.913097 0.000000
0.863934 0.913097 0.000000
0.879841 0.913097 0.000000
0.892814 0.913097 0.000000
0.903720 0.913097 0.000000
0.913097 0.913097 0.000000
0.921300 0.913097 0.000000
0.928575 0.913097 0.000000
0.935100 0.913097 0.000000
0.941009 0.913097 0.000000
0.946400 0.913097 0.000000
0.951353 0.913097 0.000000
0.955931 0.913097 0.000000
0.960182 0.913097 0.000000
0.964148 0.913097 0.000000
0.967863 0.913097 0.000000
0.971356 0.913097 0.000000
0.974649 0.913097 0.000000
0.977763 0.913097 0.000000
0.980717 0.913097 0.000000
0.983524 0.913097 0.000000
0.986198 0.913097 0.000000
0.988750 0.913097 0.000000
0.991191 0.913097 0.000000
0.993528 0.913097 0.000000
0.995771 0.913097 0.000000
0.997926 0.913097 0.000000
1.000000 0.913097 0.000000
0.000000 0.921300 0.000000
0.698370 0.921300 0.000000
0.773671 0.921300 0.000000
0.815730 0.921300 0.000000
0.843573 0.921300 0.000000
0.863934 0.921300 0.000000
0.879841 0.921300 0.000000
0.892814 0.921300 0.000000
0.903720 0.921300 0.000000
0.913097 0.921300 0.000000
0.921300 0.921300 0.000000
0.928575 0.921300 0.000000
0.935100 0.921300 0.000000
0.941009 0.921300 0.000000
0.946400 0.921300 0.000000
0.951353 0.921300 0.000000
0.955931 0.921300 0.000000
0.960182 0.921300 0.000000
0.964148 0.921300 0.000000
0.967863 0.921300 0.000000
0.971356 0.921300 0.000000
0.974649 0.921300 0.000000
0.977763 0.921300 0.000000
0.980717 0.921300 0.000000
0.983524 0.921300 0.000000
0.986198 0.921300 0.000000
0.988750 0.921300 0.000000
0.991191 0.921300 0.000000
0.993528 0.921300 0.000000
0.995771 0.921300 0.000000
0.997926 0.921300 0.000000
1.000000 0.921300 0.000000
0.000000 0.928575 0.000000
0.698370 0.928575 0.000000
0.773671 0.928575 0.000000
0.815730 0.928575 0.000000
0.843573 0.928575 0.000000
0.863934 0.928575 0.000000
0.879841 0.928575 0.000000
0.892814 0.928575 0.000000
0.903720 0.928575 0.000000
0.913097 0.928575 0.000000
0.921300 0.928575 0.000000
0.928575 0.928575 0.000000
0.935100 0.928575 0.000000
0.941009 0.928575 0.000000
0.946400 0.928575 0.000000
0.951353 0.928575 0.000000
0.955931 0.928575 0.000000
0.960182 0.928575 0.000000
0.964148 0.928575 0.000000
0.967863 0.928575 0.000000
0.971356 0.928575 0.000000
0.974649 0.928575 0.000000
0.977763 0.928575 0.000000
0.980717 0.928575 0.000000
0.983524 0.928575 0.000000
0.986198 0.928575 0.000000
0.988750 0.928575 0.000000
0.991191 0.928575 0.000000
0.993528 0.928575 0.000000
0.995771 0.928575 0.000000
0.997926 0.928575 0.000000
1.000000 0.928575 0.000000
0.000000 0.935100 0.000000
0.698370 0.935100 0.000000
0.773671 0.935100 0.000000
0.815730 0.935100 0.000000
0.843573 0.935100 0.000000
0.863934 0.935100 0.000000
0.879841 0.935100 0.000000
0.892814 0.935100 0.000000
0.903720 0.935100 0.000000
0.913097 0.935100 0.000000
0.921300 0.935100 0.000000
0.928575 0.935100 0.000000
0.935100 0.935100 0.000000
0.941009 0.935100 0.000000
0.946400 0.935100 0.000000
0.951353 0.935100 0.000000
0.955931 0.935100 0.000000
0.960182 0.935100 0.000000
0.964148 0.935100 0.000000
0.967863 0.935100 0.000000
0.971356 0.935100 0.000000
0.974649 0.935100 0.000000
0.977763 0.935100 0.000000
0.980717 0.935100 0.000000
0.983524 0.935100 0.000000
0.986198 0.935100 0.000000
0.988750 0.935100 0.000000
0.991191 0.935100 0.000000
0.993528 0.935100 0.000000
0.995771 0.935100 0.000000
0.997926 0.935100 0.000000
1.000000 0.935100 0.000000
0.000000 0.941009 0.000000
0.698370 0.941009 0.000000
0.773671 0.941009 0.000000
0.815730 0.941009 0.000000
0.843573 0.941009 0.000000
0.863934 0.941009 0.000000
0.879841 0.941009 0.000000
0.892814 0.941009 0.000000
0.903720 0.941009 0.000000
0.913097 0.941009 0.000000
0.921300 0.941009 0.000000
0.928575 0.941009 0.000000
0.935100 0.941009 0.000000
0.941009 0.941009 0.000000
0.946400 0.941009 0.000000
0.951353 0.941009 0.000000
0.955931 0.941009 0.000000
0.960182 0.941009 0.000000
0.964148 0.941009 0.000000
0.967863 0.941009 0.000000
0.971356 0.941009 0.000000
0.974649 0.941009 0.000000
0.977763 0.941009 0.000000
0.980717 0.941009 0.000000
0.983524 0.941009 0.000000
0.986198 0.941009 0.000000
0.988750 0.941009 0.000000
0.991191 0.941009 0.000000
0.993528 0.941009 0.000000
0.995771 0.941009 0.000000
0.997926 0.941009 0.000000
1.000000 0.941009 0.000000
0.000000 0.946400 0.000000
0.698370 0.946400 0.000000
0.773671 0.946400 0.000000
0.815730 0.946400 0.000000
0.843573 0.946400 0.000000
0.863934 0.946400 0.000000
0.879841 0.946400 0.000000
0.892814 0.946400 0.000000
0.903720 0.946400 0.000000
0.913097 0.946400 0.000000
0.921300 0.946400 0.000000
0.928575 0.946400 0.000000
0.935100 0.946400 0.000000
0.941009 0.946400 0.000000
0.946400 0.946400 0.000000
0.951353 0.946400 0.000000
0.955931 0.946400 0.000000
0.960182 0.946400 0.000000
0.964148 0.946400 0.000000
0.967863 0.946400 0.000000
0.971356 0.946400 0.000000
0.974649 0.946400 0.000000
0.977763 0.946400 0.000000
0.980717 0.946400 0.000000
0.983524 0.946400 0.000000
0.986198 0.946400 0.000000
0.988750 0.946400 0.000000
0.991191 0.946400 0.000000
0.993528 0.946400 0.000000
0.995771 0.946400 0.000000
0.997926 0.946400 0.000000
1.000000 0.946400 0.000000
0.000000 0.951353 0.000000
0.698370 0.951353 0.000000
0.773671 0.951353 0.000000
0.815730 0.951353 0.000000
0.843573 0.951353 0.000000
0.863934 0.951353 0.000000
0.879841 0.951353 0.000000
0.892814 0.951353 0.000000
0.903720 0.951353 0.000000
0.913097 0.951353 0.000000
0.921300 0.951353 0.000000
0.928575 0.951353 0.000000
0.935100 0.951353 0.000000
0.941009 0.951353 0.000000
0.946400 0.951353 0.000000
0.951353 0.951353 0.000000
0.955931 0.951353 0.000000
0.960182 0.951353 0.000000
0.964148 0.951353 0.000000
0.967863 0.951353 0.000000
0.971356 0.951353 0.000000
0.974649 0.951353 0.000000
0.977763 0.951353 0.000000
0.980717 0.951353 0.000000
0.983524 0.951353 0.000000
0.986198 0.951353 0.000000
0.988750 0.951353 0.000000
0.991191 0.951353 0.000000
0.993528 0.951353 0.000000
0.995771 0.951353 0.000000
0.997926 0.951353 0.000000
1.000000 0.951353 0.000000
0.000000 0.955931 0.000000
0.698370 0.955931 0.000000
0.773671 0.955931 0.000000
0.815730 0.955931 0.000000
0.843573 0.955931 0.000000
0.863934 0.955931 0.000000
0.879841 0.955931 0.000000
0.892814 0.955931 0.000000
0.903720 0.955931 0.000000
0.913097 0.955931 0.000000
0.921300 0.955931 0.000000
0.928575 0.955931 0.000000
0.935100 0.955931 0.000000
0.941009 0.955931 0.000000
0.946400 0.955931 0.000000
0.951353 0.955931 0.000000
0.955931 0.955931 0.000000
0.960182 0.955931 0.000000
0.964148 0.955931 0.000000
0.967863 0.955931 0.000000
0.971356 0.955931 0.000000
0.974649 0.955931 0.000000
0.977763 0.955931 0.000000
0.980717 0.955931 0.000000
0.983524 0.955931 0.000000
0.986198 0.955931 0.000000
0.988750 0.955931 0.000000
0.991191 0.955931 0.000000
0.993528 0.955931 0.000000
0.995771 0.955931 0.000000
0.997926 0.955931 0.000000
1.000000 0.955931 0.000000
0.000000 0.960182 0.000000
0.698370 0.960182 0.000000
0.773671 0.960182 0.000000
0.815730 0.960182 0.000000
0.843573 0.960182 0.000000
0.863934 0.960182 0.000000
0.879841 0.960182 0.000000
0.892814 0.960182 0.000000
0.903720 0.960182 0.000000
0.913097 0.960182 0.000000
0.921300 0.960182 0.000000
0.928575 0.960182 0.000000
0.935100 0.960182 0.000000
0.941009 0.960182 0.000000
0.946400 0.960182 0.000000
0.951353 0.960182 0.000000
0.955931 0.960182 0.000000
0.960182 0.960182 0.000000
0.964148 0.960182 0.000000
0.967863 0.960182 0.000000
0.971356 0.960182 0.000000
0.974649 0.960182 0.000000
0.977763 0.960182 0.000000
0.980717 0.960182 0.000000
0.983524 0.960182 0.000000
0.986198 0.960182 0.000000
0.988750 0.960182 0.000000
0.991191 0.960182 0.000000
0.993528 0.960182 0.000000
0.995771 0.960182 0.000000
0.997926 0.960182 0.000000
1.000000 0.960182 0.000000
0.000000 0.964148 0.000000
0.698370 0.964148 0.000000
0.773671 0.964148 0.000000
0.815730 0.964148 0.000000
0.843573 0.964148 0.000000
0.863934 0.964148 0.000000
0.879841 0.964148 0.000000
0.892814 0.964148 0.000000
0.903720 0.964148 0.000000
0.913097 0.964148 0.000000
0.921300 0.964148 0.000000
0.928575 0.964148 0.000000
0.935100 0.964148 0.000000
0.941009 0.964148 0.000000
0.946400 0.964148 0.000000
0.951353 0.964148 0.000000
0.955931 0.964148 0.000000
0.960182 0.964148 0.000000
0.964148 0.964148 0.000000
0.967863 0.964148 0.000000
0.971356 0.964148 0.000000
0.974649 0.964148 0.000000
0.977763 0.964148 0.000000
0.980717 0.964148 0.000000
0.983524 0.964148 0.000000
0.986198 0.964148 0.000000
0.988750 0.964148 0.000000
0.991191 0.964148 0.000000
0.993528 0.964148 0.000000
0.995771 0.964148 0.000000
0.997926 0.964148 0.000000
1.000000 0.964148 0.000000
0.000000 0.967863 0.000000
0.698370 0.967863 0.000000
0.773671 0.967863 0.000000
0.815730 0.967863 0.000000
0.843573 0.967863 0.000000
0.863934 0.967863 0.000000
0.879841 0.967863 0.000000
0.892814 0.967863 0.000000
0.903720 0.967863 0.000000
0.913097 0.967863 0.000000
0.921300 0.967863 0.000000
0.928575 0.967863 0.000000
0.935100 0.967863 0.000000
0.941009 0.967863 0.000000
0.946400 0.967863 0.000000
0.951353 0.967863 0.000000
0.955931 0.967863 0.000000
0.960182 0.967863 0.000000
0.964148 0.967863 0.000000
0.967863 0.967863 0.000000
0.971356 0.967863 0.000000
0.974649 0.967863 0.000000
0.977763 0.967863 0.000000
0.980717 0.967863 0.000000
0.983524 0.967863 0.000000
0.986198 0.967863 0.000000
0.988750 0.967863 0.000000
0.991191 0.967863 0.000000
0.993528 0.967863 0.000000
0.995771 0.967863 0.000000
0.997926 0.967863 0.000000
1.000000 0.967863 0.000000
0.000000 0.971356 0.000000
0.698370 0.971356 0.000000
0.773671 0.971356 0.000000
0.815730 0.971356 0.000000
0.843573 0.971356 0.000000
0.863934 0.971356 0.000000
0.879841 0.971356 0.000000
0.892814 0.971356 0.000000
0.903720 0.971356 0.000000
0.913097 0.971356 0.000000
0.921300 0.971356 0.000000
0.928575 0.971356 0.000000
0.935100 0.971356 0.000000
0.941009 0.971356 0.000000
0.946400 0.971356 0.000000
0.951353 0.971356 0.000000
0.955931 0.971356 0.000000
0.960182 0.971356 0.000000
0.964148 0.971356 0.000000
0.967863 0.971356 0.000000
0.971356 0.971356 0.000000
0.974649 0.971356 0.000000
0.977763 0.971356 0.000000
0.980717 0.971356 0.000000
0.983524 0.971356 0.000000
0.986198 0.971356 0.000000
0.988750 0.971356 0.000000
0.991191 0.971356 0.000000
0.993528 0.971356 0.000000
0.995771 0.971356 0.000000
0.997926 0.971356 0.000000
1.000000 0.971356 0.000000
0.000000 0.974649 0.000000
0.698370 0.974649 0.000000
0.773671 0.974649 0.000000
0.815730 0.974649 0.000000
0.843573 0.974649 0.000000
0.863934 0.974649 0.000000
0.879841 0.974649 0.000000
0.892814 0.974649 0.000000
0.903720 0.974649 0.000000
0.913097 0.974649 0.000000
0.921300 0.974649 0.000000
0.928575 0.974649 0.000000
0.935100 0.974649 0.000000
0.941009 0.974649 0.000000
0.946400 0.974649 0.000000
0.951353 0.974649 0.000000
0.955931 0.974649 0.000000
0.960182 0.974649 0.000000
0.964148 0.974649 0.000000
0.967863 0.974649 0.000000
0.971356 0.974649 0.000000
0.974649 0.974649 0.000000
0.977763 0.974649 0.000000
0.980717 0.974649 0.000000
0.983524 0.974649 0.000000
0.986198 0.974649 0.000000
0.988750 0.974649 0.000000
0.991191 0.974649 0.000000
0.993528 0.974649 0.000000
0.995771 0.974649 0.000000
0.997926 0.974649 0.000000
1.000000 0.974649 0.000000
0.000000 0.977763 0.000000
0.698370 0.977763 0.000000
0.773671 0.977763 0.000000
0.815730 0.977763 0.000000
0.843573 0.977763 0.000000
0.863934 0.977763 0.000000
0.879841 0.977763 0.000000
0.892814 0.977763 0.000000
0.903720 0.977763 0.000000
0.913097 0.977763 0.000000
0.921300 0.977763 0.000000
0.928575 0.977763 0.000000
0.935100 0.977763 0.000000
0.941009 0.977763 0.000000
0.946400 0.977763 0.000000
0.951353 0.977763 0.000000
0.955931 0.977763 0.000000
0.960182 0.977763 0.000000
0.964148 0.977763 0.000000
0.967863 0.977763 0.000000
0.971356 0.977763 0.000000
0.974649 0.977763 0.000000
0.977763 0.977763 0.000000
0.980717 0.977763 0.000000
0.983524 0.977763 0.000000
0.986198 0.977763 0.000000
0.988750 0.977763 0.000000
0.991191 0.977763 0.000000
0.993528 0.977763 0.000000
0.995771 0.977763 0.000000
0.997926 0.977763 0.000000
1.000000 0.977763 0.000000
0.000000 0.980717 0.000000
0.698370 0.980717 0.000000
0.773671 0.980717 0.000000
0.815730 0.980717 0.000000
0.843573 0.980717 0.000000
0.863934 0.980717 0.000000
0.879841 0.980717 0.000000
0.892814 0.980717 0.000000
0.903720 0.980717 0.000000
0.913097 0.980717 0.000000
0.921300 0.980717 0.000000
0.928575 0.980717 0.000000
0.935100 0.980717 0.000000
0.941009 0.980717 0.000000
0.946400 0.980717 0.000000
0.951353 0.980717 0.000000
0.955931 0.980717 0.000000
0.960182 0.980717 0.000000
0.964148 0.980717 0.000000
0.967863 0.980717 0.000000
0.971356 0.980717 0.000000
0.974649 0.980717 0.000000
0.977763 0.980717 0.000000
0.980717 0.980717 0.000000
0.983524 0.980717 0.000000
0.986198 0.980717 0.000000
0.988750 0.980717 0.000000
0.991191 0.980717 0.000000
0.993528 0.980717 0.000000
0.995771 0.980717 0.000000
0.997926 0.980717 0.000000
1.000000 0.980717 0.000000
0.000000 0.983524 0.000000
0.698370 0.983524 0.000000
0.773671 0.983524 0.000000
0.815730 0.983524 0.000000
0.843573 0.983524 0.000000
0.863934 0.983524 0.000000
0.879841 0.983524 0.000000
0.892814 0.983524 0.000000
0.903720 0.983524 0.000000
0.913097 0.983524 0.000000
0.921300 0.983524 0.000000
0.928575 0.983524 0.000000
0.935100 0.983524 0.000000
0.941009 0.983524 0.000000
0.946400 0.983524 0.000000
0.951353 0.983524 0.000000
0.955931 0.983524 0.000000
0.960182 0.983524 0.000000
0.964148 0.983524 0.000000
0.967863 0.983524 0.000000
0.971356 0.983524 0.000000
0.974649 0.983524 0.000000
0.977763 0.983524 0.000000
0.980717 0.983524 0.000000
0.983524 0.983524 0.000000
0.986198 0.983524 0.000000
0.988750 0.983524 0.000000
0.991191 0.983524 0.000000
0.993528 0.983524 0.000000
0.995771 0.983524 0.000000
0.997926 0.983524 0.000000
1.000000 0.983524 0.000000
0.000000 0.986198 0.000000
0.698370 0.986198 0.000000
0.773671 0.986198 0.000000
0.815730 0.986198 0.000000
0.843573 0.986198 0.000000
0.863934 0.986198 0.000000
0.879841 0.986198 0.000000
0.892814 0.986198 0.000000
0.903720 0.986198 0.000000
0.913097 0.986198 0.000000
0.921300 0.986198 0.000000
0.928575 0.986198 0.000000
0.935100 0.986198 0.000000
0.941009 0.986198 0.000000
0.946400 0.986198 0.000000
0.951353 0.986198 0.000000
0.955931 0.986198 0.000000
0.960182 0.986198 0.000000
0.964148 0.986198 0.000000
0.967863 0.986198 0.000000
0.971356 0.986198 0.000000
0.974649 0.986198 0.000000
0.977763 0.986198 0.000000
0.980717 0.986198 0.000000
0.983524 0.986198 0.000000
0.986198 0.986198 0.000000
0.988750 0.986198 0.000000
0.991191 0.986198 0.000000
0.993528 0.986198 0.000000
0.995771 0.986198 0.000000
0.997926 0.986198 0.000000
1.000000 0.986198 0.000000
0.000000 0.988750 0.000000
0.698370 0.988750 0.000000
0.773671 0.988750 0.000000
0.815730 0.988750 0.000000
0.843573 0.988750 0.000000
0.863934 0.988750 0.000000
0.879841 0.988750 0.000000
0.892814 0.988750 0.000000
0.903720 0.988750 0.000000
0.913097 0.988750 0.000000
0.921300 0.988750 0.000000
0.928575 0.988750 0.000000
0.935100 0.988750 0.000000
0.941009 0.988750 0.000000
0.946400 0.988750 0.000000
0.951353 0.988750 0.000000
0.955931 0.988750 0.000000
0.960182 0.988750 0.000000
0.964148 0.988750 0.000000
0.967863 0.988750 0.000000
0.971356 0.988750 0.000000
0.974649 0.988750 0.000000
0.977763 0.988750 0.000000
0.980717 0.988750 0.000000
0.983524 0.988750 0.000000
0.986198 0.988750 0.000000
0.988750 0.988750 0.000000
0.991191 0.988750 0.000000
0.993528 0.988750 0.000000
0.995771 0.988750 0.000000
0.997926 0.988750 0.000000
1.000000 0.988750 0.000000
0.000000 0.991191 0.000000
0.698370 0.991191 0.000000
0.773671 0.991191 0.000000
0.815730 0.991191 0.000000
0.843573 0.991191 0.000000
0.863934 0.991191 0.000000
0.879841 0.991191 0.000000
0.892814 0.991191 0.000000
0.903720 0.991191 0.000000
0.913097 0.991191 0.000000
0.921300 0.991191 0.000000
0.928575 0.991191 0.000000
0.935100 0.991191 0.000000
0.941009 0.991191 0.000000
0.946400 0.991191 0.000000
0.951353 0.991191 0.000000
0.955931 0.991191 0.000000
0.960182 0.991191 0.000000
0.964148 0.991191 0.000000
0.967863 0.991191 0.000000
0.971356 0.991191 0.000000
