.nuke/nuke.LUT/linear-2-logC_exteded/AlexaV3_EI0400_Linear2LogC_EE_nuke3d.cube
# Alexa conversion LUT, lin2logc. Full in/full out.
# created by alexalutconv (2.07)
LUT_3D_SIZE 5
DOMAIN_MIN 0.000000 0.000000 0.000000
DOMAIN_MAX 0.903226 0.903226 0.903226
0.000000 0.000000 0.000000
0.729746 0.000000 0.000000
0.807803 0.000000 0.000000
0.853257 0.000000 0.000000
0.885451 0.000000 0.000000
0.000000 0.729746 0.000000
0.729746 0.729746 0.000000
0.807803 0.729746 0.000000
0.853257 0.729746 0.000000
0.885451 0.729746 0.000000
0.000000 0.807803 0.000000
0.729746 0.807803 0.000000
0.807803 0.807803 0.000000
0.853257 0.807803 0.000000
0.885451 0.807803 0.000000
0.000000 0.853257 0.000000
0.729746 0.853257 0.000000
0.807803 0.853257 0.000000
0.853257 0.853257 0.000000
0.885451 0.853257 0.000000
0.000000 0.885451 0.000000
0.729746 0.885451 0.000000
0.807803 0.885451 0.000000
0.853257 0.885451 0.000000
0.885451 0.885451 0.000000
0.000000 0.000000 0.729746
0.729746 0.000000 0.729746
0.807803 0.000000 0.729746
0.853257 0.000000 0.729746
0.885451 0.000000 0.729746
0.000000 0.729746 0.729746
0.729746 0.729746 0.729746
0.807803 0.729746 0.729746
0.853257 0.729746 0.729746
0.885451 0.729746 0.729746
0.000000 0.807803 0.729746
0.729746 0.807803 0.729746
0.807803 0.807803 0.729746
0.853257 0.807803 0.729746
0.885451 0.807803 0.729746
0.000000 0.853257 0.729746
0.729746 0.853257 0.729746
0.807803 0.853257 0.729746
0.853257 0.853257 0.729746
0.885451 0.853257 0.729746
0.000000 0.885451 0.729746
0.729746 0.885451 0.729746
0.807803 0.885451 0.729746
0.853257 0.885451 0.729746
0.885451 0.885451 0.729746
0.000000 0.000000 0.807803
0.729746 0.000000 0.807803
0.807803 0.000000 0.807803
0.853257 0.000000 0.807803
0.885451 0.000000 0.807803
0.000000 0.729746 0.807803
0.729746 0.729746 0.807803
0.807803 0.729746 0.807803
0.853257 0.729746 0.807803
0.885451 0.729746 0.807803
0.000000 0.807803 0.807803
0.729746 0.807803 0.807803
0.807803 0.807803 0.807803
0.853257 0.807803 0.807803
0.885451 0.807803 0.807803
0.000000 0.853257 0.807803
0.729746 0.853257 0.807803
0.807803 0.853257 0.807803
0.853257 0.853257 0.807803
0.885451 0.853257 0.807803
0.000000 0.885451 0.807803
0.729746 0.885451 0.807803
0.807803 0.885451 0.807803
0.853257 0.885451 0.807803
0.885451 0.885451 0.807803
0.000000 0.000000 0.853257
0.729746 0.000000 0.853257
0.807803 0.000000 0.853257
0.853257 0.000000 0.853257
0.885451 0.000000 0.853257
0.000000 0.729746 0.853257
0.729746 0.729746 0.853257
0.807803 0.729746 0.853257
0.853257 0.729746 0.853257
0.885451 0.729746 0.853257
0.000000 0.807803 0.853257
0.729746 0.807803 0.853257
0.807803 0.807803 0.853257
0.853257 0.807803 0.853257
0.885451 0.807803 0.853257
0.000000 0.853257 0.853257
0.729746 0.853257 0.853257
0.807803 0.853257 0.853257
0.853257 0.853257 0.853257
0.885451 0.853257 0.853257
0.000000 0.885451 0.853257
0.729746 0.885451 0.853257
0.807803 0.885451 0.853257
0.853257 0.885451 0.853257
0.885451 0.885451 0.853257
0.000000 0.000000 0.885451
0.729746 0.000000 0.885451
0.807803 0.000000 0.885451
0.853257 0.000000 0.885451
0.885451 0.000000 0.885451
0.000000 0.729746 0.885451
0.729746 0.729746 0.885451
0.807803 0.729746 0.885451
0.853257 0.729746 0.885451
0.885451 0.729746 0.885451
0.000000 0.807803 0.885451
0.729746 0.807803 0.885451
0.807803 0.807803 0.885451
0.853257 0.807803 0.885451
0.885451 0.807803 0.885451
0.000000 0.853257 0.885451
0.729746 0.853257 0.885451
0.807803 0.853257 0.885451
0.853257 0.853257 0.885451
0.885451 0.853257 0.885451
0.000000 0.885451 0.885451
0.729746 0.885451 0.885451
0.807803 0.885451 0.885451
0.853257 0.885451 0.885451
0.885451 0.885451 0.885451
