.nuke/nuke.LUT/linear-2-logC_exteded/AlexaV3_EI0320_Linear2LogC_EE_nuke3d.cube
# Alexa conversion LUT, lin2logc. Full in/full out.
# created by alexalutconv (2.07)
LUT_3D_SIZE 5
DOMAIN_MIN 0.000000 0.000000 0.000000
DOMAIN_MAX 0.903226 0.903226 0.903226
0.000000 0.000000 0.000000
0.708282 0.000000 0.000000
0.787206 0.000000 0.000000
0.833179 0.000000 0.000000
0.865744 0.000000 0.000000
0.000000 0.708282 0.000000
0.708282 0.708282 0.000000
0.787206 0.708282 0.000000
0.833179 0.708282 0.000000
0.865744 0.708282 0.000000
0.000000 0.787206 0.000000
0.708282 0.787206 0.000000
0.787206 0.787206 0.000000
0.833179 0.787206 0.000000
0.865744 0.787206 0.000000
0.000000 0.833179 0.000000
0.708282 0.833179 0.000000
0.787206 0.833179 0.000000
0.833179 0.833179 0.000000
0.865744 0.833179 0.000000
0.000000 0.865744 0.000000
0.708282 0.865744 0.000000
0.787206 0.865744 0.000000
0.833179 0.865744 0.000000
0.865744 0.865744 0.000000
0.000000 0.000000 0.708282
0.708282 0.000000 0.708282
0.787206 0.000000 0.708282
0.833179 0.000000 0.708282
0.865744 0.000000 0.708282
0.000000 0.708282 0.708282
0.708282 0.708282 0.708282
0.787206 0.708282 0.708282
0.833179 0.708282 0.708282
0.865744 0.708282 0.708282
0.000000 0.787206 0.708282
0.708282 0.787206 0.708282
0.787206 0.787206 0.708282
0.833179 0.787206 0.708282
0.865744 0.787206 0.708282
0.000000 0.833179 0.708282
0.708282 0.833179 0.708282
0.787206 0.833179 0.708282
0.833179 0.833179 0.708282
0.865744 0.833179 0.708282
0.000000 0.865744 0.708282
0.708282 0.865744 0.708282
0.787206 0.865744 0.708282
0.833179 0.865744 0.708282
0.865744 0.865744 0.708282
0.000000 0.000000 0.787206
0.708282 0.000000 0.787206
0.787206 0.000000 0.787206
0.833179 0.000000 0.787206
0.865744 0.000000 0.787206
0.000000 0.708282 0.787206
0.708282 0.708282 0.787206
0.787206 0.708282 0.787206
0.833179 0.708282 0.787206
0.865744 0.708282 0.787206
0.000000 0.787206 0.787206
0.708282 0.787206 0.787206
0.787206 0.787206 0.787206
0.833179 0.787206 0.787206
0.865744 0.787206 0.787206
0.000000 0.833179 0.787206
0.708282 0.833179 0.787206
0.787206 0.833179 0.787206
0.833179 0.833179 0.787206
0.865744 0.833179 0.787206
0.000000 0.865744 0.787206
0.708282 0.865744 0.787206
0.787206 0.865744 0.787206
0.833179 0.865744 0.787206
0.865744 0.865744 0.787206
0.000000 0.000000 0.833179
0.708282 0.000000 0.833179
0.787206 0.000000 0.833179
0.833179 0.000000 0.833179
0.865744 0.000000 0.833179
0.000000 0.708282 0.833179
0.708282 0.708282 0.833179
0.787206 0.708282 0.833179
0.833179 0.708282 0.833179
0.865744 0.708282 0.833179
0.000000 0.787206 0.833179
0.708282 0.787206 0.833179
0.787206 0.787206 0.833179
0.833179 0.787206 0.833179
0.865744 0.787206 0.833179
0.000000 0.833179 0.833179
0.708282 0.833179 0.833179
0.787206 0.833179 0.833179
0.833179 0.833179 0.833179
0.865744 0.833179 0.833179
0.000000 0.865744 0.833179
0.708282 0.865744 0.833179
0.787206 0.865744 0.833179
0.833179 0.865744 0.833179
0.865744 0.865744 0.833179
0.000000 0.000000 0.865744
0.708282 0.000000 0.865744
0.787206 0.000000 0.865744
0.833179 0.000000 0.865744
0.865744 0.000000 0.865744
0.000000 0.708282 0.865744
0.708282 0.708282 0.865744
0.787206 0.708282 0.865744
0.833179 0.708282 0.865744
0.865744 0.708282 0.865744
0.000000 0.787206 0.865744
0.708282 0.787206 0.865744
0.787206 0.787206 0.865744
0.833179 0.787206 0.865744
0.865744 0.787206 0.865744
0.000000 0.833179 0.865744
0.708282 0.833179 0.865744
0.787206 0.833179 0.865744
0.833179 0.833179 0.865744
0.865744 0.833179 0.865744
0.000000 0.865744 0.865744
0.708282 0.865744 0.865744
0.787206 0.865744 0.865744
0.833179 0.865744 0.865744
0.865744 0.865744 0.865744
