.nuke/nuke.LUT/linear-2-logC_exteded/AlexaV3_EI0200_Linear2LogC_EE_nuke3d.cube
# Alexa conversion LUT, lin2logc. Full in/full out.
# created by alexalutconv (2.07)
LUT_3D_SIZE 5
DOMAIN_MIN 0.000000 0.000000 0.000000
DOMAIN_MAX 0.903226 0.903226 0.903226
0.000000 0.000000 0.000000
0.661284 0.000000 0.000000
0.741972 0.000000 0.000000
0.789017 0.000000 0.000000
0.822353 0.000000 0.000000
0.000000 0.661284 0.000000
0.661284 0.661284 0.000000
0.741972 0.661284 0.000000
0.789017 0.661284 0.000000
0.822353 0.661284 0.000000
0.000000 0.741972 0.000000
0.661284 0.741972 0.000000
0.741972 0.741972 0.000000
0.789017 0.741972 0.000000
0.822353 0.741972 0.000000
0.000000 0.789017 0.000000
0.661284 0.789017 0.000000
0.741972 0.789017 0.000000
0.789017 0.789017 0.000000
0.822353 0.789017 0.000000
0.000000 0.822353 0.000000
0.661284 0.822353 0.000000
0.741972 0.822353 0.000000
0.789017 0.822353 0.000000
0.822353 0.822353 0.000000
0.000000 0.000000 0.661284
0.661284 0.000000 0.661284
0.741972 0.000000 0.661284
0.789017 0.000000 0.661284
0.822353 0.000000 0.661284
0.000000 0.661284 0.661284
0.661284 0.661284 0.661284
0.741972 0.661284 0.661284
0.789017 0.661284 0.661284
0.822353 0.661284 0.661284
0.000000 0.741972 0.661284
0.661284 0.741972 0.661284
0.741972 0.741972 0.661284
0.789017 0.741972 0.661284
0.822353 0.741972 0.661284
0.000000 0.789017 0.661284
0.661284 0.789017 0.661284
0.741972 0.789017 0.661284
0.789017 0.789017 0.661284
0.822353 0.789017 0.661284
0.000000 0.822353 0.661284
0.661284 0.822353 0.661284
0.741972 0.822353 0.661284
0.789017 0.822353 0.661284
0.822353 0.822353 0.661284
0.000000 0.000000 0.741972
0.661284 0.000000 0.741972
0.741972 0.000000 0.741972
0.789017 0.000000 0.741972
0.822353 0.000000 0.741972
0.000000 0.661284 0.741972
0.661284 0.661284 0.741972
0.741972 0.661284 0.741972
0.789017 0.661284 0.741972
0.822353 0.661284 0.741972
0.000000 0.741972 0.741972
0.661284 0.741972 0.741972
0.741972 0.741972 0.741972
0.789017 0.741972 0.741972
0.822353 0.741972 0.741972
0.000000 0.789017 0.741972
0.661284 0.789017 0.741972
0.741972 0.789017 0.741972
0.789017 0.789017 0.741972
0.822353 0.789017 0.741972
0.000000 0.822353 0.741972
0.661284 0.822353 0.741972
0.741972 0.822353 0.741972
0.789017 0.822353 0.741972
0.822353 0.822353 0.741972
0.000000 0.000000 0.789017
0.661284 0.000000 0.789017
0.741972 0.000000 0.789017
0.789017 0.000000 0.789017
0.822353 0.000000 0.789017
0.000000 0.661284 0.789017
0.661284 0.661284 0.789017
0.741972 0.661284 0.789017
0.789017 0.661284 0.789017
0.822353 0.661284 0.789017
0.000000 0.741972 0.789017
0.661284 0.741972 0.789017
0.741972 0.741972 0.789017
0.789017 0.741972 0.789017
0.822353 0.741972 0.789017
0.000000 0.789017 0.789017
0.661284 0.789017 0.789017
0.741972 0.789017 0.789017
0.789017 0.789017 0.789017
0.822353 0.789017 0.789017
0.000000 0.822353 0.789017
0.661284 0.822353 0.789017
0.741972 0.822353 0.789017
0.789017 0.822353 0.789017
0.822353 0.822353 0.789017
0.000000 0.000000 0.822353
0.661284 0.000000 0.822353
0.741972 0.000000 0.822353
0.789017 0.000000 0.822353
0.822353 0.000000 0.822353
0.000000 0.661284 0.822353
0.661284 0.661284 0.822353
0.741972 0.661284 0.822353
0.789017 0.661284 0.822353
0.822353 0.661284 0.822353
0.000000 0.741972 0.822353
0.661284 0.741972 0.822353
0.741972 0.741972 0.822353
0.789017 0.741972 0.822353
0.822353 0.741972 0.822353
0.000000 0.789017 0.822353
0.661284 0.789017 0.822353
0.741972 0.789017 0.822353
0.789017 0.789017 0.822353
0.822353 0.789017 0.822353
0.000000 0.822353 0.822353
0.661284 0.822353 0.822353
0.741972 0.822353 0.822353
0.789017 0.822353 0.822353
0.822353 0.822353 0.822353
