.nuke/nuke.LUT/linear-2-logC_exteded/AlexaV3_EI1280_Linear2LogC_EE_nuke3d.cube
# Alexa conversion LUT, lin2logc. Full in/full out.
# created by alexalutconv (2.07)
LUT_3D_SIZE 32
0.000000 0.000000 0.000000
0.617714 0.000000 0.000000
0.696910 0.000000 0.000000
0.741458 0.000000 0.000000
0.772600 0.000000 0.000000
0.796564 0.000000 0.000000
0.816049 0.000000 0.000000
0.832467 0.000000 0.000000
0.846654 0.000000 0.000000
0.859144 0.000000 0.000000
0.870300 0.000000 0.000000
0.880380 0.000000 0.000000
0.889574 0.000000 0.000000
0.898024 0.000000 0.000000
0.905842 0.000000 0.000000
0.913116 0.000000 0.000000
0.919918 0.000000 0.000000
0.926303 0.000000 0.000000
0.932321 0.000000 0.000000
0.938011 0.000000 0.000000
0.943408 0.000000 0.000000
0.948540 0.000000 0.000000
0.953431 0.000000 0.000000
0.958104 0.000000 0.000000
0.962578 0.000000 0.000000
0.966868 0.000000 0.000000
0.970989 0.000000 0.000000
0.974953 0.000000 0.000000
0.978773 0.000000 0.000000
0.982458 0.000000 0.000000
0.986017 0.000000 0.000000
0.989460 0.000000 0.000000
0.000000 0.617714 0.000000
0.617714 0.617714 0.000000
0.696910 0.617714 0.000000
0.741458 0.617714 0.000000
0.772600 0.617714 0.000000
0.796564 0.617714 0.000000
0.816049 0.617714 0.000000
0.832467 0.617714 0.000000
0.846654 0.617714 0.000000
0.859144 0.617714 0.000000
0.870300 0.617714 0.000000
0.880380 0.617714 0.000000
0.889574 0.617714 0.000000
0.898024 0.617714 0.000000
0.905842 0.617714 0.000000
0.913116 0.617714 0.000000
0.919918 0.617714 0.000000
0.926303 0.617714 0.000000
0.932321 0.617714 0.000000
0.938011 0.617714 0.000000
0.943408 0.617714 0.000000
0.948540 0.617714 0.000000
0.953431 0.617714 0.000000
0.958104 0.617714 0.000000
0.962578 0.617714 0.000000
0.966868 0.617714 0.000000
0.970989 0.617714 0.000000
0.974953 0.617714 0.000000
0.978773 0.617714 0.000000
0.982458 0.617714 0.000000
0.986017 0.617714 0.000000
0.989460 0.617714 0.000000
0.000000 0.696910 0.000000
0.617714 0.696910 0.000000
0.696910 0.696910 0.000000
0.741458 0.696910 0.000000
0.772600 0.696910 0.000000
0.796564 0.696910 0.000000
0.816049 0.696910 0.000000
0.832467 0.696910 0.000000
0.846654 0.696910 0.000000
0.859144 0.696910 0.000000
0.870300 0.696910 0.000000
0.880380 0.696910 0.000000
0.889574 0.696910 0.000000
0.898024 0.696910 0.000000
0.905842 0.696910 0.000000
0.913116 0.696910 0.000000
0.919918 0.696910 0.000000
0.926303 0.696910 0.000000
0.932321 0.696910 0.000000
0.938011 0.696910 0.000000
0.943408 0.696910 0.000000
0.948540 0.696910 0.000000
0.953431 0.696910 0.000000
0.958104 0.696910 0.000000
0.962578 0.696910 0.000000
0.966868 0.696910 0.000000
0.970989 0.696910 0.000000
0.974953 0.696910 0.000000
0.978773 0.696910 0.000000
0.982458 0.696910 0.000000
0.986017 0.696910 0.000000
0.989460 0.696910 0.000000
0.000000 0.741458 0.000000
0.617714 0.741458 0.000000
0.696910 0.741458 0.000000
0.741458 0.741458 0.000000
0.772600 0.741458 0.000000
0.796564 0.741458 0.000000
0.816049 0.741458 0.000000
0.832467 0.741458 0.000000
0.846654 0.741458 0.000000
0.859144 0.741458 0.000000
0.870300 0.741458 0.000000
0.880380 0.741458 0.000000
0.889574 0.741458 0.000000
0.898024 0.741458 0.000000
0.905842 0.741458 0.000000
0.913116 0.741458 0.000000
0.919918 0.741458 0.000000
0.926303 0.741458 0.000000
0.932321 0.741458 0.000000
0.938011 0.741458 0.000000
0.943408 0.741458 0.000000
0.948540 0.741458 0.000000
0.953431 0.741458 0.000000
0.958104 0.741458 0.000000
0.962578 0.741458 0.000000
0.966868 0.741458 0.000000
0.970989 0.741458 0.000000
0.974953 0.741458 0.000000
0.978773 0.741458 0.000000
0.982458 0.741458 0.000000
0.986017 0.741458 0.000000
0.989460 0.741458 0.000000
0.000000 0.772600 0.000000
0.617714 0.772600 0.000000
0.696910 0.772600 0.000000
0.741458 0.772600 0.000000
0.772600 0.772600 0.000000
0.796564 0.772600 0.000000
0.816049 0.772600 0.000000
0.832467 0.772600 0.000000
0.846654 0.772600 0.000000
0.859144 0.772600 0.000000
0.870300 0.772600 0.000000
0.880380 0.772600 0.000000
0.889574 0.772600 0.000000
0.898024 0.772600 0.000000
0.905842 0.772600 0.000000
0.913116 0.772600 0.000000
0.919918 0.772600 0.000000
0.926303 0.772600 0.000000
0.932321 0.772600 0.000000
0.938011 0.772600 0.000000
0.943408 0.772600 0.000000
0.948540 0.772600 0.000000
0.953431 0.772600 0.000000
0.958104 0.772600 0.000000
0.962578 0.772600 0.000000
0.966868 0.772600 0.000000
0.970989 0.772600 0.000000
0.974953 0.772600 0.000000
0.978773 0.772600 0.000000
0.982458 0.772600 0.000000
0.986017 0.772600 0.000000
0.989460 0.772600 0.000000
0.000000 0.796564 0.000000
0.617714 0.796564 0.000000
0.696910 0.796564 0.000000
0.741458 0.796564 0.000000
0.772600 0.796564 0.000000
0.796564 0.796564 0.000000
0.816049 0.796564 0.000000
0.832467 0.796564 0.000000
0.846654 0.796564 0.000000
0.859144 0.796564 0.000000
0.870300 0.796564 0.000000
0.880380 0.796564 0.000000
0.889574 0.796564 0.000000
0.898024 0.796564 0.000000
0.905842 0.796564 0.000000
0.913116 0.796564 0.000000
0.919918 0.796564 0.000000
0.926303 0.796564 0.000000
0.932321 0.796564 0.000000
0.938011 0.796564 0.000000
0.943408 0.796564 0.000000
0.948540 0.796564 0.000000
0.953431 0.796564 0.000000
0.958104 0.796564 0.000000
0.962578 0.796564 0.000000
0.966868 0.796564 0.000000
0.970989 0.796564 0.000000
0.974953 0.796564 0.000000
0.978773 0.796564 0.000000
0.982458 0.796564 0.000000
0.986017 0.796564 0.000000
0.989460 0.796564 0.000000
0.000000 0.816049 0.000000
0.617714 0.816049 0.000000
0.696910 0.816049 0.000000
0.741458 0.816049 0.000000
0.772600 0.816049 0.000000
0.796564 0.816049 0.000000
0.816049 0.816049 0.000000
0.832467 0.816049 0.000000
0.846654 0.816049 0.000000
0.859144 0.816049 0.000000
0.870300 0.816049 0.000000
0.880380 0.816049 0.000000
0.889574 0.816049 0.000000
0.898024 0.816049 0.000000
0.905842 0.816049 0.000000
0.913116 0.816049 0.000000
0.919918 0.816049 0.000000
0.926303 0.816049 0.000000
0.932321 0.816049 0.000000
0.938011 0.816049 0.000000
0.943408 0.816049 0.000000
0.948540 0.816049 0.000000
0.953431 0.816049 0.000000
0.958104 0.816049 0.000000
0.962578 0.816049 0.000000
0.966868 0.816049 0.000000
0.970989 0.816049 0.000000
0.974953 0.816049 0.000000
0.978773 0.816049 0.000000
0.982458 0.816049 0.000000
0.986017 0.816049 0.000000
0.989460 0.816049 0.000000
0.000000 0.832467 0.000000
0.617714 0.832467 0.000000
0.696910 0.832467 0.000000
0.741458 0.832467 0.000000
0.772600 0.832467 0.000000
0.796564 0.832467 0.000000
0.816049 0.832467 0.000000
0.832467 0.832467 0.000000
0.846654 0.832467 0.000000
0.859144 0.832467 0.000000
0.870300 0.832467 0.000000
0.880380 0.832467 0.000000
0.889574 0.832467 0.000000
0.898024 0.832467 0.000000
0.905842 0.832467 0.000000
0.913116 0.832467 0.000000
0.919918 0.832467 0.000000
0.926303 0.832467 0.000000
0.932321 0.832467 0.000000
0.938011 0.832467 0.000000
0.943408 0.832467 0.000000
0.948540 0.832467 0.000000
0.953431 0.832467 0.000000
0.958104 0.832467 0.000000
0.962578 0.832467 0.000000
0.966868 0.832467 0.000000
0.970989 0.832467 0.000000
0.974953 0.832467 0.000000
0.978773 0.832467 0.000000
0.982458 0.832467 0.000000
0.986017 0.832467 0.000000
0.989460 0.832467 0.000000
0.000000 0.846654 0.000000
0.617714 0.846654 0.000000
0.696910 0.846654 0.000000
0.741458 0.846654 0.000000
0.772600 0.846654 0.000000
0.796564 0.846654 0.000000
0.816049 0.846654 0.000000
0.832467 0.846654 0.000000
0.846654 0.846654 0.000000
0.859144 0.846654 0.000000
0.870300 0.846654 0.000000
0.880380 0.846654 0.000000
0.889574 0.846654 0.000000
0.898024 0.846654 0.000000
0.905842 0.846654 0.000000
0.913116 0.846654 0.000000
0.919918 0.846654 0.000000
0.926303 0.846654 0.000000
0.932321 0.846654 0.000000
0.938011 0.846654 0.000000
0.943408 0.846654 0.000000
0.948540 0.846654 0.000000
0.953431 0.846654 0.000000
0.958104 0.846654 0.000000
0.962578 0.846654 0.000000
0.966868 0.846654 0.000000
0.970989 0.846654 0.000000
0.974953 0.846654 0.000000
0.978773 0.846654 0.000000
0.982458 0.846654 0.000000
0.986017 0.846654 0.000000
0.989460 0.846654 0.000000
0.000000 0.859144 0.000000
0.617714 0.859144 0.000000
0.696910 0.859144 0.000000
0.741458 0.859144 0.000000
0.772600 0.859144 0.000000
0.796564 0.859144 0.000000
0.816049 0.859144 0.000000
0.832467 0.859144 0.000000
0.846654 0.859144 0.000000
0.859144 0.859144 0.000000
0.870300 0.859144 0.000000
0.880380 0.859144 0.000000
0.889574 0.859144 0.000000
0.898024 0.859144 0.000000
0.905842 0.859144 0.000000
0.913116 0.859144 0.000000
0.919918 0.859144 0.000000
0.926303 0.859144 0.000000
0.932321 0.859144 0.000000
0.938011 0.859144 0.000000
0.943408 0.859144 0.000000
0.948540 0.859144 0.000000
0.953431 0.859144 0.000000
0.958104 0.859144 0.000000
0.962578 0.859144 0.000000
0.966868 0.859144 0.000000
0.970989 0.859144 0.000000
0.974953 0.859144 0.000000
0.978773 0.859144 0.000000
0.982458 0.859144 0.000000
0.986017 0.859144 0.000000
0.989460 0.859144 0.000000
0.000000 0.870300 0.000000
0.617714 0.870300 0.000000
0.696910 0.870300 0.000000
0.741458 0.870300 0.000000
0.772600 0.870300 0.000000
0.796564 0.870300 0.000000
0.816049 0.870300 0.000000
0.832467 0.870300 0.000000
0.846654 0.870300 0.000000
0.859144 0.870300 0.000000
0.870300 0.870300 0.000000
0.880380 0.870300 0.000000
0.889574 0.870300 0.000000
0.898024 0.870300 0.000000
0.905842 0.870300 0.000000
0.913116 0.870300 0.000000
0.919918 0.870300 0.000000
0.926303 0.870300 0.000000
0.932321 0.870300 0.000000
0.938011 0.870300 0.000000
0.943408 0.870300 0.000000
0.948540 0.870300 0.000000
0.953431 0.870300 0.000000
0.958104 0.870300 0.000000
0.962578 0.870300 0.000000
0.966868 0.870300 0.000000
0.970989 0.870300 0.000000
0.974953 0.870300 0.000000
0.978773 0.870300 0.000000
0.982458 0.870300 0.000000
0.986017 0.870300 0.000000
0.989460 0.870300 0.000000
0.000000 0.880380 0.000000
0.617714 0.880380 0.000000
0.696910 0.880380 0.000000
0.741458 0.880380 0.000000
0.772600 0.880380 0.000000
0.796564 0.880380 0.000000
0.816049 0.880380 0.000000
0.832467 0.880380 0.000000
0.846654 0.880380 0.000000
0.859144 0.880380 0.000000
0.870300 0.880380 0.000000
0.880380 0.880380 0.000000
0.889574 0.880380 0.000000
0.898024 0.880380 0.000000
0.905842 0.880380 0.000000
0.913116 0.880380 0.000000
0.919918 0.880380 0.000000
0.926303 0.880380 0.000000
0.932321 0.880380 0.000000
0.938011 0.880380 0.000000
0.943408 0.880380 0.000000
0.948540 0.880380 0.000000
0.953431 0.880380 0.000000
0.958104 0.880380 0.000000
0.962578 0.880380 0.000000
0.966868 0.880380 0.000000
0.970989 0.880380 0.000000
0.974953 0.880380 0.000000
0.978773 0.880380 0.000000
0.982458 0.880380 0.000000
0.986017 0.880380 0.000000
0.989460 0.880380 0.000000
0.000000 0.889574 0.000000
0.617714 0.889574 0.000000
0.696910 0.889574 0.000000
0.741458 0.889574 0.000000
0.772600 0.889574 0.000000
0.796564 0.889574 0.000000
0.816049 0.889574 0.000000
0.832467 0.889574 0.000000
0.846654 0.889574 0.000000
0.859144 0.889574 0.000000
0.870300 0.889574 0.000000
0.880380 0.889574 0.000000
0.889574 0.889574 0.000000
0.898024 0.889574 0.000000
0.905842 0.889574 0.000000
0.913116 0.889574 0.000000
0.919918 0.889574 0.000000
0.926303 0.889574 0.000000
0.932321 0.889574 0.000000
0.938011 0.889574 0.000000
0.943408 0.889574 0.000000
0.948540 0.889574 0.000000
0.953431 0.889574 0.000000
0.958104 0.889574 0.000000
0.962578 0.889574 0.000000
0.966868 0.889574 0.000000
0.970989 0.889574 0.000000
0.974953 0.889574 0.000000
0.978773 0.889574 0.000000
0.982458 0.889574 0.000000
0.986017 0.889574 0.000000
0.989460 0.889574 0.000000
0.000000 0.898024 0.000000
0.617714 0.898024 0.000000
0.696910 0.898024 0.000000
0.741458 0.898024 0.000000
0.772600 0.898024 0.000000
0.796564 0.898024 0.000000
0.816049 0.898024 0.000000
0.832467 0.898024 0.000000
0.846654 0.898024 0.000000
0.859144 0.898024 0.000000
0.870300 0.898024 0.000000
0.880380 0.898024 0.000000
0.889574 0.898024 0.000000
0.898024 0.898024 0.000000
0.905842 0.898024 0.000000
0.913116 0.898024 0.000000
0.919918 0.898024 0.000000
0.926303 0.898024 0.000000
0.932321 0.898024 0.000000
0.938011 0.898024 0.000000
0.943408 0.898024 0.000000
0.948540 0.898024 0.000000
0.953431 0.898024 0.000000
0.958104 0.898024 0.000000
0.962578 0.898024 0.000000
0.966868 0.898024 0.000000
0.970989 0.898024 0.000000
0.974953 0.898024 0.000000
0.978773 0.898024 0.000000
0.982458 0.898024 0.000000
0.986017 0.898024 0.000000
0.989460 0.898024 0.000000
0.000000 0.905842 0.000000
0.617714 0.905842 0.000000
0.696910 0.905842 0.000000
0.741458 0.905842 0.000000
0.772600 0.905842 0.000000
0.796564 0.905842 0.000000
0.816049 0.905842 0.000000
0.832467 0.905842 0.000000
0.846654 0.905842 0.000000
0.859144 0.905842 0.000000
0.870300 0.905842 0.000000
0.880380 0.905842 0.000000
0.889574 0.905842 0.000000
0.898024 0.905842 0.000000
0.905842 0.905842 0.000000
0.913116 0.905842 0.000000
0.919918 0.905842 0.000000
0.926303 0.905842 0.000000
0.932321 0.905842 0.000000
0.938011 0.905842 0.000000
0.943408 0.905842 0.000000
0.948540 0.905842 0.000000
0.953431 0.905842 0.000000
0.958104 0.905842 0.000000
0.962578 0.905842 0.000000
0.966868 0.905842 0.000000
0.970989 0.905842 0.000000
0.974953 0.905842 0.000000
0.978773 0.905842 0.000000
0.982458 0.905842 0.000000
0.986017 0.905842 0.000000
0.989460 0.905842 0.000000
0.000000 0.913116 0.000000
0.617714 0.913116 0.000000
0.696910 0.913116 0.000000
0.741458 0.913116 0.000000
0.772600 0.913116 0.000000
0.796564 0.913116 0.000000
0.816049 0.913116 0.000000
0.832467 0.913116 0.000000
0.846654 0.913116 0.000000
0.859144 0.913116 0.000000
0.870300 0.913116 0.000000
0.880380 0.913116 0.000000
0.889574 0.913116 0.000000
0.898024 0.913116 0.000000
0.905842 0.913116 0.000000
0.913116 0.913116 0.000000
0.919918 0.913116 0.000000
0.926303 0.913116 0.000000
0.932321 0.913116 0.000000
0.938011 0.913116 0.000000
0.943408 0.913116 0.000000
0.948540 0.913116 0.000000
0.953431 0.913116 0.000000
0.958104 0.913116 0.000000
0.962578 0.913116 0.000000
0.966868 0.913116 0.000000
0.970989 0.913116 0.000000
0.974953 0.913116 0.000000
0.978773 0.913116 0.000000
0.982458 0.913116 0.000000
0.986017 0.913116 0.000000
0.989460 0.913116 0.000000
0.000000 0.919918 0.000000
0.617714 0.919918 0.000000
0.696910 0.919918 0.000000
0.741458 0.919918 0.000000
0.772600 0.919918 0.000000
0.796564 0.919918 0.000000
0.816049 0.919918 0.000000
0.832467 0.919918 0.000000
0.846654 0.919918 0.000000
0.859144 0.919918 0.000000
0.870300 0.919918 0.000000
0.880380 0.919918 0.000000
0.889574 0.919918 0.000000
0.898024 0.919918 0.000000
0.905842 0.919918 0.000000
0.913116 0.919918 0.000000
0.919918 0.919918 0.000000
0.926303 0.919918 0.000000
0.932321 0.919918 0.000000
0.938011 0.919918 0.000000
0.943408 0.919918 0.000000
0.948540 0.919918 0.000000
0.953431 0.919918 0.000000
0.958104 0.919918 0.000000
0.962578 0.919918 0.000000
0.966868 0.919918 0.000000
0.970989 0.919918 0.000000
0.974953 0.919918 0.000000
0.978773 0.919918 0.000000
0.982458 0.919918 0.000000
0.986017 0.919918 0.000000
0.989460 0.919918 0.000000
0.000000 0.926303 0.000000
0.617714 0.926303 0.000000
0.696910 0.926303 0.000000
0.741458 0.926303 0.000000
0.772600 0.926303 0.000000
0.796564 0.926303 0.000000
0.816049 0.926303 0.000000
0.832467 0.926303 0.000000
0.846654 0.926303 0.000000
0.859144 0.926303 0.000000
0.870300 0.926303 0.000000
0.880380 0.926303 0.000000
0.889574 0.926303 0.000000
0.898024 0.926303 0.000000
0.905842 0.926303 0.000000
0.913116 0.926303 0.000000
0.919918 0.926303 0.000000
0.926303 0.926303 0.000000
0.932321 0.926303 0.000000
0.938011 0.926303 0.000000
0.943408 0.926303 0.000000
0.948540 0.926303 0.000000
0.953431 0.926303 0.000000
0.958104 0.926303 0.000000
0.962578 0.926303 0.000000
0.966868 0.926303 0.000000
0.970989 0.926303 0.000000
0.974953 0.926303 0.000000
0.978773 0.926303 0.000000
0.982458 0.926303 0.000000
0.986017 0.926303 0.000000
0.989460 0.926303 0.000000
0.000000 0.932321 0.000000
0.617714 0.932321 0.000000
0.696910 0.932321 0.000000
0.741458 0.932321 0.000000
0.772600 0.932321 0.000000
0.796564 0.932321 0.000000
0.816049 0.932321 0.000000
0.832467 0.932321 0.000000
0.846654 0.932321 0.000000
0.859144 0.932321 0.000000
0.870300 0.932321 0.000000
0.880380 0.932321 0.000000
0.889574 0.932321 0.000000
0.898024 0.932321 0.000000
0.905842 0.932321 0.000000
0.913116 0.932321 0.000000
0.919918 0.932321 0.000000
0.926303 0.932321 0.000000
0.932321 0.932321 0.000000
0.938011 0.932321 0.000000
0.943408 0.932321 0.000000
0.948540 0.932321 0.000000
0.953431 0.932321 0.000000
0.958104 0.932321 0.000000
0.962578 0.932321 0.000000
0.966868 0.932321 0.000000
0.970989 0.932321 0.000000
0.974953 0.932321 0.000000
0.978773 0.932321 0.000000
0.982458 0.932321 0.000000
0.986017 0.932321 0.000000
0.989460 0.932321 0.000000
0.000000 0.938011 0.000000
0.617714 0.938011 0.000000
0.696910 0.938011 0.000000
0.741458 0.938011 0.000000
0.772600 0.938011 0.000000
0.796564 0.938011 0.000000
0.816049 0.938011 0.000000
0.832467 0.938011 0.000000
0.846654 0.938011 0.000000
0.859144 0.938011 0.000000
0.870300 0.938011 0.000000
0.880380 0.938011 0.000000
0.889574 0.938011 0.000000
0.898024 0.938011 0.000000
0.905842 0.938011 0.000000
0.913116 0.938011 0.000000
0.919918 0.938011 0.000000
0.926303 0.938011 0.000000
0.932321 0.938011 0.000000
0.938011 0.938011 0.000000
0.943408 0.938011 0.000000
0.948540 0.938011 0.000000
0.953431 0.938011 0.000000
0.958104 0.938011 0.000000
0.962578 0.938011 0.000000
0.966868 0.938011 0.000000
0.970989 0.938011 0.000000
0.974953 0.938011 0.000000
0.978773 0.938011 0.000000
0.982458 0.938011 0.000000
0.986017 0.938011 0.000000
0.989460 0.938011 0.000000
0.000000 0.943408 0.000000
0.617714 0.943408 0.000000
0.696910 0.943408 0.000000
0.741458 0.943408 0.000000
0.772600 0.943408 0.000000
0.796564 0.943408 0.000000
0.816049 0.943408 0.000000
0.832467 0.943408 0.000000
0.846654 0.943408 0.000000
0.859144 0.943408 0.000000
0.870300 0.943408 0.000000
0.880380 0.943408 0.000000
0.889574 0.943408 0.000000
0.898024 0.943408 0.000000
0.905842 0.943408 0.000000
0.913116 0.943408 0.000000
0.919918 0.943408 0.000000
0.926303 0.943408 0.000000
0.932321 0.943408 0.000000
0.938011 0.943408 0.000000
0.943408 0.943408 0.000000
0.948540 0.943408 0.000000
0.953431 0.943408 0.000000
0.958104 0.943408 0.000000
0.962578 0.943408 0.000000
0.966868 0.943408 0.000000
0.970989 0.943408 0.000000
0.974953 0.943408 0.000000
0.978773 0.943408 0.000000
0.982458 0.943408 0.000000
0.986017 0.943408 0.000000
0.989460 0.943408 0.000000
0.000000 0.948540 0.000000
0.617714 0.948540 0.000000
0.696910 0.948540 0.000000
0.741458 0.948540 0.000000
0.772600 0.948540 0.000000
0.796564 0.948540 0.000000
0.816049 0.948540 0.000000
0.832467 0.948540 0.000000
0.846654 0.948540 0.000000
0.859144 0.948540 0.000000
0.870300 0.948540 0.000000
0.880380 0.948540 0.000000
0.889574 0.948540 0.000000
0.898024 0.948540 0.000000
0.905842 0.948540 0.000000
0.913116 0.948540 0.000000
0.919918 0.948540 0.000000
0.926303 0.948540 0.000000
0.932321 0.948540 0.000000
0.938011 0.948540 0.000000
0.943408 0.948540 0.000000
0.948540 0.948540 0.000000
0.953431 0.948540 0.000000
0.958104 0.948540 0.000000
0.962578 0.948540 0.000000
0.966868 0.948540 0.000000
0.970989 0.948540 0.000000
0.974953 0.948540 0.000000
0.978773 0.948540 0.000000
0.982458 0.948540 0.000000
0.986017 0.948540 0.000000
0.989460 0.948540 0.000000
0.000000 0.953431 0.000000
0.617714 0.953431 0.000000
0.696910 0.953431 0.000000
0.741458 0.953431 0.000000
0.772600 0.953431 0.000000
0.796564 0.953431 0.000000
0.816049 0.953431 0.000000
0.832467 0.953431 0.000000
0.846654 0.953431 0.000000
0.859144 0.953431 0.000000
0.870300 0.953431 0.000000
0.880380 0.953431 0.000000
0.889574 0.953431 0.000000
0.898024 0.953431 0.000000
0.905842 0.953431 0.000000
0.913116 0.953431 0.000000
0.919918 0.953431 0.000000
0.926303 0.953431 0.000000
0.932321 0.953431 0.000000
0.938011 0.953431 0.000000
0.943408 0.953431 0.000000
0.948540 0.953431 0.000000
0.953431 0.953431 0.000000
0.958104 0.953431 0.000000
0.962578 0.953431 0.000000
0.966868 0.953431 0.000000
0.970989 0.953431 0.000000
0.974953 0.953431 0.000000
0.978773 0.953431 0.000000
0.982458 0.953431 0.000000
0.986017 0.953431 0.000000
0.989460 0.953431 0.000000
0.000000 0.958104 0.000000
0.617714 0.958104 0.000000
0.696910 0.958104 0.000000
0.741458 0.958104 0.000000
0.772600 0.958104 0.000000
0.796564 0.958104 0.000000
0.816049 0.958104 0.000000
0.832467 0.958104 0.000000
0.846654 0.958104 0.000000
0.859144 0.958104 0.000000
0.870300 0.958104 0.000000
0.880380 0.958104 0.000000
0.889574 0.958104 0.000000
0.898024 0.958104 0.000000
0.905842 0.958104 0.000000
0.913116 0.958104 0.000000
0.919918 0.958104 0.000000
0.926303 0.958104 0.000000
0.932321 0.958104 0.000000
0.938011 0.958104 0.000000
0.943408 0.958104 0.000000
0.948540 0.958104 0.000000
0.953431 0.958104 0.000000
0.958104 0.958104 0.000000
0.962578 0.958104 0.000000
0.966868 0.958104 0.000000
0.970989 0.958104 0.000000
0.974953 0.958104 0.000000
0.978773 0.958104 0.000000
0.982458 0.958104 0.000000
0.986017 0.958104 0.000000
0.989460 0.958104 0.000000
0.000000 0.962578 0.000000
0.617714 0.962578 0.000000
0.696910 0.962578 0.000000
0.741458 0.962578 0.000000
0.772600 0.962578 0.000000
0.796564 0.962578 0.000000
0.816049 0.962578 0.000000
0.832467 0.962578 0.000000
0.846654 0.962578 0.000000
0.859144 0.962578 0.000000
0.870300 0.962578 0.000000
0.880380 0.962578 0.000000
0.889574 0.962578 0.000000
0.898024 0.962578 0.000000
0.905842 0.962578 0.000000
0.913116 0.962578 0.000000
0.919918 0.962578 0.000000
0.926303 0.962578 0.000000
0.932321 0.962578 0.000000
0.938011 0.962578 0.000000
0.943408 0.962578 0.000000
0.948540 0.962578 0.000000
0.953431 0.962578 0.000000
0.958104 0.962578 0.000000
0.962578 0.962578 0.000000
0.966868 0.962578 0.000000
0.970989 0.962578 0.000000
0.974953 0.962578 0.000000
0.978773 0.962578 0.000000
0.982458 0.962578 0.000000
0.986017 0.962578 0.000000
0.989460 0.962578 0.000000
0.000000 0.966868 0.000000
0.617714 0.966868 0.000000
0.696910 0.966868 0.000000
0.741458 0.966868 0.000000
0.772600 0.966868 0.000000
0.796564 0.966868 0.000000
0.816049 0.966868 0.000000
0.832467 0.966868 0.000000
0.846654 0.966868 0.000000
0.859144 0.966868 0.000000
0.870300 0.966868 0.000000
0.880380 0.966868 0.000000
0.889574 0.966868 0.000000
0.898024 0.966868 0.000000
0.905842 0.966868 0.000000
0.913116 0.966868 0.000000
0.919918 0.966868 0.000000
0.926303 0.966868 0.000000
0.932321 0.966868 0.000000
0.938011 0.966868 0.000000
0.943408 0.966868 0.000000
0.948540 0.966868 0.000000
0.953431 0.966868 0.000000
0.958104 0.966868 0.000000
0.962578 0.966868 0.000000
0.966868 0.966868 0.000000
0.970989 0.966868 0.000000
0.974953 0.966868 0.000000
0.978773 0.966868 0.000000
0.982458 0.966868 0.000000
0.986017 0.966868 0.000000
0.989460 0.966868 0.000000
0.000000 0.970989 0.000000
0.617714 0.970989 0.000000
0.696910 0.970989 0.000000
0.741458 0.970989 0.000000
0.772600 0.970989 0.000000
0.796564 0.970989 0.000000
0.816049 0.970989 0.000000
0.832467 0.970989 0.000000
0.846654 0.970989 0.000000
0.859144 0.970989 0.000000
0.870300 0.970989 0.000000
0.880380 0.970989 0.000000
0.889574 0.970989 0.000000
0.898024 0.970989 0.000000
0.905842 0.970989 0.000000
0.913116 0.970989 0.000000
0.919918 0.970989 0.000000
0.926303 0.970989 0.000000
0.932321 0.970989 0.000000
0.938011 0.970989 0.000000
0.943408 0.970989 0.000000
0.948540 0.970989 0.000000
0.953431 0.970989 0.000000
0.958104 0.970989 0.000000
0.962578 0.970989 0.000000
0.966868 0.970989 0.000000
0.970989 0.970989 0.000000
0.974953 0.970989 0.000000
0.978773 0.970989 0.000000
0.982458 0.970989 0.000000
0.986017 0.970989 0.000000
0.989460 0.970989 0.000000
0.000000 0.974953 0.000000
0.617714 0.974953 0.000000
0.696910 0.974953 0.000000
0.741458 0.974953 0.000000
0.772600 0.974953 0.000000
0.796564 0.974953 0.000000
0.816049 0.974953 0.000000
0.832467 0.974953 0.000000
0.846654 0.974953 0.000000
0.859144 0.974953 0.000000
0.870300 0.974953 0.000000
0.880380 0.974953 0.000000
0.889574 0.974953 0.000000
0.898024 0.974953 0.000000
0.905842 0.974953 0.000000
0.913116 0.974953 0.000000
0.919918 0.974953 0.000000
0.926303 0.974953 0.000000
0.932321 0.974953 0.000000
0.938011 0.974953 0.000000
0.943408 0.974953 0.000000
