.nuke/nuke.LUT/linear-2-logC_exteded/AlexaV3_EI0250_Linear2LogC_EE_nuke3d.cube
# Alexa conversion LUT, lin2logc. Full in/full out.
# created by alexalutconv (2.07)
LUT_3D_SIZE 8
DOMAIN_MIN 0.000000 0.000000 0.000000
DOMAIN_MAX 0.903226 0.903226 0.903226
0.000000 0.000000 0.000000
0.618925 0.000000 0.000000
0.699322 0.000000 0.000000
0.746037 0.000000 0.000000
0.779097 0.000000 0.000000
0.804704 0.000000 0.000000
0.825608 0.000000 0.000000
0.843272 0.000000 0.000000
0.000000 0.618925 0.000000
0.618925 0.618925 0.000000
0.699322 0.618925 0.000000
0.746037 0.618925 0.000000
0.779097 0.618925 0.000000
0.804704 0.618925 0.000000
0.825608 0.618925 0.000000
0.843272 0.618925 0.000000
0.000000 0.699322 0.000000
0.618925 0.699322 0.000000
0.699322 0.699322 0.000000
0.746037 0.699322 0.000000
0.779097 0.699322 0.000000
0.804704 0.699322 0.000000
0.825608 0.699322 0.000000
0.843272 0.699322 0.000000
0.000000 0.746037 0.000000
0.618925 0.746037 0.000000
0.699322 0.746037 0.000000
0.746037 0.746037 0.000000
0.779097 0.746037 0.000000
0.804704 0.746037 0.000000
0.825608 0.746037 0.000000
0.843272 0.746037 0.000000
0.000000 0.779097 0.000000
0.618925 0.779097 0.000000
0.699322 0.779097 0.000000
0.746037 0.779097 0.000000
0.779097 0.779097 0.000000
0.804704 0.779097 0.000000
0.825608 0.779097 0.000000
0.843272 0.779097 0.000000
0.000000 0.804704 0.000000
0.618925 0.804704 0.000000
0.699322 0.804704 0.000000
0.746037 0.804704 0.000000
0.779097 0.804704 0.000000
0.804704 0.804704 0.000000
0.825608 0.804704 0.000000
0.843272 0.804704 0.000000
0.000000 0.825608 0.000000
0.618925 0.825608 0.000000
0.699322 0.825608 0.000000
0.746037 0.825608 0.000000
0.779097 0.825608 0.000000
0.804704 0.825608 0.000000
0.825608 0.825608 0.000000
0.843272 0.825608 0.000000
0.000000 0.843272 0.000000
0.618925 0.843272 0.000000
0.699322 0.843272 0.000000
0.746037 0.843272 0.000000
0.779097 0.843272 0.000000
0.804704 0.843272 0.000000
0.825608 0.843272 0.000000
0.843272 0.843272 0.000000
0.000000 0.000000 0.618925
0.618925 0.000000 0.618925
0.699322 0.000000 0.618925
0.746037 0.000000 0.618925
0.779097 0.000000 0.618925
0.804704 0.000000 0.618925
0.825608 0.000000 0.618925
0.843272 0.000000 0.618925
0.000000 0.618925 0.618925
0.618925 0.618925 0.618925
0.699322 0.618925 0.618925
0.746037 0.618925 0.618925
0.779097 0.618925 0.618925
0.804704 0.618925 0.618925
0.825608 0.618925 0.618925
0.843272 0.618925 0.618925
0.000000 0.699322 0.618925
0.618925 0.699322 0.618925
0.699322 0.699322 0.618925
0.746037 0.699322 0.618925
0.779097 0.699322 0.618925
0.804704 0.699322 0.618925
0.825608 0.699322 0.618925
0.843272 0.699322 0.618925
0.000000 0.746037 0.618925
0.618925 0.746037 0.618925
0.699322 0.746037 0.618925
0.746037 0.746037 0.618925
0.779097 0.746037 0.618925
0.804704 0.746037 0.618925
0.825608 0.746037 0.618925
0.843272 0.746037 0.618925
0.000000 0.779097 0.618925
0.618925 0.779097 0.618925
0.699322 0.779097 0.618925
0.746037 0.779097 0.618925
0.779097 0.779097 0.618925
0.804704 0.779097 0.618925
0.825608 0.779097 0.618925
0.843272 0.779097 0.618925
0.000000 0.804704 0.618925
0.618925 0.804704 0.618925
0.699322 0.804704 0.618925
0.746037 0.804704 0.618925
0.779097 0.804704 0.618925
0.804704 0.804704 0.618925
0.825608 0.804704 0.618925
0.843272 0.804704 0.618925
0.000000 0.825608 0.618925
0.618925 0.825608 0.618925
0.699322 0.825608 0.618925
0.746037 0.825608 0.618925
0.779097 0.825608 0.618925
0.804704 0.825608 0.618925
0.825608 0.825608 0.618925
0.843272 0.825608 0.618925
0.000000 0.843272 0.618925
0.618925 0.843272 0.618925
0.699322 0.843272 0.618925
0.746037 0.843272 0.618925
0.779097 0.843272 0.618925
0.804704 0.843272 0.618925
0.825608 0.843272 0.618925
0.843272 0.843272 0.618925
0.000000 0.000000 0.699322
0.618925 0.000000 0.699322
0.699322 0.000000 0.699322
0.746037 0.000000 0.699322
0.779097 0.000000 0.699322
0.804704 0.000000 0.699322
0.825608 0.000000 0.699322
0.843272 0.000000 0.699322
0.000000 0.618925 0.699322
0.618925 0.618925 0.699322
0.699322 0.618925 0.699322
0.746037 0.618925 0.699322
0.779097 0.618925 0.699322
0.804704 0.618925 0.699322
0.825608 0.618925 0.699322
0.843272 0.618925 0.699322
0.000000 0.699322 0.699322
0.618925 0.699322 0.699322
0.699322 0.699322 0.699322
0.746037 0.699322 0.699322
0.779097 0.699322 0.699322
0.804704 0.699322 0.699322
0.825608 0.699322 0.699322
0.843272 0.699322 0.699322
0.000000 0.746037 0.699322
0.618925 0.746037 0.699322
0.699322 0.746037 0.699322
0.746037 0.746037 0.699322
0.779097 0.746037 0.699322
0.804704 0.746037 0.699322
0.825608 0.746037 0.699322
0.843272 0.746037 0.699322
0.000000 0.779097 0.699322
0.618925 0.779097 0.699322
0.699322 0.779097 0.699322
0.746037 0.779097 0.699322
0.779097 0.779097 0.699322
0.804704 0.779097 0.699322
0.825608 0.779097 0.699322
0.843272 0.779097 0.699322
0.000000 0.804704 0.699322
0.618925 0.804704 0.699322
0.699322 0.804704 0.699322
0.746037 0.804704 0.699322
0.779097 0.804704 0.699322
0.804704 0.804704 0.699322
0.825608 0.804704 0.699322
0.843272 0.804704 0.699322
0.000000 0.825608 0.699322
0.618925 0.825608 0.699322
0.699322 0.825608 0.699322
0.746037 0.825608 0.699322
0.779097 0.825608 0.699322
0.804704 0.825608 0.699322
0.825608 0.825608 0.699322
0.843272 0.825608 0.699322
0.000000 0.843272 0.699322
0.618925 0.843272 0.699322
0.699322 0.843272 0.699322
0.746037 0.843272 0.699322
0.779097 0.843272 0.699322
0.804704 0.843272 0.699322
0.825608 0.843272 0.699322
0.843272 0.843272 0.699322
0.000000 0.000000 0.746037
0.618925 0.000000 0.746037
0.699322 0.000000 0.746037
0.746037 0.000000 0.746037
0.779097 0.000000 0.746037
0.804704 0.000000 0.746037
0.825608 0.000000 0.746037
0.843272 0.000000 0.746037
0.000000 0.618925 0.746037
0.618925 0.618925 0.746037
0.699322 0.618925 0.746037
0.746037 0.618925 0.746037
0.779097 0.618925 0.746037
0.804704 0.618925 0.746037
0.825608 0.618925 0.746037
0.843272 0.618925 0.746037
0.000000 0.699322 0.746037
0.618925 0.699322 0.746037
0.699322 0.699322 0.746037
0.746037 0.699322 0.746037
0.779097 0.699322 0.746037
0.804704 0.699322 0.746037
0.825608 0.699322 0.746037
0.843272 0.699322 0.746037
0.000000 0.746037 0.746037
0.618925 0.746037 0.746037
0.699322 0.746037 0.746037
0.746037 0.746037 0.746037
0.779097 0.746037 0.746037
0.804704 0.746037 0.746037
0.825608 0.746037 0.746037
0.843272 0.746037 0.746037
0.000000 0.779097 0.746037
0.618925 0.779097 0.746037
0.699322 0.779097 0.746037
0.746037 0.779097 0.746037
0.779097 0.779097 0.746037
0.804704 0.779097 0.746037
0.825608 0.779097 0.746037
0.843272 0.779097 0.746037
0.000000 0.804704 0.746037
0.618925 0.804704 0.746037
0.699322 0.804704 0.746037
0.746037 0.804704 0.746037
0.779097 0.804704 0.746037
0.804704 0.804704 0.746037
0.825608 0.804704 0.746037
0.843272 0.804704 0.746037
0.000000 0.825608 0.746037
0.618925 0.825608 0.746037
0.699322 0.825608 0.746037
0.746037 0.825608 0.746037
0.779097 0.825608 0.746037
0.804704 0.825608 0.746037
0.825608 0.825608 0.746037
0.843272 0.825608 0.746037
0.000000 0.843272 0.746037
0.618925 0.843272 0.746037
0.699322 0.843272 0.746037
0.746037 0.843272 0.746037
0.779097 0.843272 0.746037
0.804704 0.843272 0.746037
0.825608 0.843272 0.746037
0.843272 0.843272 0.746037
0.000000 0.000000 0.779097
0.618925 0.000000 0.779097
0.699322 0.000000 0.779097
0.746037 0.000000 0.779097
0.779097 0.000000 0.779097
0.804704 0.000000 0.779097
0.825608 0.000000 0.779097
0.843272 0.000000 0.779097
0.000000 0.618925 0.779097
0.618925 0.618925 0.779097
0.699322 0.618925 0.779097
0.746037 0.618925 0.779097
0.779097 0.618925 0.779097
0.804704 0.618925 0.779097
0.825608 0.618925 0.779097
0.843272 0.618925 0.779097
0.000000 0.699322 0.779097
0.618925 0.699322 0.779097
0.699322 0.699322 0.779097
0.746037 0.699322 0.779097
0.779097 0.699322 0.779097
0.804704 0.699322 0.779097
0.825608 0.699322 0.779097
0.843272 0.699322 0.779097
0.000000 0.746037 0.779097
0.618925 0.746037 0.779097
0.699322 0.746037 0.779097
0.746037 0.746037 0.779097
0.779097 0.746037 0.779097
0.804704 0.746037 0.779097
0.825608 0.746037 0.779097
0.843272 0.746037 0.779097
0.000000 0.779097 0.779097
0.618925 0.779097 0.779097
0.699322 0.779097 0.779097
0.746037 0.779097 0.779097
0.779097 0.779097 0.779097
0.804704 0.779097 0.779097
0.825608 0.779097 0.779097
0.843272 0.779097 0.779097
0.000000 0.804704 0.779097
0.618925 0.804704 0.779097
0.699322 0.804704 0.779097
0.746037 0.804704 0.779097
0.779097 0.804704 0.779097
0.804704 0.804704 0.779097
0.825608 0.804704 0.779097
0.843272 0.804704 0.779097
0.000000 0.825608 0.779097
0.618925 0.825608 0.779097
0.699322 0.825608 0.779097
0.746037 0.825608 0.779097
0.779097 0.825608 0.779097
0.804704 0.825608 0.779097
0.825608 0.825608 0.779097
0.843272 0.825608 0.779097
0.000000 0.843272 0.779097
0.618925 0.843272 0.779097
0.699322 0.843272 0.779097
0.746037 0.843272 0.779097
0.779097 0.843272 0.779097
0.804704 0.843272 0.779097
0.825608 0.843272 0.779097
0.843272 0.843272 0.779097
0.000000 0.000000 0.804704
0.618925 0.000000 0.804704
0.699322 0.000000 0.804704
0.746037 0.000000 0.804704
0.779097 0.000000 0.804704
0.804704 0.000000 0.804704
0.825608 0.000000 0.804704
0.843272 0.000000 0.804704
0.000000 0.618925 0.804704
0.618925 0.618925 0.804704
0.699322 0.618925 0.804704
0.746037 0.618925 0.804704
0.779097 0.618925 0.804704
0.804704 0.618925 0.804704
0.825608 0.618925 0.804704
0.843272 0.618925 0.804704
0.000000 0.699322 0.804704
0.618925 0.699322 0.804704
0.699322 0.699322 0.804704
0.746037 0.699322 0.804704
0.779097 0.699322 0.804704
0.804704 0.699322 0.804704
0.825608 0.699322 0.804704
0.843272 0.699322 0.804704
0.000000 0.746037 0.804704
0.618925 0.746037 0.804704
0.699322 0.746037 0.804704
0.746037 0.746037 0.804704
0.779097 0.746037 0.804704
0.804704 0.746037 0.804704
0.825608 0.746037 0.804704
0.843272 0.746037 0.804704
0.000000 0.779097 0.804704
0.618925 0.779097 0.804704
0.699322 0.779097 0.804704
0.746037 0.779097 0.804704
0.779097 0.779097 0.804704
0.804704 0.779097 0.804704
0.825608 0.779097 0.804704
0.843272 0.779097 0.804704
0.000000 0.804704 0.804704
0.618925 0.804704 0.804704
0.699322 0.804704 0.804704
0.746037 0.804704 0.804704
0.779097 0.804704 0.804704
0.804704 0.804704 0.804704
0.825608 0.804704 0.804704
0.843272 0.804704 0.804704
0.000000 0.825608 0.804704
0.618925 0.825608 0.804704
0.699322 0.825608 0.804704
0.746037 0.825608 0.804704
0.779097 0.825608 0.804704
0.804704 0.825608 0.804704
0.825608 0.825608 0.804704
0.843272 0.825608 0.804704
0.000000 0.843272 0.804704
0.618925 0.843272 0.804704
0.699322 0.843272 0.804704
0.746037 0.843272 0.804704
0.779097 0.843272 0.804704
0.804704 0.843272 0.804704
0.825608 0.843272 0.804704
0.843272 0.843272 0.804704
0.000000 0.000000 0.825608
0.618925 0.000000 0.825608
0.699322 0.000000 0.825608
0.746037 0.000000 0.825608
0.779097 0.000000 0.825608
0.804704 0.000000 0.825608
0.825608 0.000000 0.825608
0.843272 0.000000 0.825608
0.000000 0.618925 0.825608
0.618925 0.618925 0.825608
0.699322 0.618925 0.825608
0.746037 0.618925 0.825608
0.779097 0.618925 0.825608
0.804704 0.618925 0.825608
0.825608 0.618925 0.825608
0.843272 0.618925 0.825608
0.000000 0.699322 0.825608
0.618925 0.699322 0.825608
0.699322 0.699322 0.825608
0.746037 0.699322 0.825608
0.779097 0.699322 0.825608
0.804704 0.699322 0.825608
0.825608 0.699322 0.825608
0.843272 0.699322 0.825608
0.000000 0.746037 0.825608
0.618925 0.746037 0.825608
0.699322 0.746037 0.825608
0.746037 0.746037 0.825608
0.779097 0.746037 0.825608
0.804704 0.746037 0.825608
0.825608 0.746037 0.825608
0.843272 0.746037 0.825608
0.000000 0.779097 0.825608
0.618925 0.779097 0.825608
0.699322 0.779097 0.825608
0.746037 0.779097 0.825608
0.779097 0.779097 0.825608
0.804704 0.779097 0.825608
0.825608 0.779097 0.825608
0.843272 0.779097 0.825608
0.000000 0.804704 0.825608
0.618925 0.804704 0.825608
0.699322 0.804704 0.825608
0.746037 0.804704 0.825608
0.779097 0.804704 0.825608
0.804704 0.804704 0.825608
0.825608 0.804704 0.825608
0.843272 0.804704 0.825608
0.000000 0.825608 0.825608
0.618925 0.825608 0.825608
0.699322 0.825608 0.825608
0.746037 0.825608 0.825608
0.779097 0.825608 0.825608
0.804704 0.825608 0.825608
0.825608 0.825608 0.825608
0.843272 0.825608 0.825608
0.000000 0.843272 0.825608
0.618925 0.843272 0.825608
0.699322 0.843272 0.825608
0.746037 0.843272 0.825608
0.779097 0.843272 0.825608
0.804704 0.843272 0.825608
0.825608 0.843272 0.825608
0.843272 0.843272 0.825608
0.000000 0.000000 0.843272
0.618925 0.000000 0.843272
0.699322 0.000000 0.843272
0.746037 0.000000 0.843272
0.779097 0.000000 0.843272
0.804704 0.000000 0.843272
0.825608 0.000000 0.843272
0.843272 0.000000 0.843272
0.000000 0.618925 0.843272
0.618925 0.618925 0.843272
0.699322 0.618925 0.843272
0.746037 0.618925 0.843272
0.779097 0.618925 0.843272
0.804704 0.618925 0.843272
0.825608 0.618925 0.843272
0.843272 0.618925 0.843272
0.000000 0.699322 0.843272
0.618925 0.699322 0.843272
0.699322 0.699322 0.843272
0.746037 0.699322 0.843272
0.779097 0.699322 0.843272
0.804704 0.699322 0.843272
0.825608 0.699322 0.843272
0.843272 0.699322 0.843272
0.000000 0.746037 0.843272
0.618925 0.746037 0.843272
0.699322 0.746037 0.843272
0.746037 0.746037 0.843272
0.779097 0.746037 0.843272
0.804704 0.746037 0.843272
0.825608 0.746037 0.843272
0.843272 0.746037 0.843272
0.000000 0.779097 0.843272
0.618925 0.779097 0.843272
0.699322 0.779097 0.843272
0.746037 0.779097 0.843272
0.779097 0.779097 0.843272
0.804704 0.779097 0.843272
0.825608 0.779097 0.843272
0.843272 0.779097 0.843272
0.000000 0.804704 0.843272
0.618925 0.804704 0.843272
0.699322 0.804704 0.843272
0.746037 0.804704 0.843272
0.779097 0.804704 0.843272
0.804704 0.804704 0.843272
0.825608 0.804704 0.843272
0.843272 0.804704 0.843272
0.000000 0.825608 0.843272
0.618925 0.825608 0.843272
0.699322 0.825608 0.843272
0.746037 0.825608 0.843272
0.779097 0.825608 0.843272
0.804704 0.825608 0.843272
0.825608 0.825608 0.843272
0.843272 0.825608 0.843272
0.000000 0.843272 0.843272
0.618925 0.843272 0.843272
0.699322 0.843272 0.843272
0.746037 0.843272 0.843272
0.779097 0.843272 0.843272
0.804704 0.843272 0.843272
0.825608 0.843272 0.843272
0.843272 0.843272 0.843272
