.nuke/nuke.LUT/linear-2-logC_exteded/AlexaV3_EI0800_Linear2LogC_EE_nuke3d.cube
# Alexa conversion LUT, lin2logc. Full in/full out.
# created by alexalutconv (2.07)
LUT_3D_SIZE 8
DOMAIN_MIN 0.000000 0.000000 0.000000
DOMAIN_MAX 0.903226 0.903226 0.903226
0.000000 0.000000 0.000000
0.731425 0.000000 0.000000
0.807386 0.000000 0.000000
0.851425 0.000000 0.000000
0.882564 0.000000 0.000000
0.906671 0.000000 0.000000
0.926346 0.000000 0.000000
0.942967 0.000000 0.000000
0.000000 0.731425 0.000000
0.731425 0.731425 0.000000
0.807386 0.731425 0.000000
0.851425 0.731425 0.000000
0.882564 0.731425 0.000000
0.906671 0.731425 0.000000
0.926346 0.731425 0.000000
0.942967 0.731425 0.000000
0.000000 0.807386 0.000000
0.731425 0.807386 0.000000
0.807386 0.807386 0.000000
0.851425 0.807386 0.000000
0.882564 0.807386 0.000000
0.906671 0.807386 0.000000
0.926346 0.807386 0.000000
0.942967 0.807386 0.000000
0.000000 0.851425 0.000000
0.731425 0.851425 0.000000
0.807386 0.851425 0.000000
0.851425 0.851425 0.000000
0.882564 0.851425 0.000000
0.906671 0.851425 0.000000
0.926346 0.851425 0.000000
0.942967 0.851425 0.000000
0.000000 0.882564 0.000000
0.731425 0.882564 0.000000
0.807386 0.882564 0.000000
0.851425 0.882564 0.000000
0.882564 0.882564 0.000000
0.906671 0.882564 0.000000
0.926346 0.882564 0.000000
0.942967 0.882564 0.000000
0.000000 0.906671 0.000000
0.731425 0.906671 0.000000
0.807386 0.906671 0.000000
0.851425 0.906671 0.000000
0.882564 0.906671 0.000000
0.906671 0.906671 0.000000
0.926346 0.906671 0.000000
0.942967 0.906671 0.000000
0.000000 0.926346 0.000000
0.731425 0.926346 0.000000
0.807386 0.926346 0.000000
0.851425 0.926346 0.000000
0.882564 0.926346 0.000000
0.906671 0.926346 0.000000
0.926346 0.926346 0.000000
0.942967 0.926346 0.000000
0.000000 0.942967 0.000000
0.731425 0.942967 0.000000
0.807386 0.942967 0.000000
0.851425 0.942967 0.000000
0.882564 0.942967 0.000000
0.906671 0.942967 0.000000
0.926346 0.942967 0.000000
0.942967 0.942967 0.000000
0.000000 0.000000 0.731425
0.731425 0.000000 0.731425
0.807386 0.000000 0.731425
0.851425 0.000000 0.731425
0.882564 0.000000 0.731425
0.906671 0.000000 0.731425
0.926346 0.000000 0.731425
0.942967 0.000000 0.731425
0.000000 0.731425 0.731425
0.731425 0.731425 0.731425
0.807386 0.731425 0.731425
0.851425 0.731425 0.731425
0.882564 0.731425 0.731425
0.906671 0.731425 0.731425
0.926346 0.731425 0.731425
0.942967 0.731425 0.731425
0.000000 0.807386 0.731425
0.731425 0.807386 0.731425
0.807386 0.807386 0.731425
0.851425 0.807386 0.731425
0.882564 0.807386 0.731425
0.906671 0.807386 0.731425
0.926346 0.807386 0.731425
0.942967 0.807386 0.731425
0.000000 0.851425 0.731425
0.731425 0.851425 0.731425
0.807386 0.851425 0.731425
0.851425 0.851425 0.731425
0.882564 0.851425 0.731425
0.906671 0.851425 0.731425
0.926346 0.851425 0.731425
0.942967 0.851425 0.731425
0.000000 0.882564 0.731425
0.731425 0.882564 0.731425
0.807386 0.882564 0.731425
0.851425 0.882564 0.731425
0.882564 0.882564 0.731425
0.906671 0.882564 0.731425
0.926346 0.882564 0.731425
0.942967 0.882564 0.731425
0.000000 0.906671 0.731425
0.731425 0.906671 0.731425
0.807386 0.906671 0.731425
0.851425 0.906671 0.731425
0.882564 0.906671 0.731425
0.906671 0.906671 0.731425
0.926346 0.906671 0.731425
0.942967 0.906671 0.731425
0.000000 0.926346 0.731425
0.731425 0.926346 0.731425
0.807386 0.926346 0.731425
0.851425 0.926346 0.731425
0.882564 0.926346 0.731425
0.906671 0.926346 0.731425
0.926346 0.926346 0.731425
0.942967 0.926346 0.731425
0.000000 0.942967 0.731425
0.731425 0.942967 0.731425
0.807386 0.942967 0.731425
0.851425 0.942967 0.731425
0.882564 0.942967 0.731425
0.906671 0.942967 0.731425
0.926346 0.942967 0.731425
0.942967 0.942967 0.731425
0.000000 0.000000 0.807386
0.731425 0.000000 0.807386
0.807386 0.000000 0.807386
0.851425 0.000000 0.807386
0.882564 0.000000 0.807386
0.906671 0.000000 0.807386
0.926346 0.000000 0.807386
0.942967 0.000000 0.807386
0.000000 0.731425 0.807386
0.731425 0.731425 0.807386
0.807386 0.731425 0.807386
0.851425 0.731425 0.807386
0.882564 0.731425 0.807386
0.906671 0.731425 0.807386
0.926346 0.731425 0.807386
0.942967 0.731425 0.807386
0.000000 0.807386 0.807386
0.731425 0.807386 0.807386
0.807386 0.807386 0.807386
0.851425 0.807386 0.807386
0.882564 0.807386 0.807386
0.906671 0.807386 0.807386
0.926346 0.807386 0.807386
0.942967 0.807386 0.807386
0.000000 0.851425 0.807386
0.731425 0.851425 0.807386
0.807386 0.851425 0.807386
0.851425 0.851425 0.807386
0.882564 0.851425 0.807386
0.906671 0.851425 0.807386
0.926346 0.851425 0.807386
0.942967 0.851425 0.807386
0.000000 0.882564 0.807386
0.731425 0.882564 0.807386
0.807386 0.882564 0.807386
0.851425 0.882564 0.807386
0.882564 0.882564 0.807386
0.906671 0.882564 0.807386
0.926346 0.882564 0.807386
0.942967 0.882564 0.807386
0.000000 0.906671 0.807386
0.731425 0.906671 0.807386
0.807386 0.906671 0.807386
0.851425 0.906671 0.807386
0.882564 0.906671 0.807386
0.906671 0.906671 0.807386
0.926346 0.906671 0.807386
0.942967 0.906671 0.807386
0.000000 0.926346 0.807386
0.731425 0.926346 0.807386
0.807386 0.926346 0.807386
0.851425 0.926346 0.807386
0.882564 0.926346 0.807386
0.906671 0.926346 0.807386
0.926346 0.926346 0.807386
0.942967 0.926346 0.807386
0.000000 0.942967 0.807386
0.731425 0.942967 0.807386
0.807386 0.942967 0.807386
0.851425 0.942967 0.807386
0.882564 0.942967 0.807386
0.906671 0.942967 0.807386
0.926346 0.942967 0.807386
0.942967 0.942967 0.807386
0.000000 0.000000 0.851425
0.731425 0.000000 0.851425
0.807386 0.000000 0.851425
0.851425 0.000000 0.851425
0.882564 0.000000 0.851425
0.906671 0.000000 0.851425
0.926346 0.000000 0.851425
0.942967 0.000000 0.851425
0.000000 0.731425 0.851425
0.731425 0.731425 0.851425
0.807386 0.731425 0.851425
0.851425 0.731425 0.851425
0.882564 0.731425 0.851425
0.906671 0.731425 0.851425
0.926346 0.731425 0.851425
0.942967 0.731425 0.851425
0.000000 0.807386 0.851425
0.731425 0.807386 0.851425
0.807386 0.807386 0.851425
0.851425 0.807386 0.851425
0.882564 0.807386 0.851425
0.906671 0.807386 0.851425
0.926346 0.807386 0.851425
0.942967 0.807386 0.851425
0.000000 0.851425 0.851425
0.731425 0.851425 0.851425
0.807386 0.851425 0.851425
0.851425 0.851425 0.851425
0.882564 0.851425 0.851425
0.906671 0.851425 0.851425
0.926346 0.851425 0.851425
0.942967 0.851425 0.851425
0.000000 0.882564 0.851425
0.731425 0.882564 0.851425
0.807386 0.882564 0.851425
0.851425 0.882564 0.851425
0.882564 0.882564 0.851425
0.906671 0.882564 0.851425
0.926346 0.882564 0.851425
0.942967 0.882564 0.851425
0.000000 0.906671 0.851425
0.731425 0.906671 0.851425
0.807386 0.906671 0.851425
0.851425 0.906671 0.851425
0.882564 0.906671 0.851425
0.906671 0.906671 0.851425
0.926346 0.906671 0.851425
0.942967 0.906671 0.851425
0.000000 0.926346 0.851425
0.731425 0.926346 0.851425
0.807386 0.926346 0.851425
0.851425 0.926346 0.851425
0.882564 0.926346 0.851425
0.906671 0.926346 0.851425
0.926346 0.926346 0.851425
0.942967 0.926346 0.851425
0.000000 0.942967 0.851425
0.731425 0.942967 0.851425
0.807386 0.942967 0.851425
0.851425 0.942967 0.851425
0.882564 0.942967 0.851425
0.906671 0.942967 0.851425
0.926346 0.942967 0.851425
0.942967 0.942967 0.851425
0.000000 0.000000 0.882564
0.731425 0.000000 0.882564
0.807386 0.000000 0.882564
0.851425 0.000000 0.882564
0.882564 0.000000 0.882564
0.906671 0.000000 0.882564
0.926346 0.000000 0.882564
0.942967 0.000000 0.882564
0.000000 0.731425 0.882564
0.731425 0.731425 0.882564
0.807386 0.731425 0.882564
0.851425 0.731425 0.882564
0.882564 0.731425 0.882564
0.906671 0.731425 0.882564
0.926346 0.731425 0.882564
0.942967 0.731425 0.882564
0.000000 0.807386 0.882564
0.731425 0.807386 0.882564
0.807386 0.807386 0.882564
0.851425 0.807386 0.882564
0.882564 0.807386 0.882564
0.906671 0.807386 0.882564
0.926346 0.807386 0.882564
0.942967 0.807386 0.882564
0.000000 0.851425 0.882564
0.731425 0.851425 0.882564
0.807386 0.851425 0.882564
0.851425 0.851425 0.882564
0.882564 0.851425 0.882564
0.906671 0.851425 0.882564
0.926346 0.851425 0.882564
0.942967 0.851425 0.882564
0.000000 0.882564 0.882564
0.731425 0.882564 0.882564
0.807386 0.882564 0.882564
0.851425 0.882564 0.882564
0.882564 0.882564 0.882564
0.906671 0.882564 0.882564
0.926346 0.882564 0.882564
0.942967 0.882564 0.882564
0.000000 0.906671 0.882564
0.731425 0.906671 0.882564
0.807386 0.906671 0.882564
0.851425 0.906671 0.882564
0.882564 0.906671 0.882564
0.906671 0.906671 0.882564
0.926346 0.906671 0.882564
0.942967 0.906671 0.882564
0.000000 0.926346 0.882564
0.731425 0.926346 0.882564
0.807386 0.926346 0.882564
0.851425 0.926346 0.882564
0.882564 0.926346 0.882564
0.906671 0.926346 0.882564
0.926346 0.926346 0.882564
0.942967 0.926346 0.882564
0.000000 0.942967 0.882564
0.731425 0.942967 0.882564
0.807386 0.942967 0.882564
0.851425 0.942967 0.882564
0.882564 0.942967 0.882564
0.906671 0.942967 0.882564
0.926346 0.942967 0.882564
0.942967 0.942967 0.882564
0.000000 0.000000 0.906671
0.731425 0.000000 0.906671
0.807386 0.000000 0.906671
0.851425 0.000000 0.906671
0.882564 0.000000 0.906671
0.906671 0.000000 0.906671
0.926346 0.000000 0.906671
0.942967 0.000000 0.906671
0.000000 0.731425 0.906671
0.731425 0.731425 0.906671
0.807386 0.731425 0.906671
0.851425 0.731425 0.906671
0.882564 0.731425 0.906671
0.906671 0.731425 0.906671
0.926346 0.731425 0.906671
0.942967 0.731425 0.906671
0.000000 0.807386 0.906671
0.731425 0.807386 0.906671
0.807386 0.807386 0.906671
0.851425 0.807386 0.906671
0.882564 0.807386 0.906671
0.906671 0.807386 0.906671
0.926346 0.807386 0.906671
0.942967 0.807386 0.906671
0.000000 0.851425 0.906671
0.731425 0.851425 0.906671
0.807386 0.851425 0.906671
0.851425 0.851425 0.906671
0.882564 0.851425 0.906671
0.906671 0.851425 0.906671
0.926346 0.851425 0.906671
0.942967 0.851425 0.906671
0.000000 0.882564 0.906671
0.731425 0.882564 0.906671
0.807386 0.882564 0.906671
0.851425 0.882564 0.906671
0.882564 0.882564 0.906671
0.906671 0.882564 0.906671
0.926346 0.882564 0.906671
0.942967 0.882564 0.906671
0.000000 0.906671 0.906671
0.731425 0.906671 0.906671
0.807386 0.906671 0.906671
0.851425 0.906671 0.906671
0.882564 0.906671 0.906671
0.906671 0.906671 0.906671
0.926346 0.906671 0.906671
0.942967 0.906671 0.906671
0.000000 0.926346 0.906671
0.731425 0.926346 0.906671
0.807386 0.926346 0.906671
0.851425 0.926346 0.906671
0.882564 0.926346 0.906671
0.906671 0.926346 0.906671
0.926346 0.926346 0.906671
0.942967 0.926346 0.906671
0.000000 0.942967 0.906671
0.731425 0.942967 0.906671
0.807386 0.942967 0.906671
0.851425 0.942967 0.906671
0.882564 0.942967 0.906671
0.906671 0.942967 0.906671
0.926346 0.942967 0.906671
0.942967 0.942967 0.906671
0.000000 0.000000 0.926346
0.731425 0.000000 0.926346
0.807386 0.000000 0.926346
0.851425 0.000000 0.926346
0.882564 0.000000 0.926346
0.906671 0.000000 0.926346
0.926346 0.000000 0.926346
0.942967 0.000000 0.926346
0.000000 0.731425 0.926346
0.731425 0.731425 0.926346
0.807386 0.731425 0.926346
0.851425 0.731425 0.926346
0.882564 0.731425 0.926346
0.906671 0.731425 0.926346
0.926346 0.731425 0.926346
0.942967 0.731425 0.926346
0.000000 0.807386 0.926346
0.731425 0.807386 0.926346
0.807386 0.807386 0.926346
0.851425 0.807386 0.926346
0.882564 0.807386 0.926346
0.906671 0.807386 0.926346
0.926346 0.807386 0.926346
0.942967 0.807386 0.926346
0.000000 0.851425 0.926346
0.731425 0.851425 0.926346
0.807386 0.851425 0.926346
0.851425 0.851425 0.926346
0.882564 0.851425 0.926346
0.906671 0.851425 0.926346
0.926346 0.851425 0.926346
0.942967 0.851425 0.926346
0.000000 0.882564 0.926346
0.731425 0.882564 0.926346
0.807386 0.882564 0.926346
0.851425 0.882564 0.926346
0.882564 0.882564 0.926346
0.906671 0.882564 0.926346
0.926346 0.882564 0.926346
0.942967 0.882564 0.926346
0.000000 0.906671 0.926346
0.731425 0.906671 0.926346
0.807386 0.906671 0.926346
0.851425 0.906671 0.926346
0.882564 0.906671 0.926346
0.906671 0.906671 0.926346
0.926346 0.906671 0.926346
0.942967 0.906671 0.926346
0.000000 0.926346 0.926346
0.731425 0.926346 0.926346
0.807386 0.926346 0.926346
0.851425 0.926346 0.926346
0.882564 0.926346 0.926346
0.906671 0.926346 0.926346
0.926346 0.926346 0.926346
0.942967 0.926346 0.926346
0.000000 0.942967 0.926346
0.731425 0.942967 0.926346
0.807386 0.942967 0.926346
0.851425 0.942967 0.926346
0.882564 0.942967 0.926346
0.906671 0.942967 0.926346
0.926346 0.942967 0.926346
0.942967 0.942967 0.926346
0.000000 0.000000 0.942967
0.731425 0.000000 0.942967
0.807386 0.000000 0.942967
0.851425 0.000000 0.942967
0.882564 0.000000 0.942967
0.906671 0.000000 0.942967
0.926346 0.000000 0.942967
0.942967 0.000000 0.942967
0.000000 0.731425 0.942967
0.731425 0.731425 0.942967
0.807386 0.731425 0.942967
0.851425 0.731425 0.942967
0.882564 0.731425 0.942967
0.906671 0.731425 0.942967
0.926346 0.731425 0.942967
0.942967 0.731425 0.942967
0.000000 0.807386 0.942967
0.731425 0.807386 0.942967
0.807386 0.807386 0.942967
0.851425 0.807386 0.942967
0.882564 0.807386 0.942967
0.906671 0.807386 0.942967
0.926346 0.807386 0.942967
0.942967 0.807386 0.942967
0.000000 0.851425 0.942967
0.731425 0.851425 0.942967
0.807386 0.851425 0.942967
0.851425 0.851425 0.942967
0.882564 0.851425 0.942967
0.906671 0.851425 0.942967
0.926346 0.851425 0.942967
0.942967 0.851425 0.942967
0.000000 0.882564 0.942967
0.731425 0.882564 0.942967
0.807386 0.882564 0.942967
0.851425 0.882564 0.942967
0.882564 0.882564 0.942967
0.906671 0.882564 0.942967
0.926346 0.882564 0.942967
0.942967 0.882564 0.942967
0.000000 0.906671 0.942967
0.731425 0.906671 0.942967
0.807386 0.906671 0.942967
0.851425 0.906671 0.942967
0.882564 0.906671 0.942967
0.906671 0.906671 0.942967
0.926346 0.906671 0.942967
0.942967 0.906671 0.942967
0.000000 0.926346 0.942967
0.731425 0.926346 0.942967
0.807386 0.926346 0.942967
0.851425 0.926346 0.942967
0.882564 0.926346 0.942967
0.906671 0.926346 0.942967
0.926346 0.926346 0.942967
0.942967 0.926346 0.942967
0.000000 0.942967 0.942967
0.731425 0.942967 0.942967
0.807386 0.942967 0.942967
0.851425 0.942967 0.942967
0.882564 0.942967 0.942967
0.906671 0.942967 0.942967
0.926346 0.942967 0.942967
0.942967 0.942967 0.942967
