.nuke/nuke.LUT/linear-2-logC_exteded/AlexaV3_EI0400_Linear2LogC_EE_nuke3d.cube
# Alexa conversion LUT, lin2logc. Full in/full out.
# created by alexalutconv (2.07)
LUT_3D_SIZE 32
0.000000 0.000000 0.000000
0.502649 0.000000 0.000000
0.585984 0.000000 0.000000
0.633127 0.000000 0.000000
0.666153 0.000000 0.000000
0.691596 0.000000 0.000000
0.712296 0.000000 0.000000
0.729746 0.000000 0.000000
0.744831 0.000000 0.000000
0.758115 0.000000 0.000000
0.769982 0.000000 0.000000
0.780707 0.000000 0.000000
0.790489 0.000000 0.000000
0.799482 0.000000 0.000000
0.807803 0.000000 0.000000
0.815545 0.000000 0.000000
0.822785 0.000000 0.000000
0.829582 0.000000 0.000000
0.835989 0.000000 0.000000
0.842047 0.000000 0.000000
0.847793 0.000000 0.000000
0.853257 0.000000 0.000000
0.858465 0.000000 0.000000
0.863441 0.000000 0.000000
0.868205 0.000000 0.000000
0.872773 0.000000 0.000000
0.877161 0.000000 0.000000
0.881383 0.000000 0.000000
0.885451 0.000000 0.000000
0.889375 0.000000 0.000000
0.893166 0.000000 0.000000
0.896832 0.000000 0.000000
0.000000 0.502649 0.000000
0.502649 0.502649 0.000000
0.585984 0.502649 0.000000
0.633127 0.502649 0.000000
0.666153 0.502649 0.000000
0.691596 0.502649 0.000000
0.712296 0.502649 0.000000
0.729746 0.502649 0.000000
0.744831 0.502649 0.000000
0.758115 0.502649 0.000000
0.769982 0.502649 0.000000
0.780707 0.502649 0.000000
0.790489 0.502649 0.000000
0.799482 0.502649 0.000000
0.807803 0.502649 0.000000
0.815545 0.502649 0.000000
0.822785 0.502649 0.000000
0.829582 0.502649 0.000000
0.835989 0.502649 0.000000
0.842047 0.502649 0.000000
0.847793 0.502649 0.000000
0.853257 0.502649 0.000000
0.858465 0.502649 0.000000
0.863441 0.502649 0.000000
0.868205 0.502649 0.000000
0.872773 0.502649 0.000000
0.877161 0.502649 0.000000
0.881383 0.502649 0.000000
0.885451 0.502649 0.000000
0.889375 0.502649 0.000000
0.893166 0.502649 0.000000
0.896832 0.502649 0.000000
0.000000 0.585984 0.000000
0.502649 0.585984 0.000000
0.585984 0.585984 0.000000
0.633127 0.585984 0.000000
0.666153 0.585984 0.000000
0.691596 0.585984 0.000000
0.712296 0.585984 0.000000
0.729746 0.585984 0.000000
0.744831 0.585984 0.000000
0.758115 0.585984 0.000000
0.769982 0.585984 0.000000
0.780707 0.585984 0.000000
0.790489 0.585984 0.000000
0.799482 0.585984 0.000000
0.807803 0.585984 0.000000
0.815545 0.585984 0.000000
0.822785 0.585984 0.000000
0.829582 0.585984 0.000000
0.835989 0.585984 0.000000
0.842047 0.585984 0.000000
0.847793 0.585984 0.000000
0.853257 0.585984 0.000000
0.858465 0.585984 0.000000
0.863441 0.585984 0.000000
0.868205 0.585984 0.000000
0.872773 0.585984 0.000000
0.877161 0.585984 0.000000
0.881383 0.585984 0.000000
0.885451 0.585984 0.000000
0.889375 0.585984 0.000000
0.893166 0.585984 0.000000
0.896832 0.585984 0.000000
0.000000 0.633127 0.000000
0.502649 0.633127 0.000000
0.585984 0.633127 0.000000
0.633127 0.633127 0.000000
0.666153 0.633127 0.000000
0.691596 0.633127 0.000000
0.712296 0.633127 0.000000
0.729746 0.633127 0.000000
0.744831 0.633127 0.000000
0.758115 0.633127 0.000000
0.769982 0.633127 0.000000
0.780707 0.633127 0.000000
0.790489 0.633127 0.000000
0.799482 0.633127 0.000000
0.807803 0.633127 0.000000
0.815545 0.633127 0.000000
0.822785 0.633127 0.000000
0.829582 0.633127 0.000000
0.835989 0.633127 0.000000
0.842047 0.633127 0.000000
0.847793 0.633127 0.000000
0.853257 0.633127 0.000000
0.858465 0.633127 0.000000
0.863441 0.633127 0.000000
0.868205 0.633127 0.000000
0.872773 0.633127 0.000000
0.877161 0.633127 0.000000
0.881383 0.633127 0.000000
0.885451 0.633127 0.000000
0.889375 0.633127 0.000000
0.893166 0.633127 0.000000
0.896832 0.633127 0.000000
0.000000 0.666153 0.000000
0.502649 0.666153 0.000000
0.585984 0.666153 0.000000
0.633127 0.666153 0.000000
0.666153 0.666153 0.000000
0.691596 0.666153 0.000000
0.712296 0.666153 0.000000
0.729746 0.666153 0.000000
0.744831 0.666153 0.000000
0.758115 0.666153 0.000000
0.769982 0.666153 0.000000
0.780707 0.666153 0.000000
0.790489 0.666153 0.000000
0.799482 0.666153 0.000000
0.807803 0.666153 0.000000
0.815545 0.666153 0.000000
0.822785 0.666153 0.000000
0.829582 0.666153 0.000000
0.835989 0.666153 0.000000
0.842047 0.666153 0.000000
0.847793 0.666153 0.000000
0.853257 0.666153 0.000000
0.858465 0.666153 0.000000
0.863441 0.666153 0.000000
0.868205 0.666153 0.000000
0.872773 0.666153 0.000000
0.877161 0.666153 0.000000
0.881383 0.666153 0.000000
0.885451 0.666153 0.000000
0.889375 0.666153 0.000000
0.893166 0.666153 0.000000
0.896832 0.666153 0.000000
0.000000 0.691596 0.000000
0.502649 0.691596 0.000000
0.585984 0.691596 0.000000
0.633127 0.691596 0.000000
0.666153 0.691596 0.000000
0.691596 0.691596 0.000000
0.712296 0.691596 0.000000
0.729746 0.691596 0.000000
0.744831 0.691596 0.000000
0.758115 0.691596 0.000000
0.769982 0.691596 0.000000
0.780707 0.691596 0.000000
0.790489 0.691596 0.000000
0.799482 0.691596 0.000000
0.807803 0.691596 0.000000
0.815545 0.691596 0.000000
0.822785 0.691596 0.000000
0.829582 0.691596 0.000000
0.835989 0.691596 0.000000
0.842047 0.691596 0.000000
0.847793 0.691596 0.000000
0.853257 0.691596 0.000000
0.858465 0.691596 0.000000
0.863441 0.691596 0.000000
0.868205 0.691596 0.000000
0.872773 0.691596 0.000000
0.877161 0.691596 0.000000
0.881383 0.691596 0.000000
0.885451 0.691596 0.000000
0.889375 0.691596 0.000000
0.893166 0.691596 0.000000
0.896832 0.691596 0.000000
0.000000 0.712296 0.000000
0.502649 0.712296 0.000000
0.585984 0.712296 0.000000
0.633127 0.712296 0.000000
0.666153 0.712296 0.000000
0.691596 0.712296 0.000000
0.712296 0.712296 0.000000
0.729746 0.712296 0.000000
0.744831 0.712296 0.000000
0.758115 0.712296 0.000000
0.769982 0.712296 0.000000
0.780707 0.712296 0.000000
0.790489 0.712296 0.000000
0.799482 0.712296 0.000000
0.807803 0.712296 0.000000
0.815545 0.712296 0.000000
0.822785 0.712296 0.000000
0.829582 0.712296 0.000000
0.835989 0.712296 0.000000
0.842047 0.712296 0.000000
0.847793 0.712296 0.000000
0.853257 0.712296 0.000000
0.858465 0.712296 0.000000
0.863441 0.712296 0.000000
0.868205 0.712296 0.000000
0.872773 0.712296 0.000000
0.877161 0.712296 0.000000
0.881383 0.712296 0.000000
0.885451 0.712296 0.000000
0.889375 0.712296 0.000000
0.893166 0.712296 0.000000
0.896832 0.712296 0.000000
0.000000 0.729746 0.000000
0.502649 0.729746 0.000000
0.585984 0.729746 0.000000
0.633127 0.729746 0.000000
0.666153 0.729746 0.000000
0.691596 0.729746 0.000000
0.712296 0.729746 0.000000
0.729746 0.729746 0.000000
0.744831 0.729746 0.000000
0.758115 0.729746 0.000000
0.769982 0.729746 0.000000
0.780707 0.729746 0.000000
0.790489 0.729746 0.000000
0.799482 0.729746 0.000000
0.807803 0.729746 0.000000
0.815545 0.729746 0.000000
0.822785 0.729746 0.000000
0.829582 0.729746 0.000000
0.835989 0.729746 0.000000
0.842047 0.729746 0.000000
0.847793 0.729746 0.000000
0.853257 0.729746 0.000000
0.858465 0.729746 0.000000
0.863441 0.729746 0.000000
0.868205 0.729746 0.000000
0.872773 0.729746 0.000000
0.877161 0.729746 0.000000
0.881383 0.729746 0.000000
0.885451 0.729746 0.000000
0.889375 0.729746 0.000000
0.893166 0.729746 0.000000
0.896832 0.729746 0.000000
0.000000 0.744831 0.000000
0.502649 0.744831 0.000000
0.585984 0.744831 0.000000
0.633127 0.744831 0.000000
0.666153 0.744831 0.000000
0.691596 0.744831 0.000000
0.712296 0.744831 0.000000
0.729746 0.744831 0.000000
0.744831 0.744831 0.000000
0.758115 0.744831 0.000000
0.769982 0.744831 0.000000
0.780707 0.744831 0.000000
0.790489 0.744831 0.000000
0.799482 0.744831 0.000000
0.807803 0.744831 0.000000
0.815545 0.744831 0.000000
0.822785 0.744831 0.000000
0.829582 0.744831 0.000000
0.835989 0.744831 0.000000
0.842047 0.744831 0.000000
0.847793 0.744831 0.000000
0.853257 0.744831 0.000000
0.858465 0.744831 0.000000
0.863441 0.744831 0.000000
0.868205 0.744831 0.000000
0.872773 0.744831 0.000000
0.877161 0.744831 0.000000
0.881383 0.744831 0.000000
0.885451 0.744831 0.000000
0.889375 0.744831 0.000000
0.893166 0.744831 0.000000
0.896832 0.744831 0.000000
0.000000 0.758115 0.000000
0.502649 0.758115 0.000000
0.585984 0.758115 0.000000
0.633127 0.758115 0.000000
0.666153 0.758115 0.000000
0.691596 0.758115 0.000000
0.712296 0.758115 0.000000
0.729746 0.758115 0.000000
0.744831 0.758115 0.000000
0.758115 0.758115 0.000000
0.769982 0.758115 0.000000
0.780707 0.758115 0.000000
0.790489 0.758115 0.000000
0.799482 0.758115 0.000000
0.807803 0.758115 0.000000
0.815545 0.758115 0.000000
0.822785 0.758115 0.000000
0.829582 0.758115 0.000000
0.835989 0.758115 0.000000
0.842047 0.758115 0.000000
0.847793 0.758115 0.000000
0.853257 0.758115 0.000000
0.858465 0.758115 0.000000
0.863441 0.758115 0.000000
0.868205 0.758115 0.000000
0.872773 0.758115 0.000000
0.877161 0.758115 0.000000
0.881383 0.758115 0.000000
0.885451 0.758115 0.000000
0.889375 0.758115 0.000000
0.893166 0.758115 0.000000
0.896832 0.758115 0.000000
0.000000 0.769982 0.000000
0.502649 0.769982 0.000000
0.585984 0.769982 0.000000
0.633127 0.769982 0.000000
0.666153 0.769982 0.000000
0.691596 0.769982 0.000000
0.712296 0.769982 0.000000
0.729746 0.769982 0.000000
0.744831 0.769982 0.000000
0.758115 0.769982 0.000000
0.769982 0.769982 0.000000
0.780707 0.769982 0.000000
0.790489 0.769982 0.000000
0.799482 0.769982 0.000000
0.807803 0.769982 0.000000
0.815545 0.769982 0.000000
0.822785 0.769982 0.000000
0.829582 0.769982 0.000000
0.835989 0.769982 0.000000
0.842047 0.769982 0.000000
0.847793 0.769982 0.000000
0.853257 0.769982 0.000000
0.858465 0.769982 0.000000
0.863441 0.769982 0.000000
0.868205 0.769982 0.000000
0.872773 0.769982 0.000000
0.877161 0.769982 0.000000
0.881383 0.769982 0.000000
0.885451 0.769982 0.000000
0.889375 0.769982 0.000000
0.893166 0.769982 0.000000
0.896832 0.769982 0.000000
0.000000 0.780707 0.000000
0.502649 0.780707 0.000000
0.585984 0.780707 0.000000
0.633127 0.780707 0.000000
0.666153 0.780707 0.000000
0.691596 0.780707 0.000000
0.712296 0.780707 0.000000
0.729746 0.780707 0.000000
0.744831 0.780707 0.000000
0.758115 0.780707 0.000000
0.769982 0.780707 0.000000
0.780707 0.780707 0.000000
0.790489 0.780707 0.000000
0.799482 0.780707 0.000000
0.807803 0.780707 0.000000
0.815545 0.780707 0.000000
0.822785 0.780707 0.000000
0.829582 0.780707 0.000000
0.835989 0.780707 0.000000
0.842047 0.780707 0.000000
0.847793 0.780707 0.000000
0.853257 0.780707 0.000000
0.858465 0.780707 0.000000
0.863441 0.780707 0.000000
0.868205 0.780707 0.000000
0.872773 0.780707 0.000000
0.877161 0.780707 0.000000
0.881383 0.780707 0.000000
0.885451 0.780707 0.000000
0.889375 0.780707 0.000000
0.893166 0.780707 0.000000
0.896832 0.780707 0.000000
0.000000 0.790489 0.000000
0.502649 0.790489 0.000000
0.585984 0.790489 0.000000
0.633127 0.790489 0.000000
0.666153 0.790489 0.000000
0.691596 0.790489 0.000000
0.712296 0.790489 0.000000
0.729746 0.790489 0.000000
0.744831 0.790489 0.000000
0.758115 0.790489 0.000000
0.769982 0.790489 0.000000
0.780707 0.790489 0.000000
0.790489 0.790489 0.000000
0.799482 0.790489 0.000000
0.807803 0.790489 0.000000
0.815545 0.790489 0.000000
0.822785 0.790489 0.000000
0.829582 0.790489 0.000000
0.835989 0.790489 0.000000
0.842047 0.790489 0.000000
0.847793 0.790489 0.000000
0.853257 0.790489 0.000000
0.858465 0.790489 0.000000
0.863441 0.790489 0.000000
0.868205 0.790489 0.000000
0.872773 0.790489 0.000000
0.877161 0.790489 0.000000
0.881383 0.790489 0.000000
0.885451 0.790489 0.000000
0.889375 0.790489 0.000000
0.893166 0.790489 0.000000
0.896832 0.790489 0.000000
0.000000 0.799482 0.000000
0.502649 0.799482 0.000000
0.585984 0.799482 0.000000
0.633127 0.799482 0.000000
0.666153 0.799482 0.000000
0.691596 0.799482 0.000000
0.712296 0.799482 0.000000
0.729746 0.799482 0.000000
0.744831 0.799482 0.000000
0.758115 0.799482 0.000000
0.769982 0.799482 0.000000
0.780707 0.799482 0.000000
0.790489 0.799482 0.000000
0.799482 0.799482 0.000000
0.807803 0.799482 0.000000
0.815545 0.799482 0.000000
0.822785 0.799482 0.000000
0.829582 0.799482 0.000000
0.835989 0.799482 0.000000
0.842047 0.799482 0.000000
0.847793 0.799482 0.000000
0.853257 0.799482 0.000000
0.858465 0.799482 0.000000
0.863441 0.799482 0.000000
0.868205 0.799482 0.000000
0.872773 0.799482 0.000000
0.877161 0.799482 0.000000
0.881383 0.799482 0.000000
0.885451 0.799482 0.000000
0.889375 0.799482 0.000000
0.893166 0.799482 0.000000
0.896832 0.799482 0.000000
0.000000 0.807803 0.000000
0.502649 0.807803 0.000000
0.585984 0.807803 0.000000
0.633127 0.807803 0.000000
0.666153 0.807803 0.000000
0.691596 0.807803 0.000000
0.712296 0.807803 0.000000
0.729746 0.807803 0.000000
0.744831 0.807803 0.000000
0.758115 0.807803 0.000000
0.769982 0.807803 0.000000
0.780707 0.807803 0.000000
0.790489 0.807803 0.000000
0.799482 0.807803 0.000000
0.807803 0.807803 0.000000
0.815545 0.807803 0.000000
0.822785 0.807803 0.000000
0.829582 0.807803 0.000000
0.835989 0.807803 0.000000
0.842047 0.807803 0.000000
0.847793 0.807803 0.000000
0.853257 0.807803 0.000000
0.858465 0.807803 0.000000
0.863441 0.807803 0.000000
0.868205 0.807803 0.000000
0.872773 0.807803 0.000000
0.877161 0.807803 0.000000
0.881383 0.807803 0.000000
0.885451 0.807803 0.000000
0.889375 0.807803 0.000000
0.893166 0.807803 0.000000
0.896832 0.807803 0.000000
0.000000 0.815545 0.000000
0.502649 0.815545 0.000000
0.585984 0.815545 0.000000
0.633127 0.815545 0.000000
0.666153 0.815545 0.000000
0.691596 0.815545 0.000000
0.712296 0.815545 0.000000
0.729746 0.815545 0.000000
0.744831 0.815545 0.000000
0.758115 0.815545 0.000000
0.769982 0.815545 0.000000
0.780707 0.815545 0.000000
0.790489 0.815545 0.000000
0.799482 0.815545 0.000000
0.807803 0.815545 0.000000
0.815545 0.815545 0.000000
0.822785 0.815545 0.000000
0.829582 0.815545 0.000000
0.835989 0.815545 0.000000
0.842047 0.815545 0.000000
0.847793 0.815545 0.000000
0.853257 0.815545 0.000000
0.858465 0.815545 0.000000
0.863441 0.815545 0.000000
0.868205 0.815545 0.000000
0.872773 0.815545 0.000000
0.877161 0.815545 0.000000
0.881383 0.815545 0.000000
0.885451 0.815545 0.000000
0.889375 0.815545 0.000000
0.893166 0.815545 0.000000
0.896832 0.815545 0.000000
0.000000 0.822785 0.000000
0.502649 0.822785 0.000000
0.585984 0.822785 0.000000
0.633127 0.822785 0.000000
0.666153 0.822785 0.000000
0.691596 0.822785 0.000000
0.712296 0.822785 0.000000
0.729746 0.822785 0.000000
0.744831 0.822785 0.000000
0.758115 0.822785 0.000000
0.769982 0.822785 0.000000
0.780707 0.822785 0.000000
0.790489 0.822785 0.000000
0.799482 0.822785 0.000000
0.807803 0.822785 0.000000
0.815545 0.822785 0.000000
0.822785 0.822785 0.000000
0.829582 0.822785 0.000000
0.835989 0.822785 0.000000
0.842047 0.822785 0.000000
0.847793 0.822785 0.000000
0.853257 0.822785 0.000000
0.858465 0.822785 0.000000
0.863441 0.822785 0.000000
0.868205 0.822785 0.000000
0.872773 0.822785 0.000000
0.877161 0.822785 0.000000
0.881383 0.822785 0.000000
0.885451 0.822785 0.000000
0.889375 0.822785 0.000000
0.893166 0.822785 0.000000
0.896832 0.822785 0.000000
0.000000 0.829582 0.000000
0.502649 0.829582 0.000000
0.585984 0.829582 0.000000
0.633127 0.829582 0.000000
0.666153 0.829582 0.000000
0.691596 0.829582 0.000000
0.712296 0.829582 0.000000
0.729746 0.829582 0.000000
0.744831 0.829582 0.000000
0.758115 0.829582 0.000000
0.769982 0.829582 0.000000
0.780707 0.829582 0.000000
0.790489 0.829582 0.000000
0.799482 0.829582 0.000000
0.807803 0.829582 0.000000
0.815545 0.829582 0.000000
0.822785 0.829582 0.000000
0.829582 0.829582 0.000000
0.835989 0.829582 0.000000
0.842047 0.829582 0.000000
0.847793 0.829582 0.000000
0.853257 0.829582 0.000000
0.858465 0.829582 0.000000
0.863441 0.829582 0.000000
0.868205 0.829582 0.000000
0.872773 0.829582 0.000000
0.877161 0.829582 0.000000
0.881383 0.829582 0.000000
0.885451 0.829582 0.000000
0.889375 0.829582 0.000000
0.893166 0.829582 0.000000
0.896832 0.829582 0.000000
0.000000 0.835989 0.000000
0.502649 0.835989 0.000000
0.585984 0.835989 0.000000
0.633127 0.835989 0.000000
0.666153 0.835989 0.000000
0.691596 0.835989 0.000000
0.712296 0.835989 0.000000
0.729746 0.835989 0.000000
0.744831 0.835989 0.000000
0.758115 0.835989 0.000000
0.769982 0.835989 0.000000
0.780707 0.835989 0.000000
0.790489 0.835989 0.000000
0.799482 0.835989 0.000000
0.807803 0.835989 0.000000
0.815545 0.835989 0.000000
0.822785 0.835989 0.000000
0.829582 0.835989 0.000000
0.835989 0.835989 0.000000
0.842047 0.835989 0.000000
0.847793 0.835989 0.000000
0.853257 0.835989 0.000000
0.858465 0.835989 0.000000
0.863441 0.835989 0.000000
0.868205 0.835989 0.000000
0.872773 0.835989 0.000000
0.877161 0.835989 0.000000
0.881383 0.835989 0.000000
0.885451 0.835989 0.000000
0.889375 0.835989 0.000000
0.893166 0.835989 0.000000
0.896832 0.835989 0.000000
0.000000 0.842047 0.000000
0.502649 0.842047 0.000000
0.585984 0.842047 0.000000
0.633127 0.842047 0.000000
0.666153 0.842047 0.000000
0.691596 0.842047 0.000000
0.712296 0.842047 0.000000
0.729746 0.842047 0.000000
0.744831 0.842047 0.000000
0.758115 0.842047 0.000000
0.769982 0.842047 0.000000
0.780707 0.842047 0.000000
0.790489 0.842047 0.000000
0.799482 0.842047 0.000000
0.807803 0.842047 0.000000
0.815545 0.842047 0.000000
0.822785 0.842047 0.000000
0.829582 0.842047 0.000000
0.835989 0.842047 0.000000
0.842047 0.842047 0.000000
0.847793 0.842047 0.000000
0.853257 0.842047 0.000000
0.858465 0.842047 0.000000
0.863441 0.842047 0.000000
0.868205 0.842047 0.000000
0.872773 0.842047 0.000000
0.877161 0.842047 0.000000
0.881383 0.842047 0.000000
0.885451 0.842047 0.000000
0.889375 0.842047 0.000000
0.893166 0.842047 0.000000
0.896832 0.842047 0.000000
0.000000 0.847793 0.000000
0.502649 0.847793 0.000000
0.585984 0.847793 0.000000
0.633127 0.847793 0.000000
0.666153 0.847793 0.000000
0.691596 0.847793 0.000000
0.712296 0.847793 0.000000
0.729746 0.847793 0.000000
0.744831 0.847793 0.000000
0.758115 0.847793 0.000000
0.769982 0.847793 0.000000
0.780707 0.847793 0.000000
0.790489 0.847793 0.000000
0.799482 0.847793 0.000000
0.807803 0.847793 0.000000
0.815545 0.847793 0.000000
0.822785 0.847793 0.000000
0.829582 0.847793 0.000000
0.835989 0.847793 0.000000
0.842047 0.847793 0.000000
0.847793 0.847793 0.000000
0.853257 0.847793 0.000000
0.858465 0.847793 0.000000
0.863441 0.847793 0.000000
0.868205 0.847793 0.000000
0.872773 0.847793 0.000000
0.877161 0.847793 0.000000
0.881383 0.847793 0.000000
0.885451 0.847793 0.000000
0.889375 0.847793 0.000000
0.893166 0.847793 0.000000
0.896832 0.847793 0.000000
0.000000 0.853257 0.000000
0.502649 0.853257 0.000000
0.585984 0.853257 0.000000
0.633127 0.853257 0.000000
0.666153 0.853257 0.000000
0.691596 0.853257 0.000000
0.712296 0.853257 0.000000
0.729746 0.853257 0.000000
0.744831 0.853257 0.000000
0.758115 0.853257 0.000000
0.769982 0.853257 0.000000
0.780707 0.853257 0.000000
0.790489 0.853257 0.000000
0.799482 0.853257 0.000000
0.807803 0.853257 0.000000
0.815545 0.853257 0.000000
0.822785 0.853257 0.000000
0.829582 0.853257 0.000000
0.835989 0.853257 0.000000
0.842047 0.853257 0.000000
0.847793 0.853257 0.000000
0.853257 0.853257 0.000000
0.858465 0.853257 0.000000
0.863441 0.853257 0.000000
0.868205 0.853257 0.000000
0.872773 0.853257 0.000000
0.877161 0.853257 0.000000
0.881383 0.853257 0.000000
0.885451 0.853257 0.000000
0.889375 0.853257 0.000000
0.893166 0.853257 0.000000
0.896832 0.853257 0.000000
0.000000 0.858465 0.000000
0.502649 0.858465 0.000000
0.585984 0.858465 0.000000
0.633127 0.858465 0.000000
0.666153 0.858465 0.000000
0.691596 0.858465 0.000000
0.712296 0.858465 0.000000
0.729746 0.858465 0.000000
0.744831 0.858465 0.000000
0.758115 0.858465 0.000000
0.769982 0.858465 0.000000
0.780707 0.858465 0.000000
0.790489 0.858465 0.000000
0.799482 0.858465 0.000000
0.807803 0.858465 0.000000
0.815545 0.858465 0.000000
0.822785 0.858465 0.000000
0.829582 0.858465 0.000000
0.835989 0.858465 0.000000
0.842047 0.858465 0.000000
0.847793 0.858465 0.000000
0.853257 0.858465 0.000000
0.858465 0.858465 0.000000
0.863441 0.858465 0.000000
0.868205 0.858465 0.000000
0.872773 0.858465 0.000000
0.877161 0.858465 0.000000
0.881383 0.858465 0.000000
0.885451 0.858465 0.000000
0.889375 0.858465 0.000000
0.893166 0.858465 0.000000
0.896832 0.858465 0.000000
0.000000 0.863441 0.000000
0.502649 0.863441 0.000000
0.585984 0.863441 0.000000
0.633127 0.863441 0.000000
0.666153 0.863441 0.000000
0.691596 0.863441 0.000000
0.712296 0.863441 0.000000
0.729746 0.863441 0.000000
0.744831 0.863441 0.000000
0.758115 0.863441 0.000000
0.769982 0.863441 0.000000
0.780707 0.863441 0.000000
0.790489 0.863441 0.000000
0.799482 0.863441 0.000000
0.807803 0.863441 0.000000
0.815545 0.863441 0.000000
0.822785 0.863441 0.000000
0.829582 0.863441 0.000000
0.835989 0.863441 0.000000
0.842047 0.863441 0.000000
0.847793 0.863441 0.000000
0.853257 0.863441 0.000000
0.858465 0.863441 0.000000
0.863441 0.863441 0.000000
0.868205 0.863441 0.000000
0.872773 0.863441 0.000000
0.877161 0.863441 0.000000
0.881383 0.863441 0.000000
0.885451 0.863441 0.000000
0.889375 0.863441 0.000000
0.893166 0.863441 0.000000
0.896832 0.863441 0.000000
0.000000 0.868205 0.000000
0.502649 0.868205 0.000000
0.585984 0.868205 0.000000
0.633127 0.868205 0.000000
0.666153 0.868205 0.000000
0.691596 0.868205 0.000000
0.712296 0.868205 0.000000
0.729746 0.868205 0.000000
0.744831 0.868205 0.000000
0.758115 0.868205 0.000000
0.769982 0.868205 0.000000
0.780707 0.868205 0.000000
0.790489 0.868205 0.000000
0.799482 0.868205 0.000000
0.807803 0.868205 0.000000
0.815545 0.868205 0.000000
0.822785 0.868205 0.000000
0.829582 0.868205 0.000000
0.835989 0.868205 0.000000
0.842047 0.868205 0.000000
0.847793 0.868205 0.000000
0.853257 0.868205 0.000000
0.858465 0.868205 0.000000
0.863441 0.868205 0.000000
0.868205 0.868205 0.000000
0.872773 0.868205 0.000000
0.877161 0.868205 0.000000
0.881383 0.868205 0.000000
0.885451 0.868205 0.000000
0.889375 0.868205 0.000000
0.893166 0.868205 0.000000
0.896832 0.868205 0.000000
0.000000 0.872773 0.000000
0.502649 0.872773 0.000000
0.585984 0.872773 0.000000
0.633127 0.872773 0.000000
0.666153 0.872773 0.000000
0.691596 0.872773 0.000000
0.712296 0.872773 0.000000
0.729746 0.872773 0.000000
0.744831 0.872773 0.000000
0.758115 0.872773 0.000000
0.769982 0.872773 0.000000
0.780707 0.872773 0.000000
0.790489 0.872773 0.000000
0.799482 0.872773 0.000000
0.807803 0.872773 0.000000
0.815545 0.872773 0.000000
0.822785 0.872773 0.000000
0.829582 0.872773 0.000000
0.835989 0.872773 0.000000
0.842047 0.872773 0.000000
0.847793 0.872773 0.000000
0.853257 0.872773 0.000000
0.858465 0.872773 0.000000
0.863441 0.872773 0.000000
0.868205 0.872773 0.000000
0.872773 0.872773 0.000000
0.877161 0.872773 0.000000
0.881383 0.872773 0.000000
0.885451 0.872773 0.000000
0.889375 0.872773 0.000000
0.893166 0.872773 0.000000
0.896832 0.872773 0.000000
0.000000 0.877161 0.000000
0.502649 0.877161 0.000000
0.585984 0.877161 0.000000
0.633127 0.877161 0.000000
0.666153 0.877161 0.000000
0.691596 0.877161 0.000000
0.712296 0.877161 0.000000
0.729746 0.877161 0.000000
0.744831 0.877161 0.000000
0.758115 0.877161 0.000000
0.769982 0.877161 0.000000
0.780707 0.877161 0.000000
0.790489 0.877161 0.000000
0.799482 0.877161 0.000000
0.807803 0.877161 0.000000
0.815545 0.877161 0.000000
0.822785 0.877161 0.000000
0.829582 0.877161 0.000000
0.835989 0.877161 0.000000
0.842047 0.877161 0.000000
0.847793 0.877161 0.000000
0.853257 0.877161 0.000000
0.858465 0.877161 0.000000
0.863441 0.877161 0.000000
0.868205 0.877161 0.000000
0.872773 0.877161 0.000000
0.877161 0.877161 0.000000
0.881383 0.877161 0.000000
0.885451 0.877161 0.000000
0.889375 0.877161 0.000000
0.893166 0.877161 0.000000
0.896832 0.877161 0.000000
0.000000 0.881383 0.000000
0.502649 0.881383 0.000000
0.585984 0.881383 0.000000
0.633127 0.881383 0.000000
0.666153 0.881383 0.000000
0.691596 0.881383 0.000000
0.712296 0.881383 0.000000
0.729746 0.881383 0.000000
0.744831 0.881383 0.000000
0.758115 0.881383 0.000000
0.769982 0.881383 0.000000
0.780707 0.881383 0.000000
0.790489 0.881383 0.000000
0.799482 0.881383 0.000000
0.807803 0.881383 0.000000
0.815545 0.881383 0.000000
0.822785 0.881383 0.000000
0.829582 0.881383 0.000000
0.835989 0.881383 0.000000
0.842047 0.881383 0.000000
0.847793 0.881383 0.000000
