.nuke/nuke.LUT/linear-2-logC_exteded/AlexaV3_EI2560_Linear2LogC_EE_nuke3d.cube
# Alexa conversion LUT, lin2logc. Full in/full out.
# created by alexalutconv (2.07)
LUT_3D_SIZE 8
DOMAIN_MIN 0.000000 0.000000 0.000000
DOMAIN_MAX 0.903226 0.903226 0.903226
0.000000 0.000000 0.000000
0.828057 0.000000 0.000000
0.892689 0.000000 0.000000
0.927144 0.000000 0.000000
0.950300 0.000000 0.000000
0.967590 0.000000 0.000000
0.981312 0.000000 0.000000
0.992646 0.000000 0.000000
0.000000 0.828057 0.000000
0.828057 0.828057 0.000000
0.892689 0.828057 0.000000
0.927144 0.828057 0.000000
0.950300 0.828057 0.000000
0.967590 0.828057 0.000000
0.981312 0.828057 0.000000
0.992646 0.828057 0.000000
0.000000 0.892689 0.000000
0.828057 0.892689 0.000000
0.892689 0.892689 0.000000
0.927144 0.892689 0.000000
0.950300 0.892689 0.000000
0.967590 0.892689 0.000000
0.981312 0.892689 0.000000
0.992646 0.892689 0.000000
0.000000 0.927144 0.000000
0.828057 0.927144 0.000000
0.892689 0.927144 0.000000
0.927144 0.927144 0.000000
0.950300 0.927144 0.000000
0.967590 0.927144 0.000000
0.981312 0.927144 0.000000
0.992646 0.927144 0.000000
0.000000 0.950300 0.000000
0.828057 0.950300 0.000000
0.892689 0.950300 0.000000
0.927144 0.950300 0.000000
0.950300 0.950300 0.000000
0.967590 0.950300 0.000000
0.981312 0.950300 0.000000
0.992646 0.950300 0.000000
0.000000 0.967590 0.000000
0.828057 0.967590 0.000000
0.892689 0.967590 0.000000
0.927144 0.967590 0.000000
0.950300 0.967590 0.000000
0.967590 0.967590 0.000000
0.981312 0.967590 0.000000
0.992646 0.967590 0.000000
0.000000 0.981312 0.000000
0.828057 0.981312 0.000000
0.892689 0.981312 0.000000
0.927144 0.981312 0.000000
0.950300 0.981312 0.000000
0.967590 0.981312 0.000000
0.981312 0.981312 0.000000
0.992646 0.981312 0.000000
0.000000 0.992646 0.000000
0.828057 0.992646 0.000000
0.892689 0.992646 0.000000
0.927144 0.992646 0.000000
0.950300 0.992646 0.000000
0.967590 0.992646 0.000000
0.981312 0.992646 0.000000
0.992646 0.992646 0.000000
0.000000 0.000000 0.828057
0.828057 0.000000 0.828057
0.892689 0.000000 0.828057
0.927144 0.000000 0.828057
0.950300 0.000000 0.828057
0.967590 0.000000 0.828057
0.981312 0.000000 0.828057
0.992646 0.000000 0.828057
0.000000 0.828057 0.828057
0.828057 0.828057 0.828057
0.892689 0.828057 0.828057
0.927144 0.828057 0.828057
0.950300 0.828057 0.828057
0.967590 0.828057 0.828057
0.981312 0.828057 0.828057
0.992646 0.828057 0.828057
0.000000 0.892689 0.828057
0.828057 0.892689 0.828057
0.892689 0.892689 0.828057
0.927144 0.892689 0.828057
0.950300 0.892689 0.828057
0.967590 0.892689 0.828057
0.981312 0.892689 0.828057
0.992646 0.892689 0.828057
0.000000 0.927144 0.828057
0.828057 0.927144 0.828057
0.892689 0.927144 0.828057
0.927144 0.927144 0.828057
0.950300 0.927144 0.828057
0.967590 0.927144 0.828057
0.981312 0.927144 0.828057
0.992646 0.927144 0.828057
0.000000 0.950300 0.828057
0.828057 0.950300 0.828057
0.892689 0.950300 0.828057
0.927144 0.950300 0.828057
0.950300 0.950300 0.828057
0.967590 0.950300 0.828057
0.981312 0.950300 0.828057
0.992646 0.950300 0.828057
0.000000 0.967590 0.828057
0.828057 0.967590 0.828057
0.892689 0.967590 0.828057
0.927144 0.967590 0.828057
0.950300 0.967590 0.828057
0.967590 0.967590 0.828057
0.981312 0.967590 0.828057
0.992646 0.967590 0.828057
0.000000 0.981312 0.828057
0.828057 0.981312 0.828057
0.892689 0.981312 0.828057
0.927144 0.981312 0.828057
0.950300 0.981312 0.828057
0.967590 0.981312 0.828057
0.981312 0.981312 0.828057
0.992646 0.981312 0.828057
0.000000 0.992646 0.828057
0.828057 0.992646 0.828057
0.892689 0.992646 0.828057
0.927144 0.992646 0.828057
0.950300 0.992646 0.828057
0.967590 0.992646 0.828057
0.981312 0.992646 0.828057
0.992646 0.992646 0.828057
0.000000 0.000000 0.892689
0.828057 0.000000 0.892689
0.892689 0.000000 0.892689
0.927144 0.000000 0.892689
0.950300 0.000000 0.892689
0.967590 0.000000 0.892689
0.981312 0.000000 0.892689
0.992646 0.000000 0.892689
0.000000 0.828057 0.892689
0.828057 0.828057 0.892689
0.892689 0.828057 0.892689
0.927144 0.828057 0.892689
0.950300 0.828057 0.892689
0.967590 0.828057 0.892689
0.981312 0.828057 0.892689
0.992646 0.828057 0.892689
0.000000 0.892689 0.892689
0.828057 0.892689 0.892689
0.892689 0.892689 0.892689
0.927144 0.892689 0.892689
0.950300 0.892689 0.892689
0.967590 0.892689 0.892689
0.981312 0.892689 0.892689
0.992646 0.892689 0.892689
0.000000 0.927144 0.892689
0.828057 0.927144 0.892689
0.892689 0.927144 0.892689
0.927144 0.927144 0.892689
0.950300 0.927144 0.892689
0.967590 0.927144 0.892689
0.981312 0.927144 0.892689
0.992646 0.927144 0.892689
0.000000 0.950300 0.892689
0.828057 0.950300 0.892689
0.892689 0.950300 0.892689
0.927144 0.950300 0.892689
0.950300 0.950300 0.892689
0.967590 0.950300 0.892689
0.981312 0.950300 0.892689
0.992646 0.950300 0.892689
0.000000 0.967590 0.892689
0.828057 0.967590 0.892689
0.892689 0.967590 0.892689
0.927144 0.967590 0.892689
0.950300 0.967590 0.892689
0.967590 0.967590 0.892689
0.981312 0.967590 0.892689
0.992646 0.967590 0.892689
0.000000 0.981312 0.892689
0.828057 0.981312 0.892689
0.892689 0.981312 0.892689
0.927144 0.981312 0.892689
0.950300 0.981312 0.892689
0.967590 0.981312 0.892689
0.981312 0.981312 0.892689
0.992646 0.981312 0.892689
0.000000 0.992646 0.892689
0.828057 0.992646 0.892689
0.892689 0.992646 0.892689
0.927144 0.992646 0.892689
0.950300 0.992646 0.892689
0.967590 0.992646 0.892689
0.981312 0.992646 0.892689
0.992646 0.992646 0.892689
0.000000 0.000000 0.927144
0.828057 0.000000 0.927144
0.892689 0.000000 0.927144
0.927144 0.000000 0.927144
0.950300 0.000000 0.927144
0.967590 0.000000 0.927144
0.981312 0.000000 0.927144
0.992646 0.000000 0.927144
0.000000 0.828057 0.927144
0.828057 0.828057 0.927144
0.892689 0.828057 0.927144
0.927144 0.828057 0.927144
0.950300 0.828057 0.927144
0.967590 0.828057 0.927144
0.981312 0.828057 0.927144
0.992646 0.828057 0.927144
0.000000 0.892689 0.927144
0.828057 0.892689 0.927144
0.892689 0.892689 0.927144
0.927144 0.892689 0.927144
0.950300 0.892689 0.927144
0.967590 0.892689 0.927144
0.981312 0.892689 0.927144
0.992646 0.892689 0.927144
0.000000 0.927144 0.927144
0.828057 0.927144 0.927144
0.892689 0.927144 0.927144
0.927144 0.927144 0.927144
0.950300 0.927144 0.927144
0.967590 0.927144 0.927144
0.981312 0.927144 0.927144
0.992646 0.927144 0.927144
0.000000 0.950300 0.927144
0.828057 0.950300 0.927144
0.892689 0.950300 0.927144
0.927144 0.950300 0.927144
0.950300 0.950300 0.927144
0.967590 0.950300 0.927144
0.981312 0.950300 0.927144
0.992646 0.950300 0.927144
0.000000 0.967590 0.927144
0.828057 0.967590 0.927144
0.892689 0.967590 0.927144
0.927144 0.967590 0.927144
0.950300 0.967590 0.927144
0.967590 0.967590 0.927144
0.981312 0.967590 0.927144
0.992646 0.967590 0.927144
0.000000 0.981312 0.927144
0.828057 0.981312 0.927144
0.892689 0.981312 0.927144
0.927144 0.981312 0.927144
0.950300 0.981312 0.927144
0.967590 0.981312 0.927144
0.981312 0.981312 0.927144
0.992646 0.981312 0.927144
0.000000 0.992646 0.927144
0.828057 0.992646 0.927144
0.892689 0.992646 0.927144
0.927144 0.992646 0.927144
0.950300 0.992646 0.927144
0.967590 0.992646 0.927144
0.981312 0.992646 0.927144
0.992646 0.992646 0.927144
0.000000 0.000000 0.950300
0.828057 0.000000 0.950300
0.892689 0.000000 0.950300
0.927144 0.000000 0.950300
0.950300 0.000000 0.950300
0.967590 0.000000 0.950300
0.981312 0.000000 0.950300
0.992646 0.000000 0.950300
0.000000 0.828057 0.950300
0.828057 0.828057 0.950300
0.892689 0.828057 0.950300
0.927144 0.828057 0.950300
0.950300 0.828057 0.950300
0.967590 0.828057 0.950300
0.981312 0.828057 0.950300
0.992646 0.828057 0.950300
0.000000 0.892689 0.950300
0.828057 0.892689 0.950300
0.892689 0.892689 0.950300
0.927144 0.892689 0.950300
0.950300 0.892689 0.950300
0.967590 0.892689 0.950300
0.981312 0.892689 0.950300
0.992646 0.892689 0.950300
0.000000 0.927144 0.950300
0.828057 0.927144 0.950300
0.892689 0.927144 0.950300
0.927144 0.927144 0.950300
0.950300 0.927144 0.950300
0.967590 0.927144 0.950300
0.981312 0.927144 0.950300
0.992646 0.927144 0.950300
0.000000 0.950300 0.950300
0.828057 0.950300 0.950300
0.892689 0.950300 0.950300
0.927144 0.950300 0.950300
0.950300 0.950300 0.950300
0.967590 0.950300 0.950300
0.981312 0.950300 0.950300
0.992646 0.950300 0.950300
0.000000 0.967590 0.950300
0.828057 0.967590 0.950300
0.892689 0.967590 0.950300
0.927144 0.967590 0.950300
0.950300 0.967590 0.950300
0.967590 0.967590 0.950300
0.981312 0.967590 0.950300
0.992646 0.967590 0.950300
0.000000 0.981312 0.950300
0.828057 0.981312 0.950300
0.892689 0.981312 0.950300
0.927144 0.981312 0.950300
0.950300 0.981312 0.950300
0.967590 0.981312 0.950300
0.981312 0.981312 0.950300
0.992646 0.981312 0.950300
0.000000 0.992646 0.950300
0.828057 0.992646 0.950300
0.892689 0.992646 0.950300
0.927144 0.992646 0.950300
0.950300 0.992646 0.950300
0.967590 0.992646 0.950300
0.981312 0.992646 0.950300
0.992646 0.992646 0.950300
0.000000 0.000000 0.967590
0.828057 0.000000 0.967590
0.892689 0.000000 0.967590
0.927144 0.000000 0.967590
0.950300 0.000000 0.967590
0.967590 0.000000 0.967590
0.981312 0.000000 0.967590
0.992646 0.000000 0.967590
0.000000 0.828057 0.967590
0.828057 0.828057 0.967590
0.892689 0.828057 0.967590
0.927144 0.828057 0.967590
0.950300 0.828057 0.967590
0.967590 0.828057 0.967590
0.981312 0.828057 0.967590
0.992646 0.828057 0.967590
0.000000 0.892689 0.967590
0.828057 0.892689 0.967590
0.892689 0.892689 0.967590
0.927144 0.892689 0.967590
0.950300 0.892689 0.967590
0.967590 0.892689 0.967590
0.981312 0.892689 0.967590
0.992646 0.892689 0.967590
0.000000 0.927144 0.967590
0.828057 0.927144 0.967590
0.892689 0.927144 0.967590
0.927144 0.927144 0.967590
0.950300 0.927144 0.967590
0.967590 0.927144 0.967590
0.981312 0.927144 0.967590
0.992646 0.927144 0.967590
0.000000 0.950300 0.967590
0.828057 0.950300 0.967590
0.892689 0.950300 0.967590
0.927144 0.950300 0.967590
0.950300 0.950300 0.967590
0.967590 0.950300 0.967590
0.981312 0.950300 0.967590
0.992646 0.950300 0.967590
0.000000 0.967590 0.967590
0.828057 0.967590 0.967590
0.892689 0.967590 0.967590
0.927144 0.967590 0.967590
0.950300 0.967590 0.967590
0.967590 0.967590 0.967590
0.981312 0.967590 0.967590
0.992646 0.967590 0.967590
0.000000 0.981312 0.967590
0.828057 0.981312 0.967590
0.892689 0.981312 0.967590
0.927144 0.981312 0.967590
0.950300 0.981312 0.967590
0.967590 0.981312 0.967590
0.981312 0.981312 0.967590
0.992646 0.981312 0.967590
0.000000 0.992646 0.967590
0.828057 0.992646 0.967590
0.892689 0.992646 0.967590
0.927144 0.992646 0.967590
0.950300 0.992646 0.967590
0.967590 0.992646 0.967590
0.981312 0.992646 0.967590
0.992646 0.992646 0.967590
0.000000 0.000000 0.981312
0.828057 0.000000 0.981312
0.892689 0.000000 0.981312
0.927144 0.000000 0.981312
0.950300 0.000000 0.981312
0.967590 0.000000 0.981312
0.981312 0.000000 0.981312
0.992646 0.000000 0.981312
0.000000 0.828057 0.981312
0.828057 0.828057 0.981312
0.892689 0.828057 0.981312
0.927144 0.828057 0.981312
0.950300 0.828057 0.981312
0.967590 0.828057 0.981312
0.981312 0.828057 0.981312
0.992646 0.828057 0.981312
0.000000 0.892689 0.981312
0.828057 0.892689 0.981312
0.892689 0.892689 0.981312
0.927144 0.892689 0.981312
0.950300 0.892689 0.981312
0.967590 0.892689 0.981312
0.981312 0.892689 0.981312
0.992646 0.892689 0.981312
0.000000 0.927144 0.981312
0.828057 0.927144 0.981312
0.892689 0.927144 0.981312
0.927144 0.927144 0.981312
0.950300 0.927144 0.981312
0.967590 0.927144 0.981312
0.981312 0.927144 0.981312
0.992646 0.927144 0.981312
0.000000 0.950300 0.981312
0.828057 0.950300 0.981312
0.892689 0.950300 0.981312
0.927144 0.950300 0.981312
0.950300 0.950300 0.981312
0.967590 0.950300 0.981312
0.981312 0.950300 0.981312
0.992646 0.950300 0.981312
0.000000 0.967590 0.981312
0.828057 0.967590 0.981312
0.892689 0.967590 0.981312
0.927144 0.967590 0.981312
0.950300 0.967590 0.981312
0.967590 0.967590 0.981312
0.981312 0.967590 0.981312
0.992646 0.967590 0.981312
0.000000 0.981312 0.981312
0.828057 0.981312 0.981312
0.892689 0.981312 0.981312
0.927144 0.981312 0.981312
0.950300 0.981312 0.981312
0.967590 0.981312 0.981312
0.981312 0.981312 0.981312
0.992646 0.981312 0.981312
0.000000 0.992646 0.981312
0.828057 0.992646 0.981312
0.892689 0.992646 0.981312
0.927144 0.992646 0.981312
0.950300 0.992646 0.981312
0.967590 0.992646 0.981312
0.981312 0.992646 0.981312
0.992646 0.992646 0.981312
0.000000 0.000000 0.992646
0.828057 0.000000 0.992646
0.892689 0.000000 0.992646
0.927144 0.000000 0.992646
0.950300 0.000000 0.992646
0.967590 0.000000 0.992646
0.981312 0.000000 0.992646
0.992646 0.000000 0.992646
0.000000 0.828057 0.992646
0.828057 0.828057 0.992646
0.892689 0.828057 0.992646
0.927144 0.828057 0.992646
0.950300 0.828057 0.992646
0.967590 0.828057 0.992646
0.981312 0.828057 0.992646
0.992646 0.828057 0.992646
0.000000 0.892689 0.992646
0.828057 0.892689 0.992646
0.892689 0.892689 0.992646
0.927144 0.892689 0.992646
0.950300 0.892689 0.992646
0.967590 0.892689 0.992646
0.981312 0.892689 0.992646
0.992646 0.892689 0.992646
0.000000 0.927144 0.992646
0.828057 0.927144 0.992646
0.892689 0.927144 0.992646
0.927144 0.927144 0.992646
0.950300 0.927144 0.992646
0.967590 0.927144 0.992646
0.981312 0.927144 0.992646
0.992646 0.927144 0.992646
0.000000 0.950300 0.992646
0.828057 0.950300 0.992646
0.892689 0.950300 0.992646
0.927144 0.950300 0.992646
0.950300 0.950300 0.992646
0.967590 0.950300 0.992646
0.981312 0.950300 0.992646
0.992646 0.950300 0.992646
0.000000 0.967590 0.992646
0.828057 0.967590 0.992646
0.892689 0.967590 0.992646
0.927144 0.967590 0.992646
0.950300 0.967590 0.992646
0.967590 0.967590 0.992646
0.981312 0.967590 0.992646
0.992646 0.967590 0.992646
0.000000 0.981312 0.992646
0.828057 0.981312 0.992646
0.892689 0.981312 0.992646
0.927144 0.981312 0.992646
0.950300 0.981312 0.992646
0.967590 0.981312 0.992646
0.981312 0.981312 0.992646
0.992646 0.981312 0.992646
0.000000 0.992646 0.992646
0.828057 0.992646 0.992646
0.892689 0.992646 0.992646
0.927144 0.992646 0.992646
0.950300 0.992646 0.992646
0.967590 0.992646 0.992646
0.981312 0.992646 0.992646
0.992646 0.992646 0.992646
