.nuke/nuke.LUT/linear-2-logC_exteded/AlexaV3_EI0640_Linear2LogC_EE_nuke3d.cube
# Alexa conversion LUT, lin2logc. Full in/full out.
# created by alexalutconv (2.07)
LUT_3D_SIZE 5
DOMAIN_MIN 0.000000 0.000000 0.000000
DOMAIN_MAX 0.903226 0.903226 0.903226
0.000000 0.000000 0.000000
0.773121 0.000000 0.000000
0.849309 0.000000 0.000000
0.893657 0.000000 0.000000
0.925063 0.000000 0.000000
0.000000 0.773121 0.000000
0.773121 0.773121 0.000000
0.849309 0.773121 0.000000
0.893657 0.773121 0.000000
0.925063 0.773121 0.000000
0.000000 0.849309 0.000000
0.773121 0.849309 0.000000
0.849309 0.849309 0.000000
0.893657 0.849309 0.000000
0.925063 0.849309 0.000000
0.000000 0.893657 0.000000
0.773121 0.893657 0.000000
0.849309 0.893657 0.000000
0.893657 0.893657 0.000000
0.925063 0.893657 0.000000
0.000000 0.925063 0.000000
0.773121 0.925063 0.000000
0.849309 0.925063 0.000000
0.893657 0.925063 0.000000
0.925063 0.925063 0.000000
0.000000 0.000000 0.773121
0.773121 0.000000 0.773121
0.849309 0.000000 0.773121
0.893657 0.000000 0.773121
0.925063 0.000000 0.773121
0.000000 0.773121 0.773121
0.773121 0.773121 0.773121
0.849309 0.773121 0.773121
0.893657 0.773121 0.773121
0.925063 0.773121 0.773121
0.000000 0.849309 0.773121
0.773121 0.849309 0.773121
0.849309 0.849309 0.773121
0.893657 0.849309 0.773121
0.925063 0.849309 0.773121
0.000000 0.893657 0.773121
0.773121 0.893657 0.773121
0.849309 0.893657 0.773121
0.893657 0.893657 0.773121
0.925063 0.893657 0.773121
0.000000 0.925063 0.773121
0.773121 0.925063 0.773121
0.849309 0.925063 0.773121
0.893657 0.925063 0.773121
0.925063 0.925063 0.773121
0.000000 0.000000 0.849309
0.773121 0.000000 0.849309
0.849309 0.000000 0.849309
0.893657 0.000000 0.849309
0.925063 0.000000 0.849309
0.000000 0.773121 0.849309
0.773121 0.773121 0.849309
0.849309 0.773121 0.849309
0.893657 0.773121 0.849309
0.925063 0.773121 0.849309
0.000000 0.849309 0.849309
0.773121 0.849309 0.849309
0.849309 0.849309 0.849309
0.893657 0.849309 0.849309
0.925063 0.849309 0.849309
0.000000 0.893657 0.849309
0.773121 0.893657 0.849309
0.849309 0.893657 0.849309
0.893657 0.893657 0.849309
0.925063 0.893657 0.849309
0.000000 0.925063 0.849309
0.773121 0.925063 0.849309
0.849309 0.925063 0.849309
0.893657 0.925063 0.849309
0.925063 0.925063 0.849309
0.000000 0.000000 0.893657
0.773121 0.000000 0.893657
0.849309 0.000000 0.893657
0.893657 0.000000 0.893657
0.925063 0.000000 0.893657
0.000000 0.773121 0.893657
0.773121 0.773121 0.893657
0.849309 0.773121 0.893657
0.893657 0.773121 0.893657
0.925063 0.773121 0.893657
0.000000 0.849309 0.893657
0.773121 0.849309 0.893657
0.849309 0.849309 0.893657
0.893657 0.849309 0.893657
0.925063 0.849309 0.893657
0.000000 0.893657 0.893657
0.773121 0.893657 0.893657
0.849309 0.893657 0.893657
0.893657 0.893657 0.893657
0.925063 0.893657 0.893657
0.000000 0.925063 0.893657
0.773121 0.925063 0.893657
0.849309 0.925063 0.893657
0.893657 0.925063 0.893657
0.925063 0.925063 0.893657
0.000000 0.000000 0.925063
0.773121 0.000000 0.925063
0.849309 0.000000 0.925063
0.893657 0.000000 0.925063
0.925063 0.000000 0.925063
0.000000 0.773121 0.925063
0.773121 0.773121 0.925063
0.849309 0.773121 0.925063
0.893657 0.773121 0.925063
0.925063 0.773121 0.925063
0.000000 0.849309 0.925063
0.773121 0.849309 0.925063
0.849309 0.849309 0.925063
0.893657 0.849309 0.925063
0.925063 0.849309 0.925063
0.000000 0.893657 0.925063
0.773121 0.893657 0.925063
0.849309 0.893657 0.925063
0.893657 0.893657 0.925063
0.925063 0.893657 0.925063
0.000000 0.925063 0.925063
0.773121 0.925063 0.925063
0.849309 0.925063 0.925063
0.893657 0.925063 0.925063
0.925063 0.925063 0.925063
