.nuke/nuke.LUT/linear-2-logC_exteded/AlexaV3_EI0160_Linear2LogC_EE_nuke3d.cube
# Alexa conversion LUT, lin2logc. Full in/full out.
# created by alexalutconv (2.07)
LUT_3D_SIZE 32
0.000000 0.000000 0.000000
0.404673 0.000000 0.000000
0.489265 0.000000 0.000000
0.537817 0.000000 0.000000
0.572014 0.000000 0.000000
0.598435 0.000000 0.000000
0.619970 0.000000 0.000000
0.638147 0.000000 0.000000
0.653872 0.000000 0.000000
0.667731 0.000000 0.000000
0.680118 0.000000 0.000000
0.691317 0.000000 0.000000
0.701536 0.000000 0.000000
0.710933 0.000000 0.000000
0.719630 0.000000 0.000000
0.727723 0.000000 0.000000
0.735293 0.000000 0.000000
0.742402 0.000000 0.000000
0.749103 0.000000 0.000000
0.755440 0.000000 0.000000
0.761452 0.000000 0.000000
0.767169 0.000000 0.000000
0.772619 0.000000 0.000000
0.777826 0.000000 0.000000
0.782812 0.000000 0.000000
0.787593 0.000000 0.000000
0.792187 0.000000 0.000000
0.796606 0.000000 0.000000
0.800864 0.000000 0.000000
0.804973 0.000000 0.000000
0.808942 0.000000 0.000000
0.812780 0.000000 0.000000
0.000000 0.404673 0.000000
0.404673 0.404673 0.000000
0.489265 0.404673 0.000000
0.537817 0.404673 0.000000
0.572014 0.404673 0.000000
0.598435 0.404673 0.000000
0.619970 0.404673 0.000000
0.638147 0.404673 0.000000
0.653872 0.404673 0.000000
0.667731 0.404673 0.000000
0.680118 0.404673 0.000000
0.691317 0.404673 0.000000
0.701536 0.404673 0.000000
0.710933 0.404673 0.000000
0.719630 0.404673 0.000000
0.727723 0.404673 0.000000
0.735293 0.404673 0.000000
0.742402 0.404673 0.000000
0.749103 0.404673 0.000000
0.755440 0.404673 0.000000
0.761452 0.404673 0.000000
0.767169 0.404673 0.000000
0.772619 0.404673 0.000000
0.777826 0.404673 0.000000
0.782812 0.404673 0.000000
0.787593 0.404673 0.000000
0.792187 0.404673 0.000000
0.796606 0.404673 0.000000
0.800864 0.404673 0.000000
0.804973 0.404673 0.000000
0.808942 0.404673 0.000000
0.812780 0.404673 0.000000
0.000000 0.489265 0.000000
0.404673 0.489265 0.000000
0.489265 0.489265 0.000000
0.537817 0.489265 0.000000
0.572014 0.489265 0.000000
0.598435 0.489265 0.000000
0.619970 0.489265 0.000000
0.638147 0.489265 0.000000
0.653872 0.489265 0.000000
0.667731 0.489265 0.000000
0.680118 0.489265 0.000000
0.691317 0.489265 0.000000
0.701536 0.489265 0.000000
0.710933 0.489265 0.000000
0.719630 0.489265 0.000000
0.727723 0.489265 0.000000
0.735293 0.489265 0.000000
0.742402 0.489265 0.000000
0.749103 0.489265 0.000000
0.755440 0.489265 0.000000
0.761452 0.489265 0.000000
0.767169 0.489265 0.000000
0.772619 0.489265 0.000000
0.777826 0.489265 0.000000
0.782812 0.489265 0.000000
0.787593 0.489265 0.000000
0.792187 0.489265 0.000000
0.796606 0.489265 0.000000
0.800864 0.489265 0.000000
0.804973 0.489265 0.000000
0.808942 0.489265 0.000000
0.812780 0.489265 0.000000
0.000000 0.537817 0.000000
0.404673 0.537817 0.000000
0.489265 0.537817 0.000000
0.537817 0.537817 0.000000
0.572014 0.537817 0.000000
0.598435 0.537817 0.000000
0.619970 0.537817 0.000000
0.638147 0.537817 0.000000
0.653872 0.537817 0.000000
0.667731 0.537817 0.000000
0.680118 0.537817 0.000000
0.691317 0.537817 0.000000
0.701536 0.537817 0.000000
0.710933 0.537817 0.000000
0.719630 0.537817 0.000000
0.727723 0.537817 0.000000
0.735293 0.537817 0.000000
0.742402 0.537817 0.000000
0.749103 0.537817 0.000000
0.755440 0.537817 0.000000
0.761452 0.537817 0.000000
0.767169 0.537817 0.000000
0.772619 0.537817 0.000000
0.777826 0.537817 0.000000
0.782812 0.537817 0.000000
0.787593 0.537817 0.000000
0.792187 0.537817 0.000000
0.796606 0.537817 0.000000
0.800864 0.537817 0.000000
0.804973 0.537817 0.000000
0.808942 0.537817 0.000000
0.812780 0.537817 0.000000
0.000000 0.572014 0.000000
0.404673 0.572014 0.000000
0.489265 0.572014 0.000000
0.537817 0.572014 0.000000
0.572014 0.572014 0.000000
0.598435 0.572014 0.000000
0.619970 0.572014 0.000000
0.638147 0.572014 0.000000
0.653872 0.572014 0.000000
0.667731 0.572014 0.000000
0.680118 0.572014 0.000000
0.691317 0.572014 0.000000
0.701536 0.572014 0.000000
0.710933 0.572014 0.000000
0.719630 0.572014 0.000000
0.727723 0.572014 0.000000
0.735293 0.572014 0.000000
0.742402 0.572014 0.000000
0.749103 0.572014 0.000000
0.755440 0.572014 0.000000
0.761452 0.572014 0.000000
0.767169 0.572014 0.000000
0.772619 0.572014 0.000000
0.777826 0.572014 0.000000
0.782812 0.572014 0.000000
0.787593 0.572014 0.000000
0.792187 0.572014 0.000000
0.796606 0.572014 0.000000
0.800864 0.572014 0.000000
0.804973 0.572014 0.000000
0.808942 0.572014 0.000000
0.812780 0.572014 0.000000
0.000000 0.598435 0.000000
0.404673 0.598435 0.000000
0.489265 0.598435 0.000000
0.537817 0.598435 0.000000
0.572014 0.598435 0.000000
0.598435 0.598435 0.000000
0.619970 0.598435 0.000000
0.638147 0.598435 0.000000
0.653872 0.598435 0.000000
0.667731 0.598435 0.000000
0.680118 0.598435 0.000000
0.691317 0.598435 0.000000
0.701536 0.598435 0.000000
0.710933 0.598435 0.000000
0.719630 0.598435 0.000000
0.727723 0.598435 0.000000
0.735293 0.598435 0.000000
0.742402 0.598435 0.000000
0.749103 0.598435 0.000000
0.755440 0.598435 0.000000
0.761452 0.598435 0.000000
0.767169 0.598435 0.000000
0.772619 0.598435 0.000000
0.777826 0.598435 0.000000
0.782812 0.598435 0.000000
0.787593 0.598435 0.000000
0.792187 0.598435 0.000000
0.796606 0.598435 0.000000
0.800864 0.598435 0.000000
0.804973 0.598435 0.000000
0.808942 0.598435 0.000000
0.812780 0.598435 0.000000
0.000000 0.619970 0.000000
0.404673 0.619970 0.000000
0.489265 0.619970 0.000000
0.537817 0.619970 0.000000
0.572014 0.619970 0.000000
0.598435 0.619970 0.000000
0.619970 0.619970 0.000000
0.638147 0.619970 0.000000
0.653872 0.619970 0.000000
0.667731 0.619970 0.000000
0.680118 0.619970 0.000000
0.691317 0.619970 0.000000
0.701536 0.619970 0.000000
0.710933 0.619970 0.000000
0.719630 0.619970 0.000000
0.727723 0.619970 0.000000
0.735293 0.619970 0.000000
0.742402 0.619970 0.000000
0.749103 0.619970 0.000000
0.755440 0.619970 0.000000
0.761452 0.619970 0.000000
0.767169 0.619970 0.000000
0.772619 0.619970 0.000000
0.777826 0.619970 0.000000
0.782812 0.619970 0.000000
0.787593 0.619970 0.000000
0.792187 0.619970 0.000000
0.796606 0.619970 0.000000
0.800864 0.619970 0.000000
0.804973 0.619970 0.000000
0.808942 0.619970 0.000000
0.812780 0.619970 0.000000
0.000000 0.638147 0.000000
0.404673 0.638147 0.000000
0.489265 0.638147 0.000000
0.537817 0.638147 0.000000
0.572014 0.638147 0.000000
0.598435 0.638147 0.000000
0.619970 0.638147 0.000000
0.638147 0.638147 0.000000
0.653872 0.638147 0.000000
0.667731 0.638147 0.000000
0.680118 0.638147 0.000000
0.691317 0.638147 0.000000
0.701536 0.638147 0.000000
0.710933 0.638147 0.000000
0.719630 0.638147 0.000000
0.727723 0.638147 0.000000
0.735293 0.638147 0.000000
0.742402 0.638147 0.000000
0.749103 0.638147 0.000000
0.755440 0.638147 0.000000
0.761452 0.638147 0.000000
0.767169 0.638147 0.000000
0.772619 0.638147 0.000000
0.777826 0.638147 0.000000
0.782812 0.638147 0.000000
0.787593 0.638147 0.000000
0.792187 0.638147 0.000000
0.796606 0.638147 0.000000
0.800864 0.638147 0.000000
0.804973 0.638147 0.000000
0.808942 0.638147 0.000000
0.812780 0.638147 0.000000
0.000000 0.653872 0.000000
0.404673 0.653872 0.000000
0.489265 0.653872 0.000000
0.537817 0.653872 0.000000
0.572014 0.653872 0.000000
0.598435 0.653872 0.000000
0.619970 0.653872 0.000000
0.638147 0.653872 0.000000
0.653872 0.653872 0.000000
0.667731 0.653872 0.000000
0.680118 0.653872 0.000000
0.691317 0.653872 0.000000
0.701536 0.653872 0.000000
0.710933 0.653872 0.000000
0.719630 0.653872 0.000000
0.727723 0.653872 0.000000
0.735293 0.653872 0.000000
0.742402 0.653872 0.000000
0.749103 0.653872 0.000000
0.755440 0.653872 0.000000
0.761452 0.653872 0.000000
0.767169 0.653872 0.000000
0.772619 0.653872 0.000000
0.777826 0.653872 0.000000
0.782812 0.653872 0.000000
0.787593 0.653872 0.000000
0.792187 0.653872 0.000000
0.796606 0.653872 0.000000
0.800864 0.653872 0.000000
0.804973 0.653872 0.000000
0.808942 0.653872 0.000000
0.812780 0.653872 0.000000
0.000000 0.667731 0.000000
0.404673 0.667731 0.000000
0.489265 0.667731 0.000000
0.537817 0.667731 0.000000
0.572014 0.667731 0.000000
0.598435 0.667731 0.000000
0.619970 0.667731 0.000000
0.638147 0.667731 0.000000
0.653872 0.667731 0.000000
0.667731 0.667731 0.000000
0.680118 0.667731 0.000000
0.691317 0.667731 0.000000
0.701536 0.667731 0.000000
0.710933 0.667731 0.000000
0.719630 0.667731 0.000000
0.727723 0.667731 0.000000
0.735293 0.667731 0.000000
0.742402 0.667731 0.000000
0.749103 0.667731 0.000000
0.755440 0.667731 0.000000
0.761452 0.667731 0.000000
0.767169 0.667731 0.000000
0.772619 0.667731 0.000000
0.777826 0.667731 0.000000
0.782812 0.667731 0.000000
0.787593 0.667731 0.000000
0.792187 0.667731 0.000000
0.796606 0.667731 0.000000
0.800864 0.667731 0.000000
0.804973 0.667731 0.000000
0.808942 0.667731 0.000000
0.812780 0.667731 0.000000
0.000000 0.680118 0.000000
0.404673 0.680118 0.000000
0.489265 0.680118 0.000000
0.537817 0.680118 0.000000
0.572014 0.680118 0.000000
0.598435 0.680118 0.000000
0.619970 0.680118 0.000000
0.638147 0.680118 0.000000
0.653872 0.680118 0.000000
0.667731 0.680118 0.000000
0.680118 0.680118 0.000000
0.691317 0.680118 0.000000
0.701536 0.680118 0.000000
0.710933 0.680118 0.000000
0.719630 0.680118 0.000000
0.727723 0.680118 0.000000
0.735293 0.680118 0.000000
0.742402 0.680118 0.000000
0.749103 0.680118 0.000000
0.755440 0.680118 0.000000
0.761452 0.680118 0.000000
0.767169 0.680118 0.000000
0.772619 0.680118 0.000000
0.777826 0.680118 0.000000
0.782812 0.680118 0.000000
0.787593 0.680118 0.000000
0.792187 0.680118 0.000000
0.796606 0.680118 0.000000
0.800864 0.680118 0.000000
0.804973 0.680118 0.000000
0.808942 0.680118 0.000000
0.812780 0.680118 0.000000
0.000000 0.691317 0.000000
0.404673 0.691317 0.000000
0.489265 0.691317 0.000000
0.537817 0.691317 0.000000
0.572014 0.691317 0.000000
0.598435 0.691317 0.000000
0.619970 0.691317 0.000000
0.638147 0.691317 0.000000
0.653872 0.691317 0.000000
0.667731 0.691317 0.000000
0.680118 0.691317 0.000000
0.691317 0.691317 0.000000
0.701536 0.691317 0.000000
0.710933 0.691317 0.000000
0.719630 0.691317 0.000000
0.727723 0.691317 0.000000
0.735293 0.691317 0.000000
0.742402 0.691317 0.000000
0.749103 0.691317 0.000000
0.755440 0.691317 0.000000
0.761452 0.691317 0.000000
0.767169 0.691317 0.000000
0.772619 0.691317 0.000000
0.777826 0.691317 0.000000
0.782812 0.691317 0.000000
0.787593 0.691317 0.000000
0.792187 0.691317 0.000000
0.796606 0.691317 0.000000
0.800864 0.691317 0.000000
0.804973 0.691317 0.000000
0.808942 0.691317 0.000000
0.812780 0.691317 0.000000
0.000000 0.701536 0.000000
0.404673 0.701536 0.000000
0.489265 0.701536 0.000000
0.537817 0.701536 0.000000
0.572014 0.701536 0.000000
0.598435 0.701536 0.000000
0.619970 0.701536 0.000000
0.638147 0.701536 0.000000
0.653872 0.701536 0.000000
0.667731 0.701536 0.000000
0.680118 0.701536 0.000000
0.691317 0.701536 0.000000
0.701536 0.701536 0.000000
0.710933 0.701536 0.000000
0.719630 0.701536 0.000000
0.727723 0.701536 0.000000
0.735293 0.701536 0.000000
0.742402 0.701536 0.000000
0.749103 0.701536 0.000000
0.755440 0.701536 0.000000
0.761452 0.701536 0.000000
0.767169 0.701536 0.000000
0.772619 0.701536 0.000000
0.777826 0.701536 0.000000
0.782812 0.701536 0.000000
0.787593 0.701536 0.000000
0.792187 0.701536 0.000000
0.796606 0.701536 0.000000
0.800864 0.701536 0.000000
0.804973 0.701536 0.000000
0.808942 0.701536 0.000000
0.812780 0.701536 0.000000
0.000000 0.710933 0.000000
0.404673 0.710933 0.000000
0.489265 0.710933 0.000000
0.537817 0.710933 0.000000
0.572014 0.710933 0.000000
0.598435 0.710933 0.000000
0.619970 0.710933 0.000000
0.638147 0.710933 0.000000
0.653872 0.710933 0.000000
0.667731 0.710933 0.000000
0.680118 0.710933 0.000000
0.691317 0.710933 0.000000
0.701536 0.710933 0.000000
0.710933 0.710933 0.000000
0.719630 0.710933 0.000000
0.727723 0.710933 0.000000
0.735293 0.710933 0.000000
0.742402 0.710933 0.000000
0.749103 0.710933 0.000000
0.755440 0.710933 0.000000
0.761452 0.710933 0.000000
0.767169 0.710933 0.000000
0.772619 0.710933 0.000000
0.777826 0.710933 0.000000
0.782812 0.710933 0.000000
0.787593 0.710933 0.000000
0.792187 0.710933 0.000000
0.796606 0.710933 0.000000
0.800864 0.710933 0.000000
0.804973 0.710933 0.000000
0.808942 0.710933 0.000000
0.812780 0.710933 0.000000
0.000000 0.719630 0.000000
0.404673 0.719630 0.000000
0.489265 0.719630 0.000000
0.537817 0.719630 0.000000
0.572014 0.719630 0.000000
0.598435 0.719630 0.000000
0.619970 0.719630 0.000000
0.638147 0.719630 0.000000
0.653872 0.719630 0.000000
0.667731 0.719630 0.000000
0.680118 0.719630 0.000000
0.691317 0.719630 0.000000
0.701536 0.719630 0.000000
0.710933 0.719630 0.000000
0.719630 0.719630 0.000000
0.727723 0.719630 0.000000
0.735293 0.719630 0.000000
0.742402 0.719630 0.000000
0.749103 0.719630 0.000000
0.755440 0.719630 0.000000
0.761452 0.719630 0.000000
0.767169 0.719630 0.000000
0.772619 0.719630 0.000000
0.777826 0.719630 0.000000
0.782812 0.719630 0.000000
0.787593 0.719630 0.000000
0.792187 0.719630 0.000000
0.796606 0.719630 0.000000
0.800864 0.719630 0.000000
0.804973 0.719630 0.000000
0.808942 0.719630 0.000000
0.812780 0.719630 0.000000
0.000000 0.727723 0.000000
0.404673 0.727723 0.000000
0.489265 0.727723 0.000000
0.537817 0.727723 0.000000
0.572014 0.727723 0.000000
0.598435 0.727723 0.000000
0.619970 0.727723 0.000000
0.638147 0.727723 0.000000
0.653872 0.727723 0.000000
0.667731 0.727723 0.000000
0.680118 0.727723 0.000000
0.691317 0.727723 0.000000
0.701536 0.727723 0.000000
0.710933 0.727723 0.000000
0.719630 0.727723 0.000000
0.727723 0.727723 0.000000
0.735293 0.727723 0.000000
0.742402 0.727723 0.000000
0.749103 0.727723 0.000000
0.755440 0.727723 0.000000
0.761452 0.727723 0.000000
0.767169 0.727723 0.000000
0.772619 0.727723 0.000000
0.777826 0.727723 0.000000
0.782812 0.727723 0.000000
0.787593 0.727723 0.000000
0.792187 0.727723 0.000000
0.796606 0.727723 0.000000
0.800864 0.727723 0.000000
0.804973 0.727723 0.000000
0.808942 0.727723 0.000000
0.812780 0.727723 0.000000
0.000000 0.735293 0.000000
0.404673 0.735293 0.000000
0.489265 0.735293 0.000000
0.537817 0.735293 0.000000
0.572014 0.735293 0.000000
0.598435 0.735293 0.000000
0.619970 0.735293 0.000000
0.638147 0.735293 0.000000
0.653872 0.735293 0.000000
0.667731 0.735293 0.000000
0.680118 0.735293 0.000000
0.691317 0.735293 0.000000
0.701536 0.735293 0.000000
0.710933 0.735293 0.000000
0.719630 0.735293 0.000000
0.727723 0.735293 0.000000
0.735293 0.735293 0.000000
0.742402 0.735293 0.000000
0.749103 0.735293 0.000000
0.755440 0.735293 0.000000
0.761452 0.735293 0.000000
0.767169 0.735293 0.000000
0.772619 0.735293 0.000000
0.777826 0.735293 0.000000
0.782812 0.735293 0.000000
0.787593 0.735293 0.000000
0.792187 0.735293 0.000000
0.796606 0.735293 0.000000
0.800864 0.735293 0.000000
0.804973 0.735293 0.000000
0.808942 0.735293 0.000000
0.812780 0.735293 0.000000
0.000000 0.742402 0.000000
0.404673 0.742402 0.000000
0.489265 0.742402 0.000000
0.537817 0.742402 0.000000
0.572014 0.742402 0.000000
0.598435 0.742402 0.000000
0.619970 0.742402 0.000000
0.638147 0.742402 0.000000
0.653872 0.742402 0.000000
0.667731 0.742402 0.000000
0.680118 0.742402 0.000000
0.691317 0.742402 0.000000
0.701536 0.742402 0.000000
0.710933 0.742402 0.000000
0.719630 0.742402 0.000000
0.727723 0.742402 0.000000
0.735293 0.742402 0.000000
0.742402 0.742402 0.000000
0.749103 0.742402 0.000000
0.755440 0.742402 0.000000
0.761452 0.742402 0.000000
0.767169 0.742402 0.000000
0.772619 0.742402 0.000000
0.777826 0.742402 0.000000
0.782812 0.742402 0.000000
0.787593 0.742402 0.000000
0.792187 0.742402 0.000000
0.796606 0.742402 0.000000
0.800864 0.742402 0.000000
0.804973 0.742402 0.000000
0.808942 0.742402 0.000000
0.812780 0.742402 0.000000
0.000000 0.749103 0.000000
0.404673 0.749103 0.000000
0.489265 0.749103 0.000000
0.537817 0.749103 0.000000
0.572014 0.749103 0.000000
0.598435 0.749103 0.000000
0.619970 0.749103 0.000000
0.638147 0.749103 0.000000
0.653872 0.749103 0.000000
0.667731 0.749103 0.000000
0.680118 0.749103 0.000000
0.691317 0.749103 0.000000
0.701536 0.749103 0.000000
0.710933 0.749103 0.000000
0.719630 0.749103 0.000000
0.727723 0.749103 0.000000
0.735293 0.749103 0.000000
0.742402 0.749103 0.000000
0.749103 0.749103 0.000000
0.755440 0.749103 0.000000
0.761452 0.749103 0.000000
0.767169 0.749103 0.000000
0.772619 0.749103 0.000000
0.777826 0.749103 0.000000
0.782812 0.749103 0.000000
0.787593 0.749103 0.000000
0.792187 0.749103 0.000000
0.796606 0.749103 0.000000
0.800864 0.749103 0.000000
0.804973 0.749103 0.000000
0.808942 0.749103 0.000000
0.812780 0.749103 0.000000
0.000000 0.755440 0.000000
0.404673 0.755440 0.000000
0.489265 0.755440 0.000000
0.537817 0.755440 0.000000
0.572014 0.755440 0.000000
0.598435 0.755440 0.000000
0.619970 0.755440 0.000000
0.638147 0.755440 0.000000
0.653872 0.755440 0.000000
0.667731 0.755440 0.000000
0.680118 0.755440 0.000000
0.691317 0.755440 0.000000
0.701536 0.755440 0.000000
0.710933 0.755440 0.000000
0.719630 0.755440 0.000000
0.727723 0.755440 0.000000
0.735293 0.755440 0.000000
0.742402 0.755440 0.000000
0.749103 0.755440 0.000000
0.755440 0.755440 0.000000
0.761452 0.755440 0.000000
0.767169 0.755440 0.000000
0.772619 0.755440 0.000000
0.777826 0.755440 0.000000
0.782812 0.755440 0.000000
0.787593 0.755440 0.000000
0.792187 0.755440 0.000000
0.796606 0.755440 0.000000
0.800864 0.755440 0.000000
0.804973 0.755440 0.000000
0.808942 0.755440 0.000000
0.812780 0.755440 0.000000
0.000000 0.761452 0.000000
0.404673 0.761452 0.000000
0.489265 0.761452 0.000000
0.537817 0.761452 0.000000
0.572014 0.761452 0.000000
0.598435 0.761452 0.000000
0.619970 0.761452 0.000000
0.638147 0.761452 0.000000
0.653872 0.761452 0.000000
0.667731 0.761452 0.000000
0.680118 0.761452 0.000000
0.691317 0.761452 0.000000
0.701536 0.761452 0.000000
0.710933 0.761452 0.000000
0.719630 0.761452 0.000000
0.727723 0.761452 0.000000
0.735293 0.761452 0.000000
0.742402 0.761452 0.000000
0.749103 0.761452 0.000000
0.755440 0.761452 0.000000
0.761452 0.761452 0.000000
0.767169 0.761452 0.000000
0.772619 0.761452 0.000000
0.777826 0.761452 0.000000
0.782812 0.761452 0.000000
0.787593 0.761452 0.000000
0.792187 0.761452 0.000000
0.796606 0.761452 0.000000
0.800864 0.761452 0.000000
0.804973 0.761452 0.000000
0.808942 0.761452 0.000000
0.812780 0.761452 0.000000
0.000000 0.767169 0.000000
0.404673 0.767169 0.000000
0.489265 0.767169 0.000000
0.537817 0.767169 0.000000
0.572014 0.767169 0.000000
0.598435 0.767169 0.000000
0.619970 0.767169 0.000000
0.638147 0.767169 0.000000
0.653872 0.767169 0.000000
0.667731 0.767169 0.000000
0.680118 0.767169 0.000000
0.691317 0.767169 0.000000
0.701536 0.767169 0.000000
0.710933 0.767169 0.000000
0.719630 0.767169 0.000000
0.727723 0.767169 0.000000
0.735293 0.767169 0.000000
0.742402 0.767169 0.000000
0.749103 0.767169 0.000000
0.755440 0.767169 0.000000
0.761452 0.767169 0.000000
0.767169 0.767169 0.000000
0.772619 0.767169 0.000000
0.777826 0.767169 0.000000
0.782812 0.767169 0.000000
0.787593 0.767169 0.000000
0.792187 0.767169 0.000000
0.796606 0.767169 0.000000
0.800864 0.767169 0.000000
0.804973 0.767169 0.000000
0.808942 0.767169 0.000000
0.812780 0.767169 0.000000
0.000000 0.772619 0.000000
0.404673 0.772619 0.000000
0.489265 0.772619 0.000000
0.537817 0.772619 0.000000
0.572014 0.772619 0.000000
0.598435 0.772619 0.000000
0.619970 0.772619 0.000000
0.638147 0.772619 0.000000
0.653872 0.772619 0.000000
0.667731 0.772619 0.000000
0.680118 0.772619 0.000000
0.691317 0.772619 0.000000
0.701536 0.772619 0.000000
0.710933 0.772619 0.000000
0.719630 0.772619 0.000000
0.727723 0.772619 0.000000
0.735293 0.772619 0.000000
0.742402 0.772619 0.000000
0.749103 0.772619 0.000000
0.755440 0.772619 0.000000
0.761452 0.772619 0.000000
0.767169 0.772619 0.000000
0.772619 0.772619 0.000000
0.777826 0.772619 0.000000
0.782812 0.772619 0.000000
0.787593 0.772619 0.000000
0.792187 0.772619 0.000000
0.796606 0.772619 0.000000
0.800864 0.772619 0.000000
0.804973 0.772619 0.000000
0.808942 0.772619 0.000000
0.812780 0.772619 0.000000
0.000000 0.777826 0.000000
0.404673 0.777826 0.000000
0.489265 0.777826 0.000000
0.537817 0.777826 0.000000
0.572014 0.777826 0.000000
0.598435 0.777826 0.000000
0.619970 0.777826 0.000000
0.638147 0.777826 0.000000
0.653872 0.777826 0.000000
0.667731 0.777826 0.000000
0.680118 0.777826 0.000000
0.691317 0.777826 0.000000
0.701536 0.777826 0.000000
0.710933 0.777826 0.000000
0.719630 0.777826 0.000000
0.727723 0.777826 0.000000
0.735293 0.777826 0.000000
0.742402 0.777826 0.000000
0.749103 0.777826 0.000000
0.755440 0.777826 0.000000
0.761452 0.777826 0.000000
0.767169 0.777826 0.000000
0.772619 0.777826 0.000000
0.777826 0.777826 0.000000
0.782812 0.777826 0.000000
0.787593 0.777826 0.000000
0.792187 0.777826 0.000000
0.796606 0.777826 0.000000
0.800864 0.777826 0.000000
0.804973 0.777826 0.000000
0.808942 0.777826 0.000000
0.812780 0.777826 0.000000
0.000000 0.782812 0.000000
0.404673 0.782812 0.000000
0.489265 0.782812 0.000000
0.537817 0.782812 0.000000
0.572014 0.782812 0.000000
0.598435 0.782812 0.000000
0.619970 0.782812 0.000000
0.638147 0.782812 0.000000
0.653872 0.782812 0.000000
0.667731 0.782812 0.000000
0.680118 0.782812 0.000000
0.691317 0.782812 0.000000
0.701536 0.782812 0.000000
0.710933 0.782812 0.000000
0.719630 0.782812 0.000000
0.727723 0.782812 0.000000
0.735293 0.782812 0.000000
0.742402 0.782812 0.000000
0.749103 0.782812 0.000000
0.755440 0.782812 0.000000
0.761452 0.782812 0.000000
0.767169 0.782812 0.000000
0.772619 0.782812 0.000000
0.777826 0.782812 0.000000
0.782812 0.782812 0.000000
0.787593 0.782812 0.000000
0.792187 0.782812 0.000000
0.796606 0.782812 0.000000
0.800864 0.782812 0.000000
0.804973 0.782812 0.000000
0.808942 0.782812 0.000000
0.812780 0.782812 0.000000
0.000000 0.787593 0.000000
0.404673 0.787593 0.000000
0.489265 0.787593 0.000000
0.537817 0.787593 0.000000
0.572014 0.787593 0.000000
0.598435 0.787593 0.000000
0.619970 0.787593 0.000000
0.638147 0.787593 0.000000
0.653872 0.787593 0.000000
0.667731 0.787593 0.000000
0.680118 0.787593 0.000000
0.691317 0.787593 0.000000
0.701536 0.787593 0.000000
0.710933 0.787593 0.000000
0.719630 0.787593 0.000000
0.727723 0.787593 0.000000
0.735293 0.787593 0.000000
0.742402 0.787593 0.000000
0.749103 0.787593 0.000000
0.755440 0.787593 0.000000
0.761452 0.787593 0.000000
0.767169 0.787593 0.000000
0.772619 0.787593 0.000000
0.777826 0.787593 0.000000
0.782812 0.787593 0.000000
0.787593 0.787593 0.000000
0.792187 0.787593 0.000000
0.796606 0.787593 0.000000
0.800864 0.787593 0.000000
0.804973 0.787593 0.000000
0.808942 0.787593 0.000000
0.812780 0.787593 0.000000
0.000000 0.792187 0.000000
0.404673 0.792187 0.000000
0.489265 0.792187 0.000000
0.537817 0.792187 0.000000
0.572014 0.792187 0.000000
0.598435 0.792187 0.000000
0.619970 0.792187 0.000000
0.638147 0.792187 0.000000
0.653872 0.792187 0.000000
0.667731 0.792187 0.000000
0.680118 0.792187 0.000000
0.691317 0.792187 0.000000
0.701536 0.792187 0.000000
0.710933 0.792187 0.000000
0.719630 0.792187 0.000000
0.727723 0.792187 0.000000
0.735293 0.792187 0.000000
0.742402 0.792187 0.000000
0.749103 0.792187 0.000000
0.755440 0.792187 0.000000
0.761452 0.792187 0.000000
0.767169 0.792187 0.000000
0.772619 0.792187 0.000000
0.777826 0.792187 0.000000
0.782812 0.792187 0.000000
0.787593 0.792187 0.000000
0.792187 0.792187 0.000000
0.796606 0.792187 0.000000
0.800864 0.792187 0.000000
0.804973 0.792187 0.000000
0.808942 0.792187 0.000000
0.812780 0.792187 0.000000
0.000000 0.796606 0.000000
0.404673 0.796606 0.000000
0.489265 0.796606 0.000000
0.537817 0.796606 0.000000
0.572014 0.796606 0.000000
0.598435 0.796606 0.000000
0.619970 0.796606 0.000000
0.638147 0.796606 0.000000
0.653872 0.796606 0.000000
0.667731 0.796606 0.000000
0.680118 0.796606 0.000000
0.691317 0.796606 0.000000
0.701536 0.796606 0.000000
0.710933 0.796606 0.000000
0.719630 0.796606 0.000000
0.727723 0.796606 0.000000
0.735293 0.796606 0.000000
0.742402 0.796606 0.000000
0.749103 0.796606 0.000000
0.755440 0.796606 0.000000
0.761452 0.796606 0.000000
