.nuke/nuke.LUT/linear-2-logC_exteded/AlexaV3_EI1600_Linear2LogC_EE_nuke3d.cube
# Alexa conversion LUT, lin2logc. Full in/full out.
# created by alexalutconv (2.07)
LUT_3D_SIZE 32
0.000000 0.000000 0.000000
0.638215 0.000000 0.000000
0.716489 0.000000 0.000000
0.760498 0.000000 0.000000
0.791259 0.000000 0.000000
0.814900 0.000000 0.000000
0.834020 0.000000 0.000000
0.850055 0.000000 0.000000
0.863856 0.000000 0.000000
0.875964 0.000000 0.000000
0.886746 0.000000 0.000000
0.896461 0.000000 0.000000
0.905301 0.000000 0.000000
0.913406 0.000000 0.000000
0.920890 0.000000 0.000000
0.927839 0.000000 0.000000
0.934325 0.000000 0.000000
0.940404 0.000000 0.000000
0.946125 0.000000 0.000000
0.951525 0.000000 0.000000
0.956640 0.000000 0.000000
0.961497 0.000000 0.000000
0.966121 0.000000 0.000000
0.970533 0.000000 0.000000
0.974752 0.000000 0.000000
0.978792 0.000000 0.000000
0.982670 0.000000 0.000000
0.986396 0.000000 0.000000
0.989983 0.000000 0.000000
0.993440 0.000000 0.000000
0.996776 0.000000 0.000000
1.000000 0.000000 0.000000
0.000000 0.638215 0.000000
0.638215 0.638215 0.000000
0.716489 0.638215 0.000000
0.760498 0.638215 0.000000
0.791259 0.638215 0.000000
0.814900 0.638215 0.000000
0.834020 0.638215 0.000000
0.850055 0.638215 0.000000
0.863856 0.638215 0.000000
0.875964 0.638215 0.000000
0.886746 0.638215 0.000000
0.896461 0.638215 0.000000
0.905301 0.638215 0.000000
0.913406 0.638215 0.000000
0.920890 0.638215 0.000000
0.927839 0.638215 0.000000
0.934325 0.638215 0.000000
0.940404 0.638215 0.000000
0.946125 0.638215 0.000000
0.951525 0.638215 0.000000
0.956640 0.638215 0.000000
0.961497 0.638215 0.000000
0.966121 0.638215 0.000000
0.970533 0.638215 0.000000
0.974752 0.638215 0.000000
0.978792 0.638215 0.000000
0.982670 0.638215 0.000000
0.986396 0.638215 0.000000
0.989983 0.638215 0.000000
0.993440 0.638215 0.000000
0.996776 0.638215 0.000000
1.000000 0.638215 0.000000
0.000000 0.716489 0.000000
0.638215 0.716489 0.000000
0.716489 0.716489 0.000000
0.760498 0.716489 0.000000
0.791259 0.716489 0.000000
0.814900 0.716489 0.000000
0.834020 0.716489 0.000000
0.850055 0.716489 0.000000
0.863856 0.716489 0.000000
0.875964 0.716489 0.000000
0.886746 0.716489 0.000000
0.896461 0.716489 0.000000
0.905301 0.716489 0.000000
0.913406 0.716489 0.000000
0.920890 0.716489 0.000000
0.927839 0.716489 0.000000
0.934325 0.716489 0.000000
0.940404 0.716489 0.000000
0.946125 0.716489 0.000000
0.951525 0.716489 0.000000
0.956640 0.716489 0.000000
0.961497 0.716489 0.000000
0.966121 0.716489 0.000000
0.970533 0.716489 0.000000
0.974752 0.716489 0.000000
0.978792 0.716489 0.000000
0.982670 0.716489 0.000000
0.986396 0.716489 0.000000
0.989983 0.716489 0.000000
0.993440 0.716489 0.000000
0.996776 0.716489 0.000000
1.000000 0.716489 0.000000
0.000000 0.760498 0.000000
0.638215 0.760498 0.000000
0.716489 0.760498 0.000000
0.760498 0.760498 0.000000
0.791259 0.760498 0.000000
0.814900 0.760498 0.000000
0.834020 0.760498 0.000000
0.850055 0.760498 0.000000
0.863856 0.760498 0.000000
0.875964 0.760498 0.000000
0.886746 0.760498 0.000000
0.896461 0.760498 0.000000
0.905301 0.760498 0.000000
0.913406 0.760498 0.000000
0.920890 0.760498 0.000000
0.927839 0.760498 0.000000
0.934325 0.760498 0.000000
0.940404 0.760498 0.000000
0.946125 0.760498 0.000000
0.951525 0.760498 0.000000
0.956640 0.760498 0.000000
0.961497 0.760498 0.000000
0.966121 0.760498 0.000000
0.970533 0.760498 0.000000
0.974752 0.760498 0.000000
0.978792 0.760498 0.000000
0.982670 0.760498 0.000000
0.986396 0.760498 0.000000
0.989983 0.760498 0.000000
0.993440 0.760498 0.000000
0.996776 0.760498 0.000000
1.000000 0.760498 0.000000
0.000000 0.791259 0.000000
0.638215 0.791259 0.000000
0.716489 0.791259 0.000000
0.760498 0.791259 0.000000
0.791259 0.791259 0.000000
0.814900 0.791259 0.000000
0.834020 0.791259 0.000000
0.850055 0.791259 0.000000
0.863856 0.791259 0.000000
0.875964 0.791259 0.000000
0.886746 0.791259 0.000000
0.896461 0.791259 0.000000
0.905301 0.791259 0.000000
0.913406 0.791259 0.000000
0.920890 0.791259 0.000000
0.927839 0.791259 0.000000
0.934325 0.791259 0.000000
0.940404 0.791259 0.000000
0.946125 0.791259 0.000000
0.951525 0.791259 0.000000
0.956640 0.791259 0.000000
0.961497 0.791259 0.000000
0.966121 0.791259 0.000000
0.970533 0.791259 0.000000
0.974752 0.791259 0.000000
0.978792 0.791259 0.000000
0.982670 0.791259 0.000000
0.986396 0.791259 0.000000
0.989983 0.791259 0.000000
0.993440 0.791259 0.000000
0.996776 0.791259 0.000000
1.000000 0.791259 0.000000
0.000000 0.814900 0.000000
0.638215 0.814900 0.000000
0.716489 0.814900 0.000000
0.760498 0.814900 0.000000
0.791259 0.814900 0.000000
0.814900 0.814900 0.000000
0.834020 0.814900 0.000000
0.850055 0.814900 0.000000
0.863856 0.814900 0.000000
0.875964 0.814900 0.000000
0.886746 0.814900 0.000000
0.896461 0.814900 0.000000
0.905301 0.814900 0.000000
0.913406 0.814900 0.000000
0.920890 0.814900 0.000000
0.927839 0.814900 0.000000
0.934325 0.814900 0.000000
0.940404 0.814900 0.000000
0.946125 0.814900 0.000000
0.951525 0.814900 0.000000
0.956640 0.814900 0.000000
0.961497 0.814900 0.000000
0.966121 0.814900 0.000000
0.970533 0.814900 0.000000
0.974752 0.814900 0.000000
0.978792 0.814900 0.000000
0.982670 0.814900 0.000000
0.986396 0.814900 0.000000
0.989983 0.814900 0.000000
0.993440 0.814900 0.000000
0.996776 0.814900 0.000000
1.000000 0.814900 0.000000
0.000000 0.834020 0.000000
0.638215 0.834020 0.000000
0.716489 0.834020 0.000000
0.760498 0.834020 0.000000
0.791259 0.834020 0.000000
0.814900 0.834020 0.000000
0.834020 0.834020 0.000000
0.850055 0.834020 0.000000
0.863856 0.834020 0.000000
0.875964 0.834020 0.000000
0.886746 0.834020 0.000000
0.896461 0.834020 0.000000
0.905301 0.834020 0.000000
0.913406 0.834020 0.000000
0.920890 0.834020 0.000000
0.927839 0.834020 0.000000
0.934325 0.834020 0.000000
0.940404 0.834020 0.000000
0.946125 0.834020 0.000000
0.951525 0.834020 0.000000
0.956640 0.834020 0.000000
0.961497 0.834020 0.000000
0.966121 0.834020 0.000000
0.970533 0.834020 0.000000
0.974752 0.834020 0.000000
0.978792 0.834020 0.000000
0.982670 0.834020 0.000000
0.986396 0.834020 0.000000
0.989983 0.834020 0.000000
0.993440 0.834020 0.000000
0.996776 0.834020 0.000000
1.000000 0.834020 0.000000
0.000000 0.850055 0.000000
0.638215 0.850055 0.000000
0.716489 0.850055 0.000000
0.760498 0.850055 0.000000
0.791259 0.850055 0.000000
0.814900 0.850055 0.000000
0.834020 0.850055 0.000000
0.850055 0.850055 0.000000
0.863856 0.850055 0.000000
0.875964 0.850055 0.000000
0.886746 0.850055 0.000000
0.896461 0.850055 0.000000
0.905301 0.850055 0.000000
0.913406 0.850055 0.000000
0.920890 0.850055 0.000000
0.927839 0.850055 0.000000
0.934325 0.850055 0.000000
0.940404 0.850055 0.000000
0.946125 0.850055 0.000000
0.951525 0.850055 0.000000
0.956640 0.850055 0.000000
0.961497 0.850055 0.000000
0.966121 0.850055 0.000000
0.970533 0.850055 0.000000
0.974752 0.850055 0.000000
0.978792 0.850055 0.000000
0.982670 0.850055 0.000000
0.986396 0.850055 0.000000
0.989983 0.850055 0.000000
0.993440 0.850055 0.000000
0.996776 0.850055 0.000000
1.000000 0.850055 0.000000
0.000000 0.863856 0.000000
0.638215 0.863856 0.000000
0.716489 0.863856 0.000000
0.760498 0.863856 0.000000
0.791259 0.863856 0.000000
0.814900 0.863856 0.000000
0.834020 0.863856 0.000000
0.850055 0.863856 0.000000
0.863856 0.863856 0.000000
0.875964 0.863856 0.000000
0.886746 0.863856 0.000000
0.896461 0.863856 0.000000
0.905301 0.863856 0.000000
0.913406 0.863856 0.000000
0.920890 0.863856 0.000000
0.927839 0.863856 0.000000
0.934325 0.863856 0.000000
0.940404 0.863856 0.000000
0.946125 0.863856 0.000000
0.951525 0.863856 0.000000
0.956640 0.863856 0.000000
0.961497 0.863856 0.000000
0.966121 0.863856 0.000000
0.970533 0.863856 0.000000
0.974752 0.863856 0.000000
0.978792 0.863856 0.000000
0.982670 0.863856 0.000000
0.986396 0.863856 0.000000
0.989983 0.863856 0.000000
0.993440 0.863856 0.000000
0.996776 0.863856 0.000000
1.000000 0.863856 0.000000
0.000000 0.875964 0.000000
0.638215 0.875964 0.000000
0.716489 0.875964 0.000000
0.760498 0.875964 0.000000
0.791259 0.875964 0.000000
0.814900 0.875964 0.000000
0.834020 0.875964 0.000000
0.850055 0.875964 0.000000
0.863856 0.875964 0.000000
0.875964 0.875964 0.000000
0.886746 0.875964 0.000000
0.896461 0.875964 0.000000
0.905301 0.875964 0.000000
0.913406 0.875964 0.000000
0.920890 0.875964 0.000000
0.927839 0.875964 0.000000
0.934325 0.875964 0.000000
0.940404 0.875964 0.000000
0.946125 0.875964 0.000000
0.951525 0.875964 0.000000
0.956640 0.875964 0.000000
0.961497 0.875964 0.000000
0.966121 0.875964 0.000000
0.970533 0.875964 0.000000
0.974752 0.875964 0.000000
0.978792 0.875964 0.000000
0.982670 0.875964 0.000000
0.986396 0.875964 0.000000
0.989983 0.875964 0.000000
0.993440 0.875964 0.000000
0.996776 0.875964 0.000000
1.000000 0.875964 0.000000
0.000000 0.886746 0.000000
0.638215 0.886746 0.000000
0.716489 0.886746 0.000000
0.760498 0.886746 0.000000
0.791259 0.886746 0.000000
0.814900 0.886746 0.000000
0.834020 0.886746 0.000000
0.850055 0.886746 0.000000
0.863856 0.886746 0.000000
0.875964 0.886746 0.000000
0.886746 0.886746 0.000000
0.896461 0.886746 0.000000
0.905301 0.886746 0.000000
0.913406 0.886746 0.000000
0.920890 0.886746 0.000000
0.927839 0.886746 0.000000
0.934325 0.886746 0.000000
0.940404 0.886746 0.000000
0.946125 0.886746 0.000000
0.951525 0.886746 0.000000
0.956640 0.886746 0.000000
0.961497 0.886746 0.000000
0.966121 0.886746 0.000000
0.970533 0.886746 0.000000
0.974752 0.886746 0.000000
0.978792 0.886746 0.000000
0.982670 0.886746 0.000000
0.986396 0.886746 0.000000
0.989983 0.886746 0.000000
0.993440 0.886746 0.000000
0.996776 0.886746 0.000000
1.000000 0.886746 0.000000
0.000000 0.896461 0.000000
0.638215 0.896461 0.000000
0.716489 0.896461 0.000000
0.760498 0.896461 0.000000
0.791259 0.896461 0.000000
0.814900 0.896461 0.000000
0.834020 0.896461 0.000000
0.850055 0.896461 0.000000
0.863856 0.896461 0.000000
0.875964 0.896461 0.000000
0.886746 0.896461 0.000000
0.896461 0.896461 0.000000
0.905301 0.896461 0.000000
0.913406 0.896461 0.000000
0.920890 0.896461 0.000000
0.927839 0.896461 0.000000
0.934325 0.896461 0.000000
0.940404 0.896461 0.000000
0.946125 0.896461 0.000000
0.951525 0.896461 0.000000
0.956640 0.896461 0.000000
0.961497 0.896461 0.000000
0.966121 0.896461 0.000000
0.970533 0.896461 0.000000
0.974752 0.896461 0.000000
0.978792 0.896461 0.000000
0.982670 0.896461 0.000000
0.986396 0.896461 0.000000
0.989983 0.896461 0.000000
0.993440 0.896461 0.000000
0.996776 0.896461 0.000000
1.000000 0.896461 0.000000
0.000000 0.905301 0.000000
0.638215 0.905301 0.000000
0.716489 0.905301 0.000000
0.760498 0.905301 0.000000
0.791259 0.905301 0.000000
0.814900 0.905301 0.000000
0.834020 0.905301 0.000000
0.850055 0.905301 0.000000
0.863856 0.905301 0.000000
0.875964 0.905301 0.000000
0.886746 0.905301 0.000000
0.896461 0.905301 0.000000
0.905301 0.905301 0.000000
0.913406 0.905301 0.000000
0.920890 0.905301 0.000000
0.927839 0.905301 0.000000
0.934325 0.905301 0.000000
0.940404 0.905301 0.000000
0.946125 0.905301 0.000000
0.951525 0.905301 0.000000
0.956640 0.905301 0.000000
0.961497 0.905301 0.000000
0.966121 0.905301 0.000000
0.970533 0.905301 0.000000
0.974752 0.905301 0.000000
0.978792 0.905301 0.000000
0.982670 0.905301 0.000000
0.986396 0.905301 0.000000
0.989983 0.905301 0.000000
0.993440 0.905301 0.000000
0.996776 0.905301 0.000000
1.000000 0.905301 0.000000
0.000000 0.913406 0.000000
0.638215 0.913406 0.000000
0.716489 0.913406 0.000000
0.760498 0.913406 0.000000
0.791259 0.913406 0.000000
0.814900 0.913406 0.000000
0.834020 0.913406 0.000000
0.850055 0.913406 0.000000
0.863856 0.913406 0.000000
0.875964 0.913406 0.000000
0.886746 0.913406 0.000000
0.896461 0.913406 0.000000
0.905301 0.913406 0.000000
0.913406 0.913406 0.000000
0.920890 0.913406 0.000000
0.927839 0.913406 0.000000
0.934325 0.913406 0.000000
0.940404 0.913406 0.000000
0.946125 0.913406 0.000000
0.951525 0.913406 0.000000
0.956640 0.913406 0.000000
0.961497 0.913406 0.000000
0.966121 0.913406 0.000000
0.970533 0.913406 0.000000
0.974752 0.913406 0.000000
0.978792 0.913406 0.000000
0.982670 0.913406 0.000000
0.986396 0.913406 0.000000
0.989983 0.913406 0.000000
0.993440 0.913406 0.000000
0.996776 0.913406 0.000000
1.000000 0.913406 0.000000
0.000000 0.920890 0.000000
0.638215 0.920890 0.000000
0.716489 0.920890 0.000000
0.760498 0.920890 0.000000
0.791259 0.920890 0.000000
0.814900 0.920890 0.000000
0.834020 0.920890 0.000000
0.850055 0.920890 0.000000
0.863856 0.920890 0.000000
0.875964 0.920890 0.000000
0.886746 0.920890 0.000000
0.896461 0.920890 0.000000
0.905301 0.920890 0.000000
0.913406 0.920890 0.000000
0.920890 0.920890 0.000000
0.927839 0.920890 0.000000
0.934325 0.920890 0.000000
0.940404 0.920890 0.000000
0.946125 0.920890 0.000000
0.951525 0.920890 0.000000
0.956640 0.920890 0.000000
0.961497 0.920890 0.000000
0.966121 0.920890 0.000000
0.970533 0.920890 0.000000
0.974752 0.920890 0.000000
0.978792 0.920890 0.000000
0.982670 0.920890 0.000000
0.986396 0.920890 0.000000
0.989983 0.920890 0.000000
0.993440 0.920890 0.000000
0.996776 0.920890 0.000000
1.000000 0.920890 0.000000
0.000000 0.927839 0.000000
0.638215 0.927839 0.000000
0.716489 0.927839 0.000000
0.760498 0.927839 0.000000
0.791259 0.927839 0.000000
0.814900 0.927839 0.000000
0.834020 0.927839 0.000000
0.850055 0.927839 0.000000
0.863856 0.927839 0.000000
0.875964 0.927839 0.000000
0.886746 0.927839 0.000000
0.896461 0.927839 0.000000
0.905301 0.927839 0.000000
0.913406 0.927839 0.000000
0.920890 0.927839 0.000000
0.927839 0.927839 0.000000
0.934325 0.927839 0.000000
0.940404 0.927839 0.000000
0.946125 0.927839 0.000000
0.951525 0.927839 0.000000
0.956640 0.927839 0.000000
0.961497 0.927839 0.000000
0.966121 0.927839 0.000000
0.970533 0.927839 0.000000
0.974752 0.927839 0.000000
0.978792 0.927839 0.000000
0.982670 0.927839 0.000000
0.986396 0.927839 0.000000
0.989983 0.927839 0.000000
0.993440 0.927839 0.000000
0.996776 0.927839 0.000000
1.000000 0.927839 0.000000
0.000000 0.934325 0.000000
0.638215 0.934325 0.000000
0.716489 0.934325 0.000000
0.760498 0.934325 0.000000
0.791259 0.934325 0.000000
0.814900 0.934325 0.000000
0.834020 0.934325 0.000000
0.850055 0.934325 0.000000
0.863856 0.934325 0.000000
0.875964 0.934325 0.000000
0.886746 0.934325 0.000000
0.896461 0.934325 0.000000
0.905301 0.934325 0.000000
0.913406 0.934325 0.000000
0.920890 0.934325 0.000000
0.927839 0.934325 0.000000
0.934325 0.934325 0.000000
0.940404 0.934325 0.000000
0.946125 0.934325 0.000000
0.951525 0.934325 0.000000
0.956640 0.934325 0.000000
0.961497 0.934325 0.000000
0.966121 0.934325 0.000000
0.970533 0.934325 0.000000
0.974752 0.934325 0.000000
0.978792 0.934325 0.000000
0.982670 0.934325 0.000000
0.986396 0.934325 0.000000
0.989983 0.934325 0.000000
0.993440 0.934325 0.000000
0.996776 0.934325 0.000000
1.000000 0.934325 0.000000
0.000000 0.940404 0.000000
0.638215 0.940404 0.000000
0.716489 0.940404 0.000000
0.760498 0.940404 0.000000
0.791259 0.940404 0.000000
0.814900 0.940404 0.000000
0.834020 0.940404 0.000000
0.850055 0.940404 0.000000
0.863856 0.940404 0.000000
0.875964 0.940404 0.000000
0.886746 0.940404 0.000000
0.896461 0.940404 0.000000
0.905301 0.940404 0.000000
0.913406 0.940404 0.000000
0.920890 0.940404 0.000000
0.927839 0.940404 0.000000
0.934325 0.940404 0.000000
0.940404 0.940404 0.000000
0.946125 0.940404 0.000000
0.951525 0.940404 0.000000
0.956640 0.940404 0.000000
0.961497 0.940404 0.000000
0.966121 0.940404 0.000000
0.970533 0.940404 0.000000
0.974752 0.940404 0.000000
0.978792 0.940404 0.000000
0.982670 0.940404 0.000000
0.986396 0.940404 0.000000
0.989983 0.940404 0.000000
0.993440 0.940404 0.000000
0.996776 0.940404 0.000000
1.000000 0.940404 0.000000
0.000000 0.946125 0.000000
0.638215 0.946125 0.000000
0.716489 0.946125 0.000000
0.760498 0.946125 0.000000
0.791259 0.946125 0.000000
0.814900 0.946125 0.000000
0.834020 0.946125 0.000000
0.850055 0.946125 0.000000
0.863856 0.946125 0.000000
0.875964 0.946125 0.000000
0.886746 0.946125 0.000000
0.896461 0.946125 0.000000
0.905301 0.946125 0.000000
0.913406 0.946125 0.000000
0.920890 0.946125 0.000000
0.927839 0.946125 0.000000
0.934325 0.946125 0.000000
0.940404 0.946125 0.000000
0.946125 0.946125 0.000000
0.951525 0.946125 0.000000
0.956640 0.946125 0.000000
0.961497 0.946125 0.000000
0.966121 0.946125 0.000000
0.970533 0.946125 0.000000
0.974752 0.946125 0.000000
0.978792 0.946125 0.000000
0.982670 0.946125 0.000000
0.986396 0.946125 0.000000
0.989983 0.946125 0.000000
0.993440 0.946125 0.000000
0.996776 0.946125 0.000000
1.000000 0.946125 0.000000
0.000000 0.951525 0.000000
0.638215 0.951525 0.000000
0.716489 0.951525 0.000000
0.760498 0.951525 0.000000
0.791259 0.951525 0.000000
0.814900 0.951525 0.000000
0.834020 0.951525 0.000000
0.850055 0.951525 0.000000
0.863856 0.951525 0.000000
0.875964 0.951525 0.000000
0.886746 0.951525 0.000000
0.896461 0.951525 0.000000
0.905301 0.951525 0.000000
0.913406 0.951525 0.000000
0.920890 0.951525 0.000000
0.927839 0.951525 0.000000
0.934325 0.951525 0.000000
0.940404 0.951525 0.000000
0.946125 0.951525 0.000000
0.951525 0.951525 0.000000
0.956640 0.951525 0.000000
0.961497 0.951525 0.000000
0.966121 0.951525 0.000000
0.970533 0.951525 0.000000
0.974752 0.951525 0.000000
0.978792 0.951525 0.000000
0.982670 0.951525 0.000000
0.986396 0.951525 0.000000
0.989983 0.951525 0.000000
0.993440 0.951525 0.000000
0.996776 0.951525 0.000000
1.000000 0.951525 0.000000
0.000000 0.956640 0.000000
0.638215 0.956640 0.000000
0.716489 0.956640 0.000000
0.760498 0.956640 0.000000
0.791259 0.956640 0.000000
0.814900 0.956640 0.000000
0.834020 0.956640 0.000000
0.850055 0.956640 0.000000
0.863856 0.956640 0.000000
0.875964 0.956640 0.000000
0.886746 0.956640 0.000000
0.896461 0.956640 0.000000
0.905301 0.956640 0.000000
0.913406 0.956640 0.000000
0.920890 0.956640 0.000000
0.927839 0.956640 0.000000
0.934325 0.956640 0.000000
0.940404 0.956640 0.000000
0.946125 0.956640 0.000000
0.951525 0.956640 0.000000
0.956640 0.956640 0.000000
0.961497 0.956640 0.000000
0.966121 0.956640 0.000000
0.970533 0.956640 0.000000
0.974752 0.956640 0.000000
0.978792 0.956640 0.000000
0.982670 0.956640 0.000000
0.986396 0.956640 0.000000
0.989983 0.956640 0.000000
0.993440 0.956640 0.000000
0.996776 0.956640 0.000000
1.000000 0.956640 0.000000
0.000000 0.961497 0.000000
0.638215 0.961497 0.000000
0.716489 0.961497 0.000000
0.760498 0.961497 0.000000
0.791259 0.961497 0.000000
0.814900 0.961497 0.000000
0.834020 0.961497 0.000000
0.850055 0.961497 0.000000
0.863856 0.961497 0.000000
0.875964 0.961497 0.000000
0.886746 0.961497 0.000000
0.896461 0.961497 0.000000
0.905301 0.961497 0.000000
0.913406 0.961497 0.000000
0.920890 0.961497 0.000000
0.927839 0.961497 0.000000
0.934325 0.961497 0.000000
0.940404 0.961497 0.000000
0.946125 0.961497 0.000000
0.951525 0.961497 0.000000
0.956640 0.961497 0.000000
0.961497 0.961497 0.000000
0.966121 0.961497 0.000000
0.970533 0.961497 0.000000
0.974752 0.961497 0.000000
0.978792 0.961497 0.000000
0.982670 0.961497 0.000000
0.986396 0.961497 0.000000
0.989983 0.961497 0.000000
0.993440 0.961497 0.000000
0.996776 0.961497 0.000000
1.000000 0.961497 0.000000
0.000000 0.966121 0.000000
0.638215 0.966121 0.000000
0.716489 0.966121 0.000000
0.760498 0.966121 0.000000
0.791259 0.966121 0.000000
0.814900 0.966121 0.000000
0.834020 0.966121 0.000000
0.850055 0.966121 0.000000
0.863856 0.966121 0.000000
0.875964 0.966121 0.000000
0.886746 0.966121 0.000000
0.896461 0.966121 0.000000
0.905301 0.966121 0.000000
0.913406 0.966121 0.000000
0.920890 0.966121 0.000000
0.927839 0.966121 0.000000
0.934325 0.966121 0.000000
0.940404 0.966121 0.000000
0.946125 0.966121 0.000000
0.951525 0.966121 0.000000
0.956640 0.966121 0.000000
0.961497 0.966121 0.000000
0.966121 0.966121 0.000000
0.970533 0.966121 0.000000
0.974752 0.966121 0.000000
0.978792 0.966121 0.000000
0.982670 0.966121 0.000000
0.986396 0.966121 0.000000
0.989983 0.966121 0.000000
0.993440 0.966121 0.000000
0.996776 0.966121 0.000000
1.000000 0.966121 0.000000
0.000000 0.970533 0.000000
0.638215 0.970533 0.000000
0.716489 0.970533 0.000000
0.760498 0.970533 0.000000
0.791259 0.970533 0.000000
0.814900 0.970533 0.000000
0.834020 0.970533 0.000000
0.850055 0.970533 0.000000
0.863856 0.970533 0.000000
0.875964 0.970533 0.000000
0.886746 0.970533 0.000000
0.896461 0.970533 0.000000
0.905301 0.970533 0.000000
0.913406 0.970533 0.000000
0.920890 0.970533 0.000000
0.927839 0.970533 0.000000
0.934325 0.970533 0.000000
0.940404 0.970533 0.000000
0.946125 0.970533 0.000000
0.951525 0.970533 0.000000
0.956640 0.970533 0.000000
0.961497 0.970533 0.000000
0.966121 0.970533 0.000000
0.970533 0.970533 0.000000
0.974752 0.970533 0.000000
0.978792 0.970533 0.000000
0.982670 0.970533 0.000000
0.986396 0.970533 0.000000
0.989983 0.970533 0.000000
0.993440 0.970533 0.000000
0.996776 0.970533 0.000000
1.000000 0.970533 0.000000
0.000000 0.974752 0.000000
0.638215 0.974752 0.000000
0.716489 0.974752 0.000000
0.760498 0.974752 0.000000
0.791259 0.974752 0.000000
0.814900 0.974752 0.000000
0.834020 0.974752 0.000000
0.850055 0.974752 0.000000
0.863856 0.974752 0.000000
0.875964 0.974752 0.000000
0.886746 0.974752 0.000000
0.896461 0.974752 0.000000
0.905301 0.974752 0.000000
0.913406 0.974752 0.000000
0.920890 0.974752 0.000000
0.927839 0.974752 0.000000
0.934325 0.974752 0.000000
0.940404 0.974752 0.000000
0.946125 0.974752 0.000000
0.951525 0.974752 0.000000
0.956640 0.974752 0.000000
0.961497 0.974752 0.000000
0.966121 0.974752 0.000000
0.970533 0.974752 0.000000
0.974752 0.974752 0.000000
0.978792 0.974752 0.000000
0.982670 0.974752 0.000000
0.986396 0.974752 0.000000
0.989983 0.974752 0.000000
0.993440 0.974752 0.000000
0.996776 0.974752 0.000000
1.000000 0.974752 0.000000
0.000000 0.978792 0.000000
0.638215 0.978792 0.000000
0.716489 0.978792 0.000000
0.760498 0.978792 0.000000
0.791259 0.978792 0.000000
0.814900 0.978792 0.000000
0.834020 0.978792 0.000000
0.850055 0.978792 0.000000
0.863856 0.978792 0.000000
0.875964 0.978792 0.000000
0.886746 0.978792 0.000000
0.896461 0.978792 0.000000
0.905301 0.978792 0.000000
0.913406 0.978792 0.000000
0.920890 0.978792 0.000000
0.927839 0.978792 0.000000
0.934325 0.978792 0.000000
0.940404 0.978792 0.000000
0.946125 0.978792 0.000000
0.951525 0.978792 0.000000
0.956640 0.978792 0.000000
0.961497 0.978792 0.000000
0.966121 0.978792 0.000000
0.970533 0.978792 0.000000
0.974752 0.978792 0.000000
0.978792 0.978792 0.000000
0.982670 0.978792 0.000000
0.986396 0.978792 0.000000
0.989983 0.978792 0.000000
0.993440 0.978792 0.000000
0.996776 0.978792 0.000000
1.000000 0.978792 0.000000
0.000000 0.982670 0.000000
0.638215 0.982670 0.000000
0.716489 0.982670 0.000000
0.760498 0.982670 0.000000
0.791259 0.982670 0.000000
0.814900 0.982670 0.000000
0.834020 0.982670 0.000000
0.850055 0.982670 0.000000
0.863856 0.982670 0.000000
0.875964 0.982670 0.000000
0.886746 0.982670 0.000000
0.896461 0.982670 0.000000
0.905301 0.982670 0.000000
0.913406 0.982670 0.000000
0.920890 0.982670 0.000000
0.927839 0.982670 0.000000
0.934325 0.982670 0.000000
0.940404 0.982670 0.000000
0.946125 0.982670 0.000000
0.951525 0.982670 0.000000
0.956640 0.982670 0.000000
0.961497 0.982670 0.000000
0.966121 0.982670 0.000000
0.970533 0.982670 0.000000
0.974752 0.982670 0.000000
0.978792 0.982670 0.000000
0.982670 0.982670 0.000000
0.986396 0.982670 0.000000
0.989983 0.982670 0.000000
0.993440 0.982670 0.000000
0.996776 0.982670 0.000000
1.000000 0.982670 0.000000
0.000000 0.986396 0.000000
0.638215 0.986396 0.000000
0.716489 0.986396 0.000000
0.760498 0.986396 0.000000
0.791259 0.986396 0.000000
0.814900 0.986396 0.000000
0.834020 0.986396 0.000000
0.850055 0.986396 0.000000
0.863856 0.986396 0.000000
0.875964 0.986396 0.000000
0.886746 0.986396 0.000000
0.896461 0.986396 0.000000
0.905301 0.986396 0.000000
0.913406 0.986396 0.000000
0.920890 0.986396 0.000000
0.927839 0.986396 0.000000
0.934325 0.986396 0.000000
0.940404 0.986396 0.000000
0.946125 0.986396 0.000000
0.951525 0.986396 0.000000
0.956640 0.986396 0.000000
