.nuke/nuke.LUT/linear-2-logC_exteded/AlexaV3_EI0640_Linear2LogC_EE_nuke3d.cube
# Alexa conversion LUT, lin2logc. Full in/full out.
# created by alexalutconv (2.07)
LUT_3D_SIZE 32
0.000000 0.000000 0.000000
0.550699 0.000000 0.000000
0.632551 0.000000 0.000000
0.678704 0.000000 0.000000
0.710997 0.000000 0.000000
0.735859 0.000000 0.000000
0.756079 0.000000 0.000000
0.773121 0.000000 0.000000
0.787848 0.000000 0.000000
0.800816 0.000000 0.000000
0.812400 0.000000 0.000000
0.822867 0.000000 0.000000
0.832414 0.000000 0.000000
0.841190 0.000000 0.000000
0.849309 0.000000 0.000000
0.856864 0.000000 0.000000
0.863928 0.000000 0.000000
0.870560 0.000000 0.000000
0.876811 0.000000 0.000000
0.882721 0.000000 0.000000
0.888327 0.000000 0.000000
0.893657 0.000000 0.000000
0.898739 0.000000 0.000000
0.903593 0.000000 0.000000
0.908240 0.000000 0.000000
0.912696 0.000000 0.000000
0.916977 0.000000 0.000000
0.921095 0.000000 0.000000
0.925063 0.000000 0.000000
0.928891 0.000000 0.000000
0.932589 0.000000 0.000000
0.936165 0.000000 0.000000
0.000000 0.550699 0.000000
0.550699 0.550699 0.000000
0.632551 0.550699 0.000000
0.678704 0.550699 0.000000
0.710997 0.550699 0.000000
0.735859 0.550699 0.000000
0.756079 0.550699 0.000000
0.773121 0.550699 0.000000
0.787848 0.550699 0.000000
0.800816 0.550699 0.000000
0.812400 0.550699 0.000000
0.822867 0.550699 0.000000
0.832414 0.550699 0.000000
0.841190 0.550699 0.000000
0.849309 0.550699 0.000000
0.856864 0.550699 0.000000
0.863928 0.550699 0.000000
0.870560 0.550699 0.000000
0.876811 0.550699 0.000000
0.882721 0.550699 0.000000
0.888327 0.550699 0.000000
0.893657 0.550699 0.000000
0.898739 0.550699 0.000000
0.903593 0.550699 0.000000
0.908240 0.550699 0.000000
0.912696 0.550699 0.000000
0.916977 0.550699 0.000000
0.921095 0.550699 0.000000
0.925063 0.550699 0.000000
0.928891 0.550699 0.000000
0.932589 0.550699 0.000000
0.936165 0.550699 0.000000
0.000000 0.632551 0.000000
0.550699 0.632551 0.000000
0.632551 0.632551 0.000000
0.678704 0.632551 0.000000
0.710997 0.632551 0.000000
0.735859 0.632551 0.000000
0.756079 0.632551 0.000000
0.773121 0.632551 0.000000
0.787848 0.632551 0.000000
0.800816 0.632551 0.000000
0.812400 0.632551 0.000000
0.822867 0.632551 0.000000
0.832414 0.632551 0.000000
0.841190 0.632551 0.000000
0.849309 0.632551 0.000000
0.856864 0.632551 0.000000
0.863928 0.632551 0.000000
0.870560 0.632551 0.000000
0.876811 0.632551 0.000000
0.882721 0.632551 0.000000
0.888327 0.632551 0.000000
0.893657 0.632551 0.000000
0.898739 0.632551 0.000000
0.903593 0.632551 0.000000
0.908240 0.632551 0.000000
0.912696 0.632551 0.000000
0.916977 0.632551 0.000000
0.921095 0.632551 0.000000
0.925063 0.632551 0.000000
0.928891 0.632551 0.000000
0.932589 0.632551 0.000000
0.936165 0.632551 0.000000
0.000000 0.678704 0.000000
0.550699 0.678704 0.000000
0.632551 0.678704 0.000000
0.678704 0.678704 0.000000
0.710997 0.678704 0.000000
0.735859 0.678704 0.000000
0.756079 0.678704 0.000000
0.773121 0.678704 0.000000
0.787848 0.678704 0.000000
0.800816 0.678704 0.000000
0.812400 0.678704 0.000000
0.822867 0.678704 0.000000
0.832414 0.678704 0.000000
0.841190 0.678704 0.000000
0.849309 0.678704 0.000000
0.856864 0.678704 0.000000
0.863928 0.678704 0.000000
0.870560 0.678704 0.000000
0.876811 0.678704 0.000000
0.882721 0.678704 0.000000
0.888327 0.678704 0.000000
0.893657 0.678704 0.000000
0.898739 0.678704 0.000000
0.903593 0.678704 0.000000
0.908240 0.678704 0.000000
0.912696 0.678704 0.000000
0.916977 0.678704 0.000000
0.921095 0.678704 0.000000
0.925063 0.678704 0.000000
0.928891 0.678704 0.000000
0.932589 0.678704 0.000000
0.936165 0.678704 0.000000
0.000000 0.710997 0.000000
0.550699 0.710997 0.000000
0.632551 0.710997 0.000000
0.678704 0.710997 0.000000
0.710997 0.710997 0.000000
0.735859 0.710997 0.000000
0.756079 0.710997 0.000000
0.773121 0.710997 0.000000
0.787848 0.710997 0.000000
0.800816 0.710997 0.000000
0.812400 0.710997 0.000000
0.822867 0.710997 0.000000
0.832414 0.710997 0.000000
0.841190 0.710997 0.000000
0.849309 0.710997 0.000000
0.856864 0.710997 0.000000
0.863928 0.710997 0.000000
0.870560 0.710997 0.000000
0.876811 0.710997 0.000000
0.882721 0.710997 0.000000
0.888327 0.710997 0.000000
0.893657 0.710997 0.000000
0.898739 0.710997 0.000000
0.903593 0.710997 0.000000
0.908240 0.710997 0.000000
0.912696 0.710997 0.000000
0.916977 0.710997 0.000000
0.921095 0.710997 0.000000
0.925063 0.710997 0.000000
0.928891 0.710997 0.000000
0.932589 0.710997 0.000000
0.936165 0.710997 0.000000
0.000000 0.735859 0.000000
0.550699 0.735859 0.000000
0.632551 0.735859 0.000000
0.678704 0.735859 0.000000
0.710997 0.735859 0.000000
0.735859 0.735859 0.000000
0.756079 0.735859 0.000000
0.773121 0.735859 0.000000
0.787848 0.735859 0.000000
0.800816 0.735859 0.000000
0.812400 0.735859 0.000000
0.822867 0.735859 0.000000
0.832414 0.735859 0.000000
0.841190 0.735859 0.000000
0.849309 0.735859 0.000000
0.856864 0.735859 0.000000
0.863928 0.735859 0.000000
0.870560 0.735859 0.000000
0.876811 0.735859 0.000000
0.882721 0.735859 0.000000
0.888327 0.735859 0.000000
0.893657 0.735859 0.000000
0.898739 0.735859 0.000000
0.903593 0.735859 0.000000
0.908240 0.735859 0.000000
0.912696 0.735859 0.000000
0.916977 0.735859 0.000000
0.921095 0.735859 0.000000
0.925063 0.735859 0.000000
0.928891 0.735859 0.000000
0.932589 0.735859 0.000000
0.936165 0.735859 0.000000
0.000000 0.756079 0.000000
0.550699 0.756079 0.000000
0.632551 0.756079 0.000000
0.678704 0.756079 0.000000
0.710997 0.756079 0.000000
0.735859 0.756079 0.000000
0.756079 0.756079 0.000000
0.773121 0.756079 0.000000
0.787848 0.756079 0.000000
0.800816 0.756079 0.000000
0.812400 0.756079 0.000000
0.822867 0.756079 0.000000
0.832414 0.756079 0.000000
0.841190 0.756079 0.000000
0.849309 0.756079 0.000000
0.856864 0.756079 0.000000
0.863928 0.756079 0.000000
0.870560 0.756079 0.000000
0.876811 0.756079 0.000000
0.882721 0.756079 0.000000
0.888327 0.756079 0.000000
0.893657 0.756079 0.000000
0.898739 0.756079 0.000000
0.903593 0.756079 0.000000
0.908240 0.756079 0.000000
0.912696 0.756079 0.000000
0.916977 0.756079 0.000000
0.921095 0.756079 0.000000
0.925063 0.756079 0.000000
0.928891 0.756079 0.000000
0.932589 0.756079 0.000000
0.936165 0.756079 0.000000
0.000000 0.773121 0.000000
0.550699 0.773121 0.000000
0.632551 0.773121 0.000000
0.678704 0.773121 0.000000
0.710997 0.773121 0.000000
0.735859 0.773121 0.000000
0.756079 0.773121 0.000000
0.773121 0.773121 0.000000
0.787848 0.773121 0.000000
0.800816 0.773121 0.000000
0.812400 0.773121 0.000000
0.822867 0.773121 0.000000
0.832414 0.773121 0.000000
0.841190 0.773121 0.000000
0.849309 0.773121 0.000000
0.856864 0.773121 0.000000
0.863928 0.773121 0.000000
0.870560 0.773121 0.000000
0.876811 0.773121 0.000000
0.882721 0.773121 0.000000
0.888327 0.773121 0.000000
0.893657 0.773121 0.000000
0.898739 0.773121 0.000000
0.903593 0.773121 0.000000
0.908240 0.773121 0.000000
0.912696 0.773121 0.000000
0.916977 0.773121 0.000000
0.921095 0.773121 0.000000
0.925063 0.773121 0.000000
0.928891 0.773121 0.000000
0.932589 0.773121 0.000000
0.936165 0.773121 0.000000
0.000000 0.787848 0.000000
0.550699 0.787848 0.000000
0.632551 0.787848 0.000000
0.678704 0.787848 0.000000
0.710997 0.787848 0.000000
0.735859 0.787848 0.000000
0.756079 0.787848 0.000000
0.773121 0.787848 0.000000
0.787848 0.787848 0.000000
0.800816 0.787848 0.000000
0.812400 0.787848 0.000000
0.822867 0.787848 0.000000
0.832414 0.787848 0.000000
0.841190 0.787848 0.000000
0.849309 0.787848 0.000000
0.856864 0.787848 0.000000
0.863928 0.787848 0.000000
0.870560 0.787848 0.000000
0.876811 0.787848 0.000000
0.882721 0.787848 0.000000
0.888327 0.787848 0.000000
0.893657 0.787848 0.000000
0.898739 0.787848 0.000000
0.903593 0.787848 0.000000
0.908240 0.787848 0.000000
0.912696 0.787848 0.000000
0.916977 0.787848 0.000000
0.921095 0.787848 0.000000
0.925063 0.787848 0.000000
0.928891 0.787848 0.000000
0.932589 0.787848 0.000000
0.936165 0.787848 0.000000
0.000000 0.800816 0.000000
0.550699 0.800816 0.000000
0.632551 0.800816 0.000000
0.678704 0.800816 0.000000
0.710997 0.800816 0.000000
0.735859 0.800816 0.000000
0.756079 0.800816 0.000000
0.773121 0.800816 0.000000
0.787848 0.800816 0.000000
0.800816 0.800816 0.000000
0.812400 0.800816 0.000000
0.822867 0.800816 0.000000
0.832414 0.800816 0.000000
0.841190 0.800816 0.000000
0.849309 0.800816 0.000000
0.856864 0.800816 0.000000
0.863928 0.800816 0.000000
0.870560 0.800816 0.000000
0.876811 0.800816 0.000000
0.882721 0.800816 0.000000
0.888327 0.800816 0.000000
0.893657 0.800816 0.000000
0.898739 0.800816 0.000000
0.903593 0.800816 0.000000
0.908240 0.800816 0.000000
0.912696 0.800816 0.000000
0.916977 0.800816 0.000000
0.921095 0.800816 0.000000
0.925063 0.800816 0.000000
0.928891 0.800816 0.000000
0.932589 0.800816 0.000000
0.936165 0.800816 0.000000
0.000000 0.812400 0.000000
0.550699 0.812400 0.000000
0.632551 0.812400 0.000000
0.678704 0.812400 0.000000
0.710997 0.812400 0.000000
0.735859 0.812400 0.000000
0.756079 0.812400 0.000000
0.773121 0.812400 0.000000
0.787848 0.812400 0.000000
0.800816 0.812400 0.000000
0.812400 0.812400 0.000000
0.822867 0.812400 0.000000
0.832414 0.812400 0.000000
0.841190 0.812400 0.000000
0.849309 0.812400 0.000000
0.856864 0.812400 0.000000
0.863928 0.812400 0.000000
0.870560 0.812400 0.000000
0.876811 0.812400 0.000000
0.882721 0.812400 0.000000
0.888327 0.812400 0.000000
0.893657 0.812400 0.000000
0.898739 0.812400 0.000000
0.903593 0.812400 0.000000
0.908240 0.812400 0.000000
0.912696 0.812400 0.000000
0.916977 0.812400 0.000000
0.921095 0.812400 0.000000
0.925063 0.812400 0.000000
0.928891 0.812400 0.000000
0.932589 0.812400 0.000000
0.936165 0.812400 0.000000
0.000000 0.822867 0.000000
0.550699 0.822867 0.000000
0.632551 0.822867 0.000000
0.678704 0.822867 0.000000
0.710997 0.822867 0.000000
0.735859 0.822867 0.000000
0.756079 0.822867 0.000000
0.773121 0.822867 0.000000
0.787848 0.822867 0.000000
0.800816 0.822867 0.000000
0.812400 0.822867 0.000000
0.822867 0.822867 0.000000
0.832414 0.822867 0.000000
0.841190 0.822867 0.000000
0.849309 0.822867 0.000000
0.856864 0.822867 0.000000
0.863928 0.822867 0.000000
0.870560 0.822867 0.000000
0.876811 0.822867 0.000000
0.882721 0.822867 0.000000
0.888327 0.822867 0.000000
0.893657 0.822867 0.000000
0.898739 0.822867 0.000000
0.903593 0.822867 0.000000
0.908240 0.822867 0.000000
0.912696 0.822867 0.000000
0.916977 0.822867 0.000000
0.921095 0.822867 0.000000
0.925063 0.822867 0.000000
0.928891 0.822867 0.000000
0.932589 0.822867 0.000000
0.936165 0.822867 0.000000
0.000000 0.832414 0.000000
0.550699 0.832414 0.000000
0.632551 0.832414 0.000000
0.678704 0.832414 0.000000
0.710997 0.832414 0.000000
0.735859 0.832414 0.000000
0.756079 0.832414 0.000000
0.773121 0.832414 0.000000
0.787848 0.832414 0.000000
0.800816 0.832414 0.000000
0.812400 0.832414 0.000000
0.822867 0.832414 0.000000
0.832414 0.832414 0.000000
0.841190 0.832414 0.000000
0.849309 0.832414 0.000000
0.856864 0.832414 0.000000
0.863928 0.832414 0.000000
0.870560 0.832414 0.000000
0.876811 0.832414 0.000000
0.882721 0.832414 0.000000
0.888327 0.832414 0.000000
0.893657 0.832414 0.000000
0.898739 0.832414 0.000000
0.903593 0.832414 0.000000
0.908240 0.832414 0.000000
0.912696 0.832414 0.000000
0.916977 0.832414 0.000000
0.921095 0.832414 0.000000
0.925063 0.832414 0.000000
0.928891 0.832414 0.000000
0.932589 0.832414 0.000000
0.936165 0.832414 0.000000
0.000000 0.841190 0.000000
0.550699 0.841190 0.000000
0.632551 0.841190 0.000000
0.678704 0.841190 0.000000
0.710997 0.841190 0.000000
0.735859 0.841190 0.000000
0.756079 0.841190 0.000000
0.773121 0.841190 0.000000
0.787848 0.841190 0.000000
0.800816 0.841190 0.000000
0.812400 0.841190 0.000000
0.822867 0.841190 0.000000
0.832414 0.841190 0.000000
0.841190 0.841190 0.000000
0.849309 0.841190 0.000000
0.856864 0.841190 0.000000
0.863928 0.841190 0.000000
0.870560 0.841190 0.000000
0.876811 0.841190 0.000000
0.882721 0.841190 0.000000
0.888327 0.841190 0.000000
0.893657 0.841190 0.000000
0.898739 0.841190 0.000000
0.903593 0.841190 0.000000
0.908240 0.841190 0.000000
0.912696 0.841190 0.000000
0.916977 0.841190 0.000000
0.921095 0.841190 0.000000
0.925063 0.841190 0.000000
0.928891 0.841190 0.000000
0.932589 0.841190 0.000000
0.936165 0.841190 0.000000
0.000000 0.849309 0.000000
0.550699 0.849309 0.000000
0.632551 0.849309 0.000000
0.678704 0.849309 0.000000
0.710997 0.849309 0.000000
0.735859 0.849309 0.000000
0.756079 0.849309 0.000000
0.773121 0.849309 0.000000
0.787848 0.849309 0.000000
0.800816 0.849309 0.000000
0.812400 0.849309 0.000000
0.822867 0.849309 0.000000
0.832414 0.849309 0.000000
0.841190 0.849309 0.000000
0.849309 0.849309 0.000000
0.856864 0.849309 0.000000
0.863928 0.849309 0.000000
0.870560 0.849309 0.000000
0.876811 0.849309 0.000000
0.882721 0.849309 0.000000
0.888327 0.849309 0.000000
0.893657 0.849309 0.000000
0.898739 0.849309 0.000000
0.903593 0.849309 0.000000
0.908240 0.849309 0.000000
0.912696 0.849309 0.000000
0.916977 0.849309 0.000000
0.921095 0.849309 0.000000
0.925063 0.849309 0.000000
0.928891 0.849309 0.000000
0.932589 0.849309 0.000000
0.936165 0.849309 0.000000
0.000000 0.856864 0.000000
0.550699 0.856864 0.000000
0.632551 0.856864 0.000000
0.678704 0.856864 0.000000
0.710997 0.856864 0.000000
0.735859 0.856864 0.000000
0.756079 0.856864 0.000000
0.773121 0.856864 0.000000
0.787848 0.856864 0.000000
0.800816 0.856864 0.000000
0.812400 0.856864 0.000000
0.822867 0.856864 0.000000
0.832414 0.856864 0.000000
0.841190 0.856864 0.000000
0.849309 0.856864 0.000000
0.856864 0.856864 0.000000
0.863928 0.856864 0.000000
0.870560 0.856864 0.000000
0.876811 0.856864 0.000000
0.882721 0.856864 0.000000
0.888327 0.856864 0.000000
0.893657 0.856864 0.000000
0.898739 0.856864 0.000000
0.903593 0.856864 0.000000
0.908240 0.856864 0.000000
0.912696 0.856864 0.000000
0.916977 0.856864 0.000000
0.921095 0.856864 0.000000
0.925063 0.856864 0.000000
0.928891 0.856864 0.000000
0.932589 0.856864 0.000000
0.936165 0.856864 0.000000
0.000000 0.863928 0.000000
0.550699 0.863928 0.000000
0.632551 0.863928 0.000000
0.678704 0.863928 0.000000
0.710997 0.863928 0.000000
0.735859 0.863928 0.000000
0.756079 0.863928 0.000000
0.773121 0.863928 0.000000
0.787848 0.863928 0.000000
0.800816 0.863928 0.000000
0.812400 0.863928 0.000000
0.822867 0.863928 0.000000
0.832414 0.863928 0.000000
0.841190 0.863928 0.000000
0.849309 0.863928 0.000000
0.856864 0.863928 0.000000
0.863928 0.863928 0.000000
0.870560 0.863928 0.000000
0.876811 0.863928 0.000000
0.882721 0.863928 0.000000
0.888327 0.863928 0.000000
0.893657 0.863928 0.000000
0.898739 0.863928 0.000000
0.903593 0.863928 0.000000
0.908240 0.863928 0.000000
0.912696 0.863928 0.000000
0.916977 0.863928 0.000000
0.921095 0.863928 0.000000
0.925063 0.863928 0.000000
0.928891 0.863928 0.000000
0.932589 0.863928 0.000000
0.936165 0.863928 0.000000
0.000000 0.870560 0.000000
0.550699 0.870560 0.000000
0.632551 0.870560 0.000000
0.678704 0.870560 0.000000
0.710997 0.870560 0.000000
0.735859 0.870560 0.000000
0.756079 0.870560 0.000000
0.773121 0.870560 0.000000
0.787848 0.870560 0.000000
0.800816 0.870560 0.000000
0.812400 0.870560 0.000000
0.822867 0.870560 0.000000
0.832414 0.870560 0.000000
0.841190 0.870560 0.000000
0.849309 0.870560 0.000000
0.856864 0.870560 0.000000
0.863928 0.870560 0.000000
0.870560 0.870560 0.000000
0.876811 0.870560 0.000000
0.882721 0.870560 0.000000
0.888327 0.870560 0.000000
0.893657 0.870560 0.000000
0.898739 0.870560 0.000000
0.903593 0.870560 0.000000
0.908240 0.870560 0.000000
0.912696 0.870560 0.000000
0.916977 0.870560 0.000000
0.921095 0.870560 0.000000
0.925063 0.870560 0.000000
0.928891 0.870560 0.000000
0.932589 0.870560 0.000000
0.936165 0.870560 0.000000
0.000000 0.876811 0.000000
0.550699 0.876811 0.000000
0.632551 0.876811 0.000000
0.678704 0.876811 0.000000
0.710997 0.876811 0.000000
0.735859 0.876811 0.000000
0.756079 0.876811 0.000000
0.773121 0.876811 0.000000
0.787848 0.876811 0.000000
0.800816 0.876811 0.000000
0.812400 0.876811 0.000000
0.822867 0.876811 0.000000
0.832414 0.876811 0.000000
0.841190 0.876811 0.000000
0.849309 0.876811 0.000000
0.856864 0.876811 0.000000
0.863928 0.876811 0.000000
0.870560 0.876811 0.000000
0.876811 0.876811 0.000000
0.882721 0.876811 0.000000
0.888327 0.876811 0.000000
0.893657 0.876811 0.000000
0.898739 0.876811 0.000000
0.903593 0.876811 0.000000
0.908240 0.876811 0.000000
0.912696 0.876811 0.000000
0.916977 0.876811 0.000000
0.921095 0.876811 0.000000
0.925063 0.876811 0.000000
0.928891 0.876811 0.000000
0.932589 0.876811 0.000000
0.936165 0.876811 0.000000
0.000000 0.882721 0.000000
0.550699 0.882721 0.000000
0.632551 0.882721 0.000000
0.678704 0.882721 0.000000
0.710997 0.882721 0.000000
0.735859 0.882721 0.000000
0.756079 0.882721 0.000000
0.773121 0.882721 0.000000
0.787848 0.882721 0.000000
0.800816 0.882721 0.000000
0.812400 0.882721 0.000000
0.822867 0.882721 0.000000
0.832414 0.882721 0.000000
0.841190 0.882721 0.000000
0.849309 0.882721 0.000000
0.856864 0.882721 0.000000
0.863928 0.882721 0.000000
0.870560 0.882721 0.000000
0.876811 0.882721 0.000000
0.882721 0.882721 0.000000
0.888327 0.882721 0.000000
0.893657 0.882721 0.000000
0.898739 0.882721 0.000000
0.903593 0.882721 0.000000
0.908240 0.882721 0.000000
0.912696 0.882721 0.000000
0.916977 0.882721 0.000000
0.921095 0.882721 0.000000
0.925063 0.882721 0.000000
0.928891 0.882721 0.000000
0.932589 0.882721 0.000000
0.936165 0.882721 0.000000
0.000000 0.888327 0.000000
0.550699 0.888327 0.000000
0.632551 0.888327 0.000000
0.678704 0.888327 0.000000
0.710997 0.888327 0.000000
0.735859 0.888327 0.000000
0.756079 0.888327 0.000000
0.773121 0.888327 0.000000
0.787848 0.888327 0.000000
0.800816 0.888327 0.000000
0.812400 0.888327 0.000000
0.822867 0.888327 0.000000
0.832414 0.888327 0.000000
0.841190 0.888327 0.000000
0.849309 0.888327 0.000000
0.856864 0.888327 0.000000
0.863928 0.888327 0.000000
0.870560 0.888327 0.000000
0.876811 0.888327 0.000000
0.882721 0.888327 0.000000
0.888327 0.888327 0.000000
0.893657 0.888327 0.000000
0.898739 0.888327 0.000000
0.903593 0.888327 0.000000
0.908240 0.888327 0.000000
0.912696 0.888327 0.000000
0.916977 0.888327 0.000000
0.921095 0.888327 0.000000
0.925063 0.888327 0.000000
0.928891 0.888327 0.000000
0.932589 0.888327 0.000000
0.936165 0.888327 0.000000
0.000000 0.893657 0.000000
0.550699 0.893657 0.000000
0.632551 0.893657 0.000000
0.678704 0.893657 0.000000
0.710997 0.893657 0.000000
0.735859 0.893657 0.000000
0.756079 0.893657 0.000000
0.773121 0.893657 0.000000
0.787848 0.893657 0.000000
0.800816 0.893657 0.000000
0.812400 0.893657 0.000000
0.822867 0.893657 0.000000
0.832414 0.893657 0.000000
0.841190 0.893657 0.000000
0.849309 0.893657 0.000000
0.856864 0.893657 0.000000
0.863928 0.893657 0.000000
0.870560 0.893657 0.000000
0.876811 0.893657 0.000000
0.882721 0.893657 0.000000
0.888327 0.893657 0.000000
0.893657 0.893657 0.000000
0.898739 0.893657 0.000000
0.903593 0.893657 0.000000
0.908240 0.893657 0.000000
0.912696 0.893657 0.000000
0.916977 0.893657 0.000000
0.921095 0.893657 0.000000
0.925063 0.893657 0.000000
0.928891 0.893657 0.000000
0.932589 0.893657 0.000000
0.936165 0.893657 0.000000
0.000000 0.898739 0.000000
0.550699 0.898739 0.000000
0.632551 0.898739 0.000000
0.678704 0.898739 0.000000
0.710997 0.898739 0.000000
0.735859 0.898739 0.000000
0.756079 0.898739 0.000000
0.773121 0.898739 0.000000
0.787848 0.898739 0.000000
0.800816 0.898739 0.000000
0.812400 0.898739 0.000000
0.822867 0.898739 0.000000
0.832414 0.898739 0.000000
0.841190 0.898739 0.000000
0.849309 0.898739 0.000000
0.856864 0.898739 0.000000
0.863928 0.898739 0.000000
0.870560 0.898739 0.000000
0.876811 0.898739 0.000000
0.882721 0.898739 0.000000
0.888327 0.898739 0.000000
0.893657 0.898739 0.000000
0.898739 0.898739 0.000000
0.903593 0.898739 0.000000
0.908240 0.898739 0.000000
0.912696 0.898739 0.000000
0.916977 0.898739 0.000000
0.921095 0.898739 0.000000
0.925063 0.898739 0.000000
0.928891 0.898739 0.000000
0.932589 0.898739 0.000000
0.936165 0.898739 0.000000
0.000000 0.903593 0.000000
0.550699 0.903593 0.000000
0.632551 0.903593 0.000000
0.678704 0.903593 0.000000
0.710997 0.903593 0.000000
0.735859 0.903593 0.000000
0.756079 0.903593 0.000000
0.773121 0.903593 0.000000
0.787848 0.903593 0.000000
0.800816 0.903593 0.000000
0.812400 0.903593 0.000000
0.822867 0.903593 0.000000
0.832414 0.903593 0.000000
0.841190 0.903593 0.000000
0.849309 0.903593 0.000000
0.856864 0.903593 0.000000
0.863928 0.903593 0.000000
0.870560 0.903593 0.000000
0.876811 0.903593 0.000000
0.882721 0.903593 0.000000
0.888327 0.903593 0.000000
0.893657 0.903593 0.000000
0.898739 0.903593 0.000000
0.903593 0.903593 0.000000
0.908240 0.903593 0.000000
0.912696 0.903593 0.000000
0.916977 0.903593 0.000000
0.921095 0.903593 0.000000
0.925063 0.903593 0.000000
0.928891 0.903593 0.000000
0.932589 0.903593 0.000000
0.936165 0.903593 0.000000
0.000000 0.908240 0.000000
0.550699 0.908240 0.000000
0.632551 0.908240 0.000000
0.678704 0.908240 0.000000
0.710997 0.908240 0.000000
0.735859 0.908240 0.000000
0.756079 0.908240 0.000000
0.773121 0.908240 0.000000
0.787848 0.908240 0.000000
0.800816 0.908240 0.000000
0.812400 0.908240 0.000000
0.822867 0.908240 0.000000
0.832414 0.908240 0.000000
0.841190 0.908240 0.000000
0.849309 0.908240 0.000000
0.856864 0.908240 0.000000
0.863928 0.908240 0.000000
0.870560 0.908240 0.000000
0.876811 0.908240 0.000000
0.882721 0.908240 0.000000
0.888327 0.908240 0.000000
0.893657 0.908240 0.000000
0.898739 0.908240 0.000000
0.903593 0.908240 0.000000
0.908240 0.908240 0.000000
0.912696 0.908240 0.000000
0.916977 0.908240 0.000000
0.921095 0.908240 0.000000
0.925063 0.908240 0.000000
0.928891 0.908240 0.000000
0.932589 0.908240 0.000000
0.936165 0.908240 0.000000
0.000000 0.912696 0.000000
0.550699 0.912696 0.000000
0.632551 0.912696 0.000000
0.678704 0.912696 0.000000
0.710997 0.912696 0.000000
0.735859 0.912696 0.000000
0.756079 0.912696 0.000000
0.773121 0.912696 0.000000
0.787848 0.912696 0.000000
0.800816 0.912696 0.000000
0.812400 0.912696 0.000000
0.822867 0.912696 0.000000
0.832414 0.912696 0.000000
0.841190 0.912696 0.000000
0.849309 0.912696 0.000000
0.856864 0.912696 0.000000
0.863928 0.912696 0.000000
0.870560 0.912696 0.000000
0.876811 0.912696 0.000000
0.882721 0.912696 0.000000
0.888327 0.912696 0.000000
0.893657 0.912696 0.000000
0.898739 0.912696 0.000000
0.903593 0.912696 0.000000
0.908240 0.912696 0.000000
0.912696 0.912696 0.000000
0.916977 0.912696 0.000000
0.921095 0.912696 0.000000
0.925063 0.912696 0.000000
0.928891 0.912696 0.000000
0.932589 0.912696 0.000000
0.936165 0.912696 0.000000
0.000000 0.916977 0.000000
0.550699 0.916977 0.000000
0.632551 0.916977 0.000000
0.678704 0.916977 0.000000
0.710997 0.916977 0.000000
0.735859 0.916977 0.000000
0.756079 0.916977 0.000000
0.773121 0.916977 0.000000
0.787848 0.916977 0.000000
0.800816 0.916977 0.000000
0.812400 0.916977 0.000000
0.822867 0.916977 0.000000
0.832414 0.916977 0.000000
0.841190 0.916977 0.000000
0.849309 0.916977 0.000000
0.856864 0.916977 0.000000
0.863928 0.916977 0.000000
0.870560 0.916977 0.000000
0.876811 0.916977 0.000000
0.882721 0.916977 0.000000
0.888327 0.916977 0.000000
0.893657 0.916977 0.000000
0.898739 0.916977 0.000000
0.903593 0.916977 0.000000
0.908240 0.916977 0.000000
0.912696 0.916977 0.000000
0.916977 0.916977 0.000000
0.921095 0.916977 0.000000
0.925063 0.916977 0.000000
0.928891 0.916977 0.000000
0.932589 0.916977 0.000000
0.936165 0.916977 0.000000
0.000000 0.921095 0.000000
0.550699 0.921095 0.000000
0.632551 0.921095 0.000000
0.678704 0.921095 0.000000
0.710997 0.921095 0.000000
0.735859 0.921095 0.000000
0.756079 0.921095 0.000000
0.773121 0.921095 0.000000
0.787848 0.921095 0.000000
0.800816 0.921095 0.000000
0.812400 0.921095 0.000000
0.822867 0.921095 0.000000
0.832414 0.921095 0.000000
0.841190 0.921095 0.000000
0.849309 0.921095 0.000000
0.856864 0.921095 0.000000
0.863928 0.921095 0.000000
0.870560 0.921095 0.000000
0.876811 0.921095 0.000000
0.882721 0.921095 0.000000
0.888327 0.921095 0.000000
