.nuke/nuke.LUT/linear-2-logC_exteded/AlexaV3_EI0500_Linear2LogC_EE_nuke3d.cube
# Alexa conversion LUT, lin2logc. Full in/full out.
# created by alexalutconv (2.07)
LUT_3D_SIZE 32
0.000000 0.000000 0.000000
0.525701 0.000000 0.000000
0.608376 0.000000 0.000000
0.655063 0.000000 0.000000
0.687747 0.000000 0.000000
0.712919 0.000000 0.000000
0.733393 0.000000 0.000000
0.750652 0.000000 0.000000
0.765568 0.000000 0.000000
0.778703 0.000000 0.000000
0.790437 0.000000 0.000000
0.801040 0.000000 0.000000
0.810711 0.000000 0.000000
0.819601 0.000000 0.000000
0.827827 0.000000 0.000000
0.835480 0.000000 0.000000
0.842637 0.000000 0.000000
0.849357 0.000000 0.000000
0.855689 0.000000 0.000000
0.861678 0.000000 0.000000
0.867357 0.000000 0.000000
0.872758 0.000000 0.000000
0.877906 0.000000 0.000000
0.882824 0.000000 0.000000
0.887533 0.000000 0.000000
0.892048 0.000000 0.000000
0.896385 0.000000 0.000000
0.900558 0.000000 0.000000
0.904578 0.000000 0.000000
0.908457 0.000000 0.000000
0.912204 0.000000 0.000000
0.915827 0.000000 0.000000
0.000000 0.525701 0.000000
0.525701 0.525701 0.000000
0.608376 0.525701 0.000000
0.655063 0.525701 0.000000
0.687747 0.525701 0.000000
0.712919 0.525701 0.000000
0.733393 0.525701 0.000000
0.750652 0.525701 0.000000
0.765568 0.525701 0.000000
0.778703 0.525701 0.000000
0.790437 0.525701 0.000000
0.801040 0.525701 0.000000
0.810711 0.525701 0.000000
0.819601 0.525701 0.000000
0.827827 0.525701 0.000000
0.835480 0.525701 0.000000
0.842637 0.525701 0.000000
0.849357 0.525701 0.000000
0.855689 0.525701 0.000000
0.861678 0.525701 0.000000
0.867357 0.525701 0.000000
0.872758 0.525701 0.000000
0.877906 0.525701 0.000000
0.882824 0.525701 0.000000
0.887533 0.525701 0.000000
0.892048 0.525701 0.000000
0.896385 0.525701 0.000000
0.900558 0.525701 0.000000
0.904578 0.525701 0.000000
0.908457 0.525701 0.000000
0.912204 0.525701 0.000000
0.915827 0.525701 0.000000
0.000000 0.608376 0.000000
0.525701 0.608376 0.000000
0.608376 0.608376 0.000000
0.655063 0.608376 0.000000
0.687747 0.608376 0.000000
0.712919 0.608376 0.000000
0.733393 0.608376 0.000000
0.750652 0.608376 0.000000
0.765568 0.608376 0.000000
0.778703 0.608376 0.000000
0.790437 0.608376 0.000000
0.801040 0.608376 0.000000
0.810711 0.608376 0.000000
0.819601 0.608376 0.000000
0.827827 0.608376 0.000000
0.835480 0.608376 0.000000
0.842637 0.608376 0.000000
0.849357 0.608376 0.000000
0.855689 0.608376 0.000000
0.861678 0.608376 0.000000
0.867357 0.608376 0.000000
0.872758 0.608376 0.000000
0.877906 0.608376 0.000000
0.882824 0.608376 0.000000
0.887533 0.608376 0.000000
0.892048 0.608376 0.000000
0.896385 0.608376 0.000000
0.900558 0.608376 0.000000
0.904578 0.608376 0.000000
0.908457 0.608376 0.000000
0.912204 0.608376 0.000000
0.915827 0.608376 0.000000
0.000000 0.655063 0.000000
0.525701 0.655063 0.000000
0.608376 0.655063 0.000000
0.655063 0.655063 0.000000
0.687747 0.655063 0.000000
0.712919 0.655063 0.000000
0.733393 0.655063 0.000000
0.750652 0.655063 0.000000
0.765568 0.655063 0.000000
0.778703 0.655063 0.000000
0.790437 0.655063 0.000000
0.801040 0.655063 0.000000
0.810711 0.655063 0.000000
0.819601 0.655063 0.000000
0.827827 0.655063 0.000000
0.835480 0.655063 0.000000
0.842637 0.655063 0.000000
0.849357 0.655063 0.000000
0.855689 0.655063 0.000000
0.861678 0.655063 0.000000
0.867357 0.655063 0.000000
0.872758 0.655063 0.000000
0.877906 0.655063 0.000000
0.882824 0.655063 0.000000
0.887533 0.655063 0.000000
0.892048 0.655063 0.000000
0.896385 0.655063 0.000000
0.900558 0.655063 0.000000
0.904578 0.655063 0.000000
0.908457 0.655063 0.000000
0.912204 0.655063 0.000000
0.915827 0.655063 0.000000
0.000000 0.687747 0.000000
0.525701 0.687747 0.000000
0.608376 0.687747 0.000000
0.655063 0.687747 0.000000
0.687747 0.687747 0.000000
0.712919 0.687747 0.000000
0.733393 0.687747 0.000000
0.750652 0.687747 0.000000
0.765568 0.687747 0.000000
0.778703 0.687747 0.000000
0.790437 0.687747 0.000000
0.801040 0.687747 0.000000
0.810711 0.687747 0.000000
0.819601 0.687747 0.000000
0.827827 0.687747 0.000000
0.835480 0.687747 0.000000
0.842637 0.687747 0.000000
0.849357 0.687747 0.000000
0.855689 0.687747 0.000000
0.861678 0.687747 0.000000
0.867357 0.687747 0.000000
0.872758 0.687747 0.000000
0.877906 0.687747 0.000000
0.882824 0.687747 0.000000
0.887533 0.687747 0.000000
0.892048 0.687747 0.000000
0.896385 0.687747 0.000000
0.900558 0.687747 0.000000
0.904578 0.687747 0.000000
0.908457 0.687747 0.000000
0.912204 0.687747 0.000000
0.915827 0.687747 0.000000
0.000000 0.712919 0.000000
0.525701 0.712919 0.000000
0.608376 0.712919 0.000000
0.655063 0.712919 0.000000
0.687747 0.712919 0.000000
0.712919 0.712919 0.000000
0.733393 0.712919 0.000000
0.750652 0.712919 0.000000
0.765568 0.712919 0.000000
0.778703 0.712919 0.000000
0.790437 0.712919 0.000000
0.801040 0.712919 0.000000
0.810711 0.712919 0.000000
0.819601 0.712919 0.000000
0.827827 0.712919 0.000000
0.835480 0.712919 0.000000
0.842637 0.712919 0.000000
0.849357 0.712919 0.000000
0.855689 0.712919 0.000000
0.861678 0.712919 0.000000
0.867357 0.712919 0.000000
0.872758 0.712919 0.000000
0.877906 0.712919 0.000000
0.882824 0.712919 0.000000
0.887533 0.712919 0.000000
0.892048 0.712919 0.000000
0.896385 0.712919 0.000000
0.900558 0.712919 0.000000
0.904578 0.712919 0.000000
0.908457 0.712919 0.000000
0.912204 0.712919 0.000000
0.915827 0.712919 0.000000
0.000000 0.733393 0.000000
0.525701 0.733393 0.000000
0.608376 0.733393 0.000000
0.655063 0.733393 0.000000
0.687747 0.733393 0.000000
0.712919 0.733393 0.000000
0.733393 0.733393 0.000000
0.750652 0.733393 0.000000
0.765568 0.733393 0.000000
0.778703 0.733393 0.000000
0.790437 0.733393 0.000000
0.801040 0.733393 0.000000
0.810711 0.733393 0.000000
0.819601 0.733393 0.000000
0.827827 0.733393 0.000000
0.835480 0.733393 0.000000
0.842637 0.733393 0.000000
0.849357 0.733393 0.000000
0.855689 0.733393 0.000000
0.861678 0.733393 0.000000
0.867357 0.733393 0.000000
0.872758 0.733393 0.000000
0.877906 0.733393 0.000000
0.882824 0.733393 0.000000
0.887533 0.733393 0.000000
0.892048 0.733393 0.000000
0.896385 0.733393 0.000000
0.900558 0.733393 0.000000
0.904578 0.733393 0.000000
0.908457 0.733393 0.000000
0.912204 0.733393 0.000000
0.915827 0.733393 0.000000
0.000000 0.750652 0.000000
0.525701 0.750652 0.000000
0.608376 0.750652 0.000000
0.655063 0.750652 0.000000
0.687747 0.750652 0.000000
0.712919 0.750652 0.000000
0.733393 0.750652 0.000000
0.750652 0.750652 0.000000
0.765568 0.750652 0.000000
0.778703 0.750652 0.000000
0.790437 0.750652 0.000000
0.801040 0.750652 0.000000
0.810711 0.750652 0.000000
0.819601 0.750652 0.000000
0.827827 0.750652 0.000000
0.835480 0.750652 0.000000
0.842637 0.750652 0.000000
0.849357 0.750652 0.000000
0.855689 0.750652 0.000000
0.861678 0.750652 0.000000
0.867357 0.750652 0.000000
0.872758 0.750652 0.000000
0.877906 0.750652 0.000000
0.882824 0.750652 0.000000
0.887533 0.750652 0.000000
0.892048 0.750652 0.000000
0.896385 0.750652 0.000000
0.900558 0.750652 0.000000
0.904578 0.750652 0.000000
0.908457 0.750652 0.000000
0.912204 0.750652 0.000000
0.915827 0.750652 0.000000
0.000000 0.765568 0.000000
0.525701 0.765568 0.000000
0.608376 0.765568 0.000000
0.655063 0.765568 0.000000
0.687747 0.765568 0.000000
0.712919 0.765568 0.000000
0.733393 0.765568 0.000000
0.750652 0.765568 0.000000
0.765568 0.765568 0.000000
0.778703 0.765568 0.000000
0.790437 0.765568 0.000000
0.801040 0.765568 0.000000
0.810711 0.765568 0.000000
0.819601 0.765568 0.000000
0.827827 0.765568 0.000000
0.835480 0.765568 0.000000
0.842637 0.765568 0.000000
0.849357 0.765568 0.000000
0.855689 0.765568 0.000000
0.861678 0.765568 0.000000
0.867357 0.765568 0.000000
0.872758 0.765568 0.000000
0.877906 0.765568 0.000000
0.882824 0.765568 0.000000
0.887533 0.765568 0.000000
0.892048 0.765568 0.000000
0.896385 0.765568 0.000000
0.900558 0.765568 0.000000
0.904578 0.765568 0.000000
0.908457 0.765568 0.000000
0.912204 0.765568 0.000000
0.915827 0.765568 0.000000
0.000000 0.778703 0.000000
0.525701 0.778703 0.000000
0.608376 0.778703 0.000000
0.655063 0.778703 0.000000
0.687747 0.778703 0.000000
0.712919 0.778703 0.000000
0.733393 0.778703 0.000000
0.750652 0.778703 0.000000
0.765568 0.778703 0.000000
0.778703 0.778703 0.000000
0.790437 0.778703 0.000000
0.801040 0.778703 0.000000
0.810711 0.778703 0.000000
0.819601 0.778703 0.000000
0.827827 0.778703 0.000000
0.835480 0.778703 0.000000
0.842637 0.778703 0.000000
0.849357 0.778703 0.000000
0.855689 0.778703 0.000000
0.861678 0.778703 0.000000
0.867357 0.778703 0.000000
0.872758 0.778703 0.000000
0.877906 0.778703 0.000000
0.882824 0.778703 0.000000
0.887533 0.778703 0.000000
0.892048 0.778703 0.000000
0.896385 0.778703 0.000000
0.900558 0.778703 0.000000
0.904578 0.778703 0.000000
0.908457 0.778703 0.000000
0.912204 0.778703 0.000000
0.915827 0.778703 0.000000
0.000000 0.790437 0.000000
0.525701 0.790437 0.000000
0.608376 0.790437 0.000000
0.655063 0.790437 0.000000
0.687747 0.790437 0.000000
0.712919 0.790437 0.000000
0.733393 0.790437 0.000000
0.750652 0.790437 0.000000
0.765568 0.790437 0.000000
0.778703 0.790437 0.000000
0.790437 0.790437 0.000000
0.801040 0.790437 0.000000
0.810711 0.790437 0.000000
0.819601 0.790437 0.000000
0.827827 0.790437 0.000000
0.835480 0.790437 0.000000
0.842637 0.790437 0.000000
0.849357 0.790437 0.000000
0.855689 0.790437 0.000000
0.861678 0.790437 0.000000
0.867357 0.790437 0.000000
0.872758 0.790437 0.000000
0.877906 0.790437 0.000000
0.882824 0.790437 0.000000
0.887533 0.790437 0.000000
0.892048 0.790437 0.000000
0.896385 0.790437 0.000000
0.900558 0.790437 0.000000
0.904578 0.790437 0.000000
0.908457 0.790437 0.000000
0.912204 0.790437 0.000000
0.915827 0.790437 0.000000
0.000000 0.801040 0.000000
0.525701 0.801040 0.000000
0.608376 0.801040 0.000000
0.655063 0.801040 0.000000
0.687747 0.801040 0.000000
0.712919 0.801040 0.000000
0.733393 0.801040 0.000000
0.750652 0.801040 0.000000
0.765568 0.801040 0.000000
0.778703 0.801040 0.000000
0.790437 0.801040 0.000000
0.801040 0.801040 0.000000
0.810711 0.801040 0.000000
0.819601 0.801040 0.000000
0.827827 0.801040 0.000000
0.835480 0.801040 0.000000
0.842637 0.801040 0.000000
0.849357 0.801040 0.000000
0.855689 0.801040 0.000000
0.861678 0.801040 0.000000
0.867357 0.801040 0.000000
0.872758 0.801040 0.000000
0.877906 0.801040 0.000000
0.882824 0.801040 0.000000
0.887533 0.801040 0.000000
0.892048 0.801040 0.000000
0.896385 0.801040 0.000000
0.900558 0.801040 0.000000
0.904578 0.801040 0.000000
0.908457 0.801040 0.000000
0.912204 0.801040 0.000000
0.915827 0.801040 0.000000
0.000000 0.810711 0.000000
0.525701 0.810711 0.000000
0.608376 0.810711 0.000000
0.655063 0.810711 0.000000
0.687747 0.810711 0.000000
0.712919 0.810711 0.000000
0.733393 0.810711 0.000000
0.750652 0.810711 0.000000
0.765568 0.810711 0.000000
0.778703 0.810711 0.000000
0.790437 0.810711 0.000000
0.801040 0.810711 0.000000
0.810711 0.810711 0.000000
0.819601 0.810711 0.000000
0.827827 0.810711 0.000000
0.835480 0.810711 0.000000
0.842637 0.810711 0.000000
0.849357 0.810711 0.000000
0.855689 0.810711 0.000000
0.861678 0.810711 0.000000
0.867357 0.810711 0.000000
0.872758 0.810711 0.000000
0.877906 0.810711 0.000000
0.882824 0.810711 0.000000
0.887533 0.810711 0.000000
0.892048 0.810711 0.000000
0.896385 0.810711 0.000000
0.900558 0.810711 0.000000
0.904578 0.810711 0.000000
0.908457 0.810711 0.000000
0.912204 0.810711 0.000000
0.915827 0.810711 0.000000
0.000000 0.819601 0.000000
0.525701 0.819601 0.000000
0.608376 0.819601 0.000000
0.655063 0.819601 0.000000
0.687747 0.819601 0.000000
0.712919 0.819601 0.000000
0.733393 0.819601 0.000000
0.750652 0.819601 0.000000
0.765568 0.819601 0.000000
0.778703 0.819601 0.000000
0.790437 0.819601 0.000000
0.801040 0.819601 0.000000
0.810711 0.819601 0.000000
0.819601 0.819601 0.000000
0.827827 0.819601 0.000000
0.835480 0.819601 0.000000
0.842637 0.819601 0.000000
0.849357 0.819601 0.000000
0.855689 0.819601 0.000000
0.861678 0.819601 0.000000
0.867357 0.819601 0.000000
0.872758 0.819601 0.000000
0.877906 0.819601 0.000000
0.882824 0.819601 0.000000
0.887533 0.819601 0.000000
0.892048 0.819601 0.000000
0.896385 0.819601 0.000000
0.900558 0.819601 0.000000
0.904578 0.819601 0.000000
0.908457 0.819601 0.000000
0.912204 0.819601 0.000000
0.915827 0.819601 0.000000
0.000000 0.827827 0.000000
0.525701 0.827827 0.000000
0.608376 0.827827 0.000000
0.655063 0.827827 0.000000
0.687747 0.827827 0.000000
0.712919 0.827827 0.000000
0.733393 0.827827 0.000000
0.750652 0.827827 0.000000
0.765568 0.827827 0.000000
0.778703 0.827827 0.000000
0.790437 0.827827 0.000000
0.801040 0.827827 0.000000
0.810711 0.827827 0.000000
0.819601 0.827827 0.000000
0.827827 0.827827 0.000000
0.835480 0.827827 0.000000
0.842637 0.827827 0.000000
0.849357 0.827827 0.000000
0.855689 0.827827 0.000000
0.861678 0.827827 0.000000
0.867357 0.827827 0.000000
0.872758 0.827827 0.000000
0.877906 0.827827 0.000000
0.882824 0.827827 0.000000
0.887533 0.827827 0.000000
0.892048 0.827827 0.000000
0.896385 0.827827 0.000000
0.900558 0.827827 0.000000
0.904578 0.827827 0.000000
0.908457 0.827827 0.000000
0.912204 0.827827 0.000000
0.915827 0.827827 0.000000
0.000000 0.835480 0.000000
0.525701 0.835480 0.000000
0.608376 0.835480 0.000000
0.655063 0.835480 0.000000
0.687747 0.835480 0.000000
0.712919 0.835480 0.000000
0.733393 0.835480 0.000000
0.750652 0.835480 0.000000
0.765568 0.835480 0.000000
0.778703 0.835480 0.000000
0.790437 0.835480 0.000000
0.801040 0.835480 0.000000
0.810711 0.835480 0.000000
0.819601 0.835480 0.000000
0.827827 0.835480 0.000000
0.835480 0.835480 0.000000
0.842637 0.835480 0.000000
0.849357 0.835480 0.000000
0.855689 0.835480 0.000000
0.861678 0.835480 0.000000
0.867357 0.835480 0.000000
0.872758 0.835480 0.000000
0.877906 0.835480 0.000000
0.882824 0.835480 0.000000
0.887533 0.835480 0.000000
0.892048 0.835480 0.000000
0.896385 0.835480 0.000000
0.900558 0.835480 0.000000
0.904578 0.835480 0.000000
0.908457 0.835480 0.000000
0.912204 0.835480 0.000000
0.915827 0.835480 0.000000
0.000000 0.842637 0.000000
0.525701 0.842637 0.000000
0.608376 0.842637 0.000000
0.655063 0.842637 0.000000
0.687747 0.842637 0.000000
0.712919 0.842637 0.000000
0.733393 0.842637 0.000000
0.750652 0.842637 0.000000
0.765568 0.842637 0.000000
0.778703 0.842637 0.000000
0.790437 0.842637 0.000000
0.801040 0.842637 0.000000
0.810711 0.842637 0.000000
0.819601 0.842637 0.000000
0.827827 0.842637 0.000000
0.835480 0.842637 0.000000
0.842637 0.842637 0.000000
0.849357 0.842637 0.000000
0.855689 0.842637 0.000000
0.861678 0.842637 0.000000
0.867357 0.842637 0.000000
0.872758 0.842637 0.000000
0.877906 0.842637 0.000000
0.882824 0.842637 0.000000
0.887533 0.842637 0.000000
0.892048 0.842637 0.000000
0.896385 0.842637 0.000000
0.900558 0.842637 0.000000
0.904578 0.842637 0.000000
0.908457 0.842637 0.000000
0.912204 0.842637 0.000000
0.915827 0.842637 0.000000
0.000000 0.849357 0.000000
0.525701 0.849357 0.000000
0.608376 0.849357 0.000000
0.655063 0.849357 0.000000
0.687747 0.849357 0.000000
0.712919 0.849357 0.000000
0.733393 0.849357 0.000000
0.750652 0.849357 0.000000
0.765568 0.849357 0.000000
0.778703 0.849357 0.000000
0.790437 0.849357 0.000000
0.801040 0.849357 0.000000
0.810711 0.849357 0.000000
0.819601 0.849357 0.000000
0.827827 0.849357 0.000000
0.835480 0.849357 0.000000
0.842637 0.849357 0.000000
0.849357 0.849357 0.000000
0.855689 0.849357 0.000000
0.861678 0.849357 0.000000
0.867357 0.849357 0.000000
0.872758 0.849357 0.000000
0.877906 0.849357 0.000000
0.882824 0.849357 0.000000
0.887533 0.849357 0.000000
0.892048 0.849357 0.000000
0.896385 0.849357 0.000000
0.900558 0.849357 0.000000
0.904578 0.849357 0.000000
0.908457 0.849357 0.000000
0.912204 0.849357 0.000000
0.915827 0.849357 0.000000
0.000000 0.855689 0.000000
0.525701 0.855689 0.000000
0.608376 0.855689 0.000000
0.655063 0.855689 0.000000
0.687747 0.855689 0.000000
0.712919 0.855689 0.000000
0.733393 0.855689 0.000000
0.750652 0.855689 0.000000
0.765568 0.855689 0.000000
0.778703 0.855689 0.000000
0.790437 0.855689 0.000000
0.801040 0.855689 0.000000
0.810711 0.855689 0.000000
0.819601 0.855689 0.000000
0.827827 0.855689 0.000000
0.835480 0.855689 0.000000
0.842637 0.855689 0.000000
0.849357 0.855689 0.000000
0.855689 0.855689 0.000000
0.861678 0.855689 0.000000
0.867357 0.855689 0.000000
0.872758 0.855689 0.000000
0.877906 0.855689 0.000000
0.882824 0.855689 0.000000
0.887533 0.855689 0.000000
0.892048 0.855689 0.000000
0.896385 0.855689 0.000000
0.900558 0.855689 0.000000
0.904578 0.855689 0.000000
0.908457 0.855689 0.000000
0.912204 0.855689 0.000000
0.915827 0.855689 0.000000
0.000000 0.861678 0.000000
0.525701 0.861678 0.000000
0.608376 0.861678 0.000000
0.655063 0.861678 0.000000
0.687747 0.861678 0.000000
0.712919 0.861678 0.000000
0.733393 0.861678 0.000000
0.750652 0.861678 0.000000
0.765568 0.861678 0.000000
0.778703 0.861678 0.000000
0.790437 0.861678 0.000000
0.801040 0.861678 0.000000
0.810711 0.861678 0.000000
0.819601 0.861678 0.000000
0.827827 0.861678 0.000000
0.835480 0.861678 0.000000
0.842637 0.861678 0.000000
0.849357 0.861678 0.000000
0.855689 0.861678 0.000000
0.861678 0.861678 0.000000
0.867357 0.861678 0.000000
0.872758 0.861678 0.000000
0.877906 0.861678 0.000000
0.882824 0.861678 0.000000
0.887533 0.861678 0.000000
0.892048 0.861678 0.000000
0.896385 0.861678 0.000000
0.900558 0.861678 0.000000
0.904578 0.861678 0.000000
0.908457 0.861678 0.000000
0.912204 0.861678 0.000000
0.915827 0.861678 0.000000
0.000000 0.867357 0.000000
0.525701 0.867357 0.000000
0.608376 0.867357 0.000000
0.655063 0.867357 0.000000
0.687747 0.867357 0.000000
0.712919 0.867357 0.000000
0.733393 0.867357 0.000000
0.750652 0.867357 0.000000
0.765568 0.867357 0.000000
0.778703 0.867357 0.000000
0.790437 0.867357 0.000000
0.801040 0.867357 0.000000
0.810711 0.867357 0.000000
0.819601 0.867357 0.000000
0.827827 0.867357 0.000000
0.835480 0.867357 0.000000
0.842637 0.867357 0.000000
0.849357 0.867357 0.000000
0.855689 0.867357 0.000000
0.861678 0.867357 0.000000
0.867357 0.867357 0.000000
0.872758 0.867357 0.000000
0.877906 0.867357 0.000000
0.882824 0.867357 0.000000
0.887533 0.867357 0.000000
0.892048 0.867357 0.000000
0.896385 0.867357 0.000000
0.900558 0.867357 0.000000
0.904578 0.867357 0.000000
0.908457 0.867357 0.000000
0.912204 0.867357 0.000000
0.915827 0.867357 0.000000
0.000000 0.872758 0.000000
0.525701 0.872758 0.000000
0.608376 0.872758 0.000000
0.655063 0.872758 0.000000
0.687747 0.872758 0.000000
0.712919 0.872758 0.000000
0.733393 0.872758 0.000000
0.750652 0.872758 0.000000
0.765568 0.872758 0.000000
0.778703 0.872758 0.000000
0.790437 0.872758 0.000000
0.801040 0.872758 0.000000
0.810711 0.872758 0.000000
0.819601 0.872758 0.000000
0.827827 0.872758 0.000000
0.835480 0.872758 0.000000
0.842637 0.872758 0.000000
0.849357 0.872758 0.000000
0.855689 0.872758 0.000000
0.861678 0.872758 0.000000
0.867357 0.872758 0.000000
0.872758 0.872758 0.000000
0.877906 0.872758 0.000000
0.882824 0.872758 0.000000
0.887533 0.872758 0.000000
0.892048 0.872758 0.000000
0.896385 0.872758 0.000000
0.900558 0.872758 0.000000
0.904578 0.872758 0.000000
0.908457 0.872758 0.000000
0.912204 0.872758 0.000000
0.915827 0.872758 0.000000
0.000000 0.877906 0.000000
0.525701 0.877906 0.000000
0.608376 0.877906 0.000000
0.655063 0.877906 0.000000
0.687747 0.877906 0.000000
0.712919 0.877906 0.000000
0.733393 0.877906 0.000000
0.750652 0.877906 0.000000
0.765568 0.877906 0.000000
0.778703 0.877906 0.000000
0.790437 0.877906 0.000000
0.801040 0.877906 0.000000
0.810711 0.877906 0.000000
0.819601 0.877906 0.000000
0.827827 0.877906 0.000000
0.835480 0.877906 0.000000
0.842637 0.877906 0.000000
0.849357 0.877906 0.000000
0.855689 0.877906 0.000000
0.861678 0.877906 0.000000
0.867357 0.877906 0.000000
0.872758 0.877906 0.000000
0.877906 0.877906 0.000000
0.882824 0.877906 0.000000
0.887533 0.877906 0.000000
0.892048 0.877906 0.000000
0.896385 0.877906 0.000000
0.900558 0.877906 0.000000
0.904578 0.877906 0.000000
0.908457 0.877906 0.000000
0.912204 0.877906 0.000000
0.915827 0.877906 0.000000
0.000000 0.882824 0.000000
0.525701 0.882824 0.000000
0.608376 0.882824 0.000000
0.655063 0.882824 0.000000
0.687747 0.882824 0.000000
0.712919 0.882824 0.000000
0.733393 0.882824 0.000000
0.750652 0.882824 0.000000
0.765568 0.882824 0.000000
0.778703 0.882824 0.000000
0.790437 0.882824 0.000000
0.801040 0.882824 0.000000
0.810711 0.882824 0.000000
0.819601 0.882824 0.000000
0.827827 0.882824 0.000000
0.835480 0.882824 0.000000
0.842637 0.882824 0.000000
0.849357 0.882824 0.000000
0.855689 0.882824 0.000000
0.861678 0.882824 0.000000
0.867357 0.882824 0.000000
0.872758 0.882824 0.000000
0.877906 0.882824 0.000000
0.882824 0.882824 0.000000
0.887533 0.882824 0.000000
0.892048 0.882824 0.000000
0.896385 0.882824 0.000000
0.900558 0.882824 0.000000
0.904578 0.882824 0.000000
0.908457 0.882824 0.000000
0.912204 0.882824 0.000000
0.915827 0.882824 0.000000
0.000000 0.887533 0.000000
0.525701 0.887533 0.000000
0.608376 0.887533 0.000000
0.655063 0.887533 0.000000
0.687747 0.887533 0.000000
0.712919 0.887533 0.000000
0.733393 0.887533 0.000000
0.750652 0.887533 0.000000
0.765568 0.887533 0.000000
0.778703 0.887533 0.000000
0.790437 0.887533 0.000000
0.801040 0.887533 0.000000
0.810711 0.887533 0.000000
0.819601 0.887533 0.000000
0.827827 0.887533 0.000000
0.835480 0.887533 0.000000
0.842637 0.887533 0.000000
0.849357 0.887533 0.000000
0.855689 0.887533 0.000000
0.861678 0.887533 0.000000
0.867357 0.887533 0.000000
0.872758 0.887533 0.000000
0.877906 0.887533 0.000000
0.882824 0.887533 0.000000
0.887533 0.887533 0.000000
0.892048 0.887533 0.000000
0.896385 0.887533 0.000000
0.900558 0.887533 0.000000
0.904578 0.887533 0.000000
0.908457 0.887533 0.000000
0.912204 0.887533 0.000000
0.915827 0.887533 0.000000
0.000000 0.892048 0.000000
0.525701 0.892048 0.000000
0.608376 0.892048 0.000000
0.655063 0.892048 0.000000
0.687747 0.892048 0.000000
0.712919 0.892048 0.000000
0.733393 0.892048 0.000000
0.750652 0.892048 0.000000
0.765568 0.892048 0.000000
0.778703 0.892048 0.000000
0.790437 0.892048 0.000000
0.801040 0.892048 0.000000
0.810711 0.892048 0.000000
0.819601 0.892048 0.000000
0.827827 0.892048 0.000000
0.835480 0.892048 0.000000
0.842637 0.892048 0.000000
0.849357 0.892048 0.000000
0.855689 0.892048 0.000000
0.861678 0.892048 0.000000
0.867357 0.892048 0.000000
0.872758 0.892048 0.000000
0.877906 0.892048 0.000000
0.882824 0.892048 0.000000
0.887533 0.892048 0.000000
0.892048 0.892048 0.000000
0.896385 0.892048 0.000000
0.900558 0.892048 0.000000
0.904578 0.892048 0.000000
0.908457 0.892048 0.000000
0.912204 0.892048 0.000000
0.915827 0.892048 0.000000
0.000000 0.896385 0.000000
0.525701 0.896385 0.000000
0.608376 0.896385 0.000000
0.655063 0.896385 0.000000
0.687747 0.896385 0.000000
0.712919 0.896385 0.000000
0.733393 0.896385 0.000000
0.750652 0.896385 0.000000
0.765568 0.896385 0.000000
0.778703 0.896385 0.000000
0.790437 0.896385 0.000000
0.801040 0.896385 0.000000
0.810711 0.896385 0.000000
0.819601 0.896385 0.000000
0.827827 0.896385 0.000000
0.835480 0.896385 0.000000
0.842637 0.896385 0.000000
0.849357 0.896385 0.000000
0.855689 0.896385 0.000000
0.861678 0.896385 0.000000
0.867357 0.896385 0.000000
0.872758 0.896385 0.000000
0.877906 0.896385 0.000000
0.882824 0.896385 0.000000
0.887533 0.896385 0.000000
0.892048 0.896385 0.000000
0.896385 0.896385 0.000000
0.900558 0.896385 0.000000
0.904578 0.896385 0.000000
0.908457 0.896385 0.000000
0.912204 0.896385 0.000000
0.915827 0.896385 0.000000
0.000000 0.900558 0.000000
0.525701 0.900558 0.000000
0.608376 0.900558 0.000000
0.655063 0.900558 0.000000
0.687747 0.900558 0.000000
0.712919 0.900558 0.000000
0.733393 0.900558 0.000000
0.750652 0.900558 0.000000
0.765568 0.900558 0.000000
0.778703 0.900558 0.000000
0.790437 0.900558 0.000000
0.801040 0.900558 0.000000
0.810711 0.900558 0.000000
0.819601 0.900558 0.000000
0.827827 0.900558 0.000000
0.835480 0.900558 0.000000
0.842637 0.900558 0.000000
0.849357 0.900558 0.000000
0.855689 0.900558 0.000000
0.861678 0.900558 0.000000
0.867357 0.900558 0.000000
