.nuke/nuke.LUT/linear-2-logC_exteded/AlexaV3_EI1600_Linear2LogC_EE_nuke3d.cube
# Alexa conversion LUT, lin2logc. Full in/full out.
# created by alexalutconv (2.07)
LUT_3D_SIZE 5
DOMAIN_MIN 0.000000 0.000000 0.000000
DOMAIN_MAX 0.903226 0.903226 0.903226
0.000000 0.000000 0.000000
0.850055 0.000000 0.000000
0.920890 0.000000 0.000000
0.961497 0.000000 0.000000
0.989983 0.000000 0.000000
0.000000 0.850055 0.000000
0.850055 0.850055 0.000000
0.920890 0.850055 0.000000
0.961497 0.850055 0.000000
0.989983 0.850055 0.000000
0.000000 0.920890 0.000000
0.850055 0.920890 0.000000
0.920890 0.920890 0.000000
0.961497 0.920890 0.000000
0.989983 0.920890 0.000000
0.000000 0.961497 0.000000
0.850055 0.961497 0.000000
0.920890 0.961497 0.000000
0.961497 0.961497 0.000000
0.989983 0.961497 0.000000
0.000000 0.989983 0.000000
0.850055 0.989983 0.000000
0.920890 0.989983 0.000000
0.961497 0.989983 0.000000
0.989983 0.989983 0.000000
0.000000 0.000000 0.850055
0.850055 0.000000 0.850055
0.920890 0.000000 0.850055
0.961497 0.000000 0.850055
0.989983 0.000000 0.850055
0.000000 0.850055 0.850055
0.850055 0.850055 0.850055
0.920890 0.850055 0.850055
0.961497 0.850055 0.850055
0.989983 0.850055 0.850055
0.000000 0.920890 0.850055
0.850055 0.920890 0.850055
0.920890 0.920890 0.850055
0.961497 0.920890 0.850055
0.989983 0.920890 0.850055
0.000000 0.961497 0.850055
0.850055 0.961497 0.850055
0.920890 0.961497 0.850055
0.961497 0.961497 0.850055
0.989983 0.961497 0.850055
0.000000 0.989983 0.850055
0.850055 0.989983 0.850055
0.920890 0.989983 0.850055
0.961497 0.989983 0.850055
0.989983 0.989983 0.850055
0.000000 0.000000 0.920890
0.850055 0.000000 0.920890
0.920890 0.000000 0.920890
0.961497 0.000000 0.920890
0.989983 0.000000 0.920890
0.000000 0.850055 0.920890
0.850055 0.850055 0.920890
0.920890 0.850055 0.920890
0.961497 0.850055 0.920890
0.989983 0.850055 0.920890
0.000000 0.920890 0.920890
0.850055 0.920890 0.920890
0.920890 0.920890 0.920890
0.961497 0.920890 0.920890
0.989983 0.920890 0.920890
0.000000 0.961497 0.920890
0.850055 0.961497 0.920890
0.920890 0.961497 0.920890
0.961497 0.961497 0.920890
0.989983 0.961497 0.920890
0.000000 0.989983 0.920890
0.850055 0.989983 0.920890
0.920890 0.989983 0.920890
0.961497 0.989983 0.920890
0.989983 0.989983 0.920890
0.000000 0.000000 0.961497
0.850055 0.000000 0.961497
0.920890 0.000000 0.961497
0.961497 0.000000 0.961497
0.989983 0.000000 0.961497
0.000000 0.850055 0.961497
0.850055 0.850055 0.961497
0.920890 0.850055 0.961497
0.961497 0.850055 0.961497
0.989983 0.850055 0.961497
0.000000 0.920890 0.961497
0.850055 0.920890 0.961497
0.920890 0.920890 0.961497
0.961497 0.920890 0.961497
0.989983 0.920890 0.961497
0.000000 0.961497 0.961497
0.850055 0.961497 0.961497
0.920890 0.961497 0.961497
0.961497 0.961497 0.961497
0.989983 0.961497 0.961497
0.000000 0.989983 0.961497
0.850055 0.989983 0.961497
0.920890 0.989983 0.961497
0.961497 0.989983 0.961497
0.989983 0.989983 0.961497
0.000000 0.000000 0.989983
0.850055 0.000000 0.989983
0.920890 0.000000 0.989983
0.961497 0.000000 0.989983
0.989983 0.000000 0.989983
0.000000 0.850055 0.989983
0.850055 0.850055 0.989983
0.920890 0.850055 0.989983
0.961497 0.850055 0.989983
0.989983 0.850055 0.989983
0.000000 0.920890 0.989983
0.850055 0.920890 0.989983
0.920890 0.920890 0.989983
0.961497 0.920890 0.989983
0.989983 0.920890 0.989983
0.000000 0.961497 0.989983
0.850055 0.961497 0.989983
0.920890 0.961497 0.989983
0.961497 0.961497 0.989983
0.989983 0.961497 0.989983
0.000000 0.989983 0.989983
0.850055 0.989983 0.989983
0.920890 0.989983 0.989983
0.961497 0.989983 0.989983
0.989983 0.989983 0.989983
