.nuke/nuke.LUT/linear-2-logC_exteded/AlexaV3_EI0500_Linear2LogC_EE_nuke3d.cube
# Alexa conversion LUT, lin2logc. Full in/full out.
# created by alexalutconv (2.07)
LUT_3D_SIZE 5
DOMAIN_MIN 0.000000 0.000000 0.000000
DOMAIN_MAX 0.903226 0.903226 0.903226
0.000000 0.000000 0.000000
0.750652 0.000000 0.000000
0.827827 0.000000 0.000000
0.872758 0.000000 0.000000
0.904578 0.000000 0.000000
0.000000 0.750652 0.000000
0.750652 0.750652 0.000000
0.827827 0.750652 0.000000
0.872758 0.750652 0.000000
0.904578 0.750652 0.000000
0.000000 0.827827 0.000000
0.750652 0.827827 0.000000
0.827827 0.827827 0.000000
0.872758 0.827827 0.000000
0.904578 0.827827 0.000000
0.000000 0.872758 0.000000
0.750652 0.872758 0.000000
0.827827 0.872758 0.000000
0.872758 0.872758 0.000000
0.904578 0.872758 0.000000
0.000000 0.904578 0.000000
0.750652 0.904578 0.000000
0.827827 0.904578 0.000000
0.872758 0.904578 0.000000
0.904578 0.904578 0.000000
0.000000 0.000000 0.750652
0.750652 0.000000 0.750652
0.827827 0.000000 0.750652
0.872758 0.000000 0.750652
0.904578 0.000000 0.750652
0.000000 0.750652 0.750652
0.750652 0.750652 0.750652
0.827827 0.750652 0.750652
0.872758 0.750652 0.750652
0.904578 0.750652 0.750652
0.000000 0.827827 0.750652
0.750652 0.827827 0.750652
0.827827 0.827827 0.750652
0.872758 0.827827 0.750652
0.904578 0.827827 0.750652
0.000000 0.872758 0.750652
0.750652 0.872758 0.750652
0.827827 0.872758 0.750652
0.872758 0.872758 0.750652
0.904578 0.872758 0.750652
0.000000 0.904578 0.750652
0.750652 0.904578 0.750652
0.827827 0.904578 0.750652
0.872758 0.904578 0.750652
0.904578 0.904578 0.750652
0.000000 0.000000 0.827827
0.750652 0.000000 0.827827
0.827827 0.000000 0.827827
0.872758 0.000000 0.827827
0.904578 0.000000 0.827827
0.000000 0.750652 0.827827
0.750652 0.750652 0.827827
0.827827 0.750652 0.827827
0.872758 0.750652 0.827827
0.904578 0.750652 0.827827
0.000000 0.827827 0.827827
0.750652 0.827827 0.827827
0.827827 0.827827 0.827827
0.872758 0.827827 0.827827
0.904578 0.827827 0.827827
0.000000 0.872758 0.827827
0.750652 0.872758 0.827827
0.827827 0.872758 0.827827
0.872758 0.872758 0.827827
0.904578 0.872758 0.827827
0.000000 0.904578 0.827827
0.750652 0.904578 0.827827
0.827827 0.904578 0.827827
0.872758 0.904578 0.827827
0.904578 0.904578 0.827827
0.000000 0.000000 0.872758
0.750652 0.000000 0.872758
0.827827 0.000000 0.872758
0.872758 0.000000 0.872758
0.904578 0.000000 0.872758
0.000000 0.750652 0.872758
0.750652 0.750652 0.872758
0.827827 0.750652 0.872758
0.872758 0.750652 0.872758
0.904578 0.750652 0.872758
0.000000 0.827827 0.872758
0.750652 0.827827 0.872758
0.827827 0.827827 0.872758
0.872758 0.827827 0.872758
0.904578 0.827827 0.872758
0.000000 0.872758 0.872758
0.750652 0.872758 0.872758
0.827827 0.872758 0.872758
0.872758 0.872758 0.872758
0.904578 0.872758 0.872758
0.000000 0.904578 0.872758
0.750652 0.904578 0.872758
0.827827 0.904578 0.872758
0.872758 0.904578 0.872758
0.904578 0.904578 0.872758
0.000000 0.000000 0.904578
0.750652 0.000000 0.904578
0.827827 0.000000 0.904578
0.872758 0.000000 0.904578
0.904578 0.000000 0.904578
0.000000 0.750652 0.904578
0.750652 0.750652 0.904578
0.827827 0.750652 0.904578
0.872758 0.750652 0.904578
0.904578 0.750652 0.904578
0.000000 0.827827 0.904578
0.750652 0.827827 0.904578
0.827827 0.827827 0.904578
0.872758 0.827827 0.904578
0.904578 0.827827 0.904578
0.000000 0.872758 0.904578
0.750652 0.872758 0.904578
0.827827 0.872758 0.904578
0.872758 0.872758 0.904578
0.904578 0.872758 0.904578
0.000000 0.904578 0.904578
0.750652 0.904578 0.904578
0.827827 0.904578 0.904578
0.872758 0.904578 0.904578
0.904578 0.904578 0.904578
