.nuke/nuke.LUT/linear-2-logC_exteded/AlexaV3_EI1600_Linear2LogC_EE_nuke3d.cube
# Alexa conversion LUT, lin2logc. Full in/full out.
# created by alexalutconv (2.07)
LUT_3D_SIZE 8
DOMAIN_MIN 0.000000 0.000000 0.000000
DOMAIN_MAX 0.903226 0.903226 0.903226
0.000000 0.000000 0.000000
0.791259 0.000000 0.000000
0.863856 0.000000 0.000000
0.905301 0.000000 0.000000
0.934325 0.000000 0.000000
0.956640 0.000000 0.000000
0.974752 0.000000 0.000000
0.989983 0.000000 0.000000
0.000000 0.791259 0.000000
0.791259 0.791259 0.000000
0.863856 0.791259 0.000000
0.905301 0.791259 0.000000
0.934325 0.791259 0.000000
0.956640 0.791259 0.000000
0.974752 0.791259 0.000000
0.989983 0.791259 0.000000
0.000000 0.863856 0.000000
0.791259 0.863856 0.000000
0.863856 0.863856 0.000000
0.905301 0.863856 0.000000
0.934325 0.863856 0.000000
0.956640 0.863856 0.000000
0.974752 0.863856 0.000000
0.989983 0.863856 0.000000
0.000000 0.905301 0.000000
0.791259 0.905301 0.000000
0.863856 0.905301 0.000000
0.905301 0.905301 0.000000
0.934325 0.905301 0.000000
0.956640 0.905301 0.000000
0.974752 0.905301 0.000000
0.989983 0.905301 0.000000
0.000000 0.934325 0.000000
0.791259 0.934325 0.000000
0.863856 0.934325 0.000000
0.905301 0.934325 0.000000
0.934325 0.934325 0.000000
0.956640 0.934325 0.000000
0.974752 0.934325 0.000000
0.989983 0.934325 0.000000
0.000000 0.956640 0.000000
0.791259 0.956640 0.000000
0.863856 0.956640 0.000000
0.905301 0.956640 0.000000
0.934325 0.956640 0.000000
0.956640 0.956640 0.000000
0.974752 0.956640 0.000000
0.989983 0.956640 0.000000
0.000000 0.974752 0.000000
0.791259 0.974752 0.000000
0.863856 0.974752 0.000000
0.905301 0.974752 0.000000
0.934325 0.974752 0.000000
0.956640 0.974752 0.000000
0.974752 0.974752 0.000000
0.989983 0.974752 0.000000
0.000000 0.989983 0.000000
0.791259 0.989983 0.000000
0.863856 0.989983 0.000000
0.905301 0.989983 0.000000
0.934325 0.989983 0.000000
0.956640 0.989983 0.000000
0.974752 0.989983 0.000000
0.989983 0.989983 0.000000
0.000000 0.000000 0.791259
0.791259 0.000000 0.791259
0.863856 0.000000 0.791259
0.905301 0.000000 0.791259
0.934325 0.000000 0.791259
0.956640 0.000000 0.791259
0.974752 0.000000 0.791259
0.989983 0.000000 0.791259
0.000000 0.791259 0.791259
0.791259 0.791259 0.791259
0.863856 0.791259 0.791259
0.905301 0.791259 0.791259
0.934325 0.791259 0.791259
0.956640 0.791259 0.791259
0.974752 0.791259 0.791259
0.989983 0.791259 0.791259
0.000000 0.863856 0.791259
0.791259 0.863856 0.791259
0.863856 0.863856 0.791259
0.905301 0.863856 0.791259
0.934325 0.863856 0.791259
0.956640 0.863856 0.791259
0.974752 0.863856 0.791259
0.989983 0.863856 0.791259
0.000000 0.905301 0.791259
0.791259 0.905301 0.791259
0.863856 0.905301 0.791259
0.905301 0.905301 0.791259
0.934325 0.905301 0.791259
0.956640 0.905301 0.791259
0.974752 0.905301 0.791259
0.989983 0.905301 0.791259
0.000000 0.934325 0.791259
0.791259 0.934325 0.791259
0.863856 0.934325 0.791259
0.905301 0.934325 0.791259
0.934325 0.934325 0.791259
0.956640 0.934325 0.791259
0.974752 0.934325 0.791259
0.989983 0.934325 0.791259
0.000000 0.956640 0.791259
0.791259 0.956640 0.791259
0.863856 0.956640 0.791259
0.905301 0.956640 0.791259
0.934325 0.956640 0.791259
0.956640 0.956640 0.791259
0.974752 0.956640 0.791259
0.989983 0.956640 0.791259
0.000000 0.974752 0.791259
0.791259 0.974752 0.791259
0.863856 0.974752 0.791259
0.905301 0.974752 0.791259
0.934325 0.974752 0.791259
0.956640 0.974752 0.791259
0.974752 0.974752 0.791259
0.989983 0.974752 0.791259
0.000000 0.989983 0.791259
0.791259 0.989983 0.791259
0.863856 0.989983 0.791259
0.905301 0.989983 0.791259
0.934325 0.989983 0.791259
0.956640 0.989983 0.791259
0.974752 0.989983 0.791259
0.989983 0.989983 0.791259
0.000000 0.000000 0.863856
0.791259 0.000000 0.863856
0.863856 0.000000 0.863856
0.905301 0.000000 0.863856
0.934325 0.000000 0.863856
0.956640 0.000000 0.863856
0.974752 0.000000 0.863856
0.989983 0.000000 0.863856
0.000000 0.791259 0.863856
0.791259 0.791259 0.863856
0.863856 0.791259 0.863856
0.905301 0.791259 0.863856
0.934325 0.791259 0.863856
0.956640 0.791259 0.863856
0.974752 0.791259 0.863856
0.989983 0.791259 0.863856
0.000000 0.863856 0.863856
0.791259 0.863856 0.863856
0.863856 0.863856 0.863856
0.905301 0.863856 0.863856
0.934325 0.863856 0.863856
0.956640 0.863856 0.863856
0.974752 0.863856 0.863856
0.989983 0.863856 0.863856
0.000000 0.905301 0.863856
0.791259 0.905301 0.863856
0.863856 0.905301 0.863856
0.905301 0.905301 0.863856
0.934325 0.905301 0.863856
0.956640 0.905301 0.863856
0.974752 0.905301 0.863856
0.989983 0.905301 0.863856
0.000000 0.934325 0.863856
0.791259 0.934325 0.863856
0.863856 0.934325 0.863856
0.905301 0.934325 0.863856
0.934325 0.934325 0.863856
0.956640 0.934325 0.863856
0.974752 0.934325 0.863856
0.989983 0.934325 0.863856
0.000000 0.956640 0.863856
0.791259 0.956640 0.863856
0.863856 0.956640 0.863856
0.905301 0.956640 0.863856
0.934325 0.956640 0.863856
0.956640 0.956640 0.863856
0.974752 0.956640 0.863856
0.989983 0.956640 0.863856
0.000000 0.974752 0.863856
0.791259 0.974752 0.863856
0.863856 0.974752 0.863856
0.905301 0.974752 0.863856
0.934325 0.974752 0.863856
0.956640 0.974752 0.863856
0.974752 0.974752 0.863856
0.989983 0.974752 0.863856
0.000000 0.989983 0.863856
0.791259 0.989983 0.863856
0.863856 0.989983 0.863856
0.905301 0.989983 0.863856
0.934325 0.989983 0.863856
0.956640 0.989983 0.863856
0.974752 0.989983 0.863856
0.989983 0.989983 0.863856
0.000000 0.000000 0.905301
0.791259 0.000000 0.905301
0.863856 0.000000 0.905301
0.905301 0.000000 0.905301
0.934325 0.000000 0.905301
0.956640 0.000000 0.905301
0.974752 0.000000 0.905301
0.989983 0.000000 0.905301
0.000000 0.791259 0.905301
0.791259 0.791259 0.905301
0.863856 0.791259 0.905301
0.905301 0.791259 0.905301
0.934325 0.791259 0.905301
0.956640 0.791259 0.905301
0.974752 0.791259 0.905301
0.989983 0.791259 0.905301
0.000000 0.863856 0.905301
0.791259 0.863856 0.905301
0.863856 0.863856 0.905301
0.905301 0.863856 0.905301
0.934325 0.863856 0.905301
0.956640 0.863856 0.905301
0.974752 0.863856 0.905301
0.989983 0.863856 0.905301
0.000000 0.905301 0.905301
0.791259 0.905301 0.905301
0.863856 0.905301 0.905301
0.905301 0.905301 0.905301
0.934325 0.905301 0.905301
0.956640 0.905301 0.905301
0.974752 0.905301 0.905301
0.989983 0.905301 0.905301
0.000000 0.934325 0.905301
0.791259 0.934325 0.905301
0.863856 0.934325 0.905301
0.905301 0.934325 0.905301
0.934325 0.934325 0.905301
0.956640 0.934325 0.905301
0.974752 0.934325 0.905301
0.989983 0.934325 0.905301
0.000000 0.956640 0.905301
0.791259 0.956640 0.905301
0.863856 0.956640 0.905301
0.905301 0.956640 0.905301
0.934325 0.956640 0.905301
0.956640 0.956640 0.905301
0.974752 0.956640 0.905301
0.989983 0.956640 0.905301
0.000000 0.974752 0.905301
0.791259 0.974752 0.905301
0.863856 0.974752 0.905301
0.905301 0.974752 0.905301
0.934325 0.974752 0.905301
0.956640 0.974752 0.905301
0.974752 0.974752 0.905301
0.989983 0.974752 0.905301
0.000000 0.989983 0.905301
0.791259 0.989983 0.905301
0.863856 0.989983 0.905301
0.905301 0.989983 0.905301
0.934325 0.989983 0.905301
0.956640 0.989983 0.905301
0.974752 0.989983 0.905301
0.989983 0.989983 0.905301
0.000000 0.000000 0.934325
0.791259 0.000000 0.934325
0.863856 0.000000 0.934325
0.905301 0.000000 0.934325
0.934325 0.000000 0.934325
0.956640 0.000000 0.934325
0.974752 0.000000 0.934325
0.989983 0.000000 0.934325
0.000000 0.791259 0.934325
0.791259 0.791259 0.934325
0.863856 0.791259 0.934325
0.905301 0.791259 0.934325
0.934325 0.791259 0.934325
0.956640 0.791259 0.934325
0.974752 0.791259 0.934325
0.989983 0.791259 0.934325
0.000000 0.863856 0.934325
0.791259 0.863856 0.934325
0.863856 0.863856 0.934325
0.905301 0.863856 0.934325
0.934325 0.863856 0.934325
0.956640 0.863856 0.934325
0.974752 0.863856 0.934325
0.989983 0.863856 0.934325
0.000000 0.905301 0.934325
0.791259 0.905301 0.934325
0.863856 0.905301 0.934325
0.905301 0.905301 0.934325
0.934325 0.905301 0.934325
0.956640 0.905301 0.934325
0.974752 0.905301 0.934325
0.989983 0.905301 0.934325
0.000000 0.934325 0.934325
0.791259 0.934325 0.934325
0.863856 0.934325 0.934325
0.905301 0.934325 0.934325
0.934325 0.934325 0.934325
0.956640 0.934325 0.934325
0.974752 0.934325 0.934325
0.989983 0.934325 0.934325
0.000000 0.956640 0.934325
0.791259 0.956640 0.934325
0.863856 0.956640 0.934325
0.905301 0.956640 0.934325
0.934325 0.956640 0.934325
0.956640 0.956640 0.934325
0.974752 0.956640 0.934325
0.989983 0.956640 0.934325
0.000000 0.974752 0.934325
0.791259 0.974752 0.934325
0.863856 0.974752 0.934325
0.905301 0.974752 0.934325
0.934325 0.974752 0.934325
0.956640 0.974752 0.934325
0.974752 0.974752 0.934325
0.989983 0.974752 0.934325
0.000000 0.989983 0.934325
0.791259 0.989983 0.934325
0.863856 0.989983 0.934325
0.905301 0.989983 0.934325
0.934325 0.989983 0.934325
0.956640 0.989983 0.934325
0.974752 0.989983 0.934325
0.989983 0.989983 0.934325
0.000000 0.000000 0.956640
0.791259 0.000000 0.956640
0.863856 0.000000 0.956640
0.905301 0.000000 0.956640
0.934325 0.000000 0.956640
0.956640 0.000000 0.956640
0.974752 0.000000 0.956640
0.989983 0.000000 0.956640
0.000000 0.791259 0.956640
0.791259 0.791259 0.956640
0.863856 0.791259 0.956640
0.905301 0.791259 0.956640
0.934325 0.791259 0.956640
0.956640 0.791259 0.956640
0.974752 0.791259 0.956640
0.989983 0.791259 0.956640
0.000000 0.863856 0.956640
0.791259 0.863856 0.956640
0.863856 0.863856 0.956640
0.905301 0.863856 0.956640
0.934325 0.863856 0.956640
0.956640 0.863856 0.956640
0.974752 0.863856 0.956640
0.989983 0.863856 0.956640
0.000000 0.905301 0.956640
0.791259 0.905301 0.956640
0.863856 0.905301 0.956640
0.905301 0.905301 0.956640
0.934325 0.905301 0.956640
0.956640 0.905301 0.956640
0.974752 0.905301 0.956640
0.989983 0.905301 0.956640
0.000000 0.934325 0.956640
0.791259 0.934325 0.956640
0.863856 0.934325 0.956640
0.905301 0.934325 0.956640
0.934325 0.934325 0.956640
0.956640 0.934325 0.956640
0.974752 0.934325 0.956640
0.989983 0.934325 0.956640
0.000000 0.956640 0.956640
0.791259 0.956640 0.956640
0.863856 0.956640 0.956640
0.905301 0.956640 0.956640
0.934325 0.956640 0.956640
0.956640 0.956640 0.956640
0.974752 0.956640 0.956640
0.989983 0.956640 0.956640
0.000000 0.974752 0.956640
0.791259 0.974752 0.956640
0.863856 0.974752 0.956640
0.905301 0.974752 0.956640
0.934325 0.974752 0.956640
0.956640 0.974752 0.956640
0.974752 0.974752 0.956640
0.989983 0.974752 0.956640
0.000000 0.989983 0.956640
0.791259 0.989983 0.956640
0.863856 0.989983 0.956640
0.905301 0.989983 0.956640
0.934325 0.989983 0.956640
0.956640 0.989983 0.956640
0.974752 0.989983 0.956640
0.989983 0.989983 0.956640
0.000000 0.000000 0.974752
0.791259 0.000000 0.974752
0.863856 0.000000 0.974752
0.905301 0.000000 0.974752
0.934325 0.000000 0.974752
0.956640 0.000000 0.974752
0.974752 0.000000 0.974752
0.989983 0.000000 0.974752
0.000000 0.791259 0.974752
0.791259 0.791259 0.974752
0.863856 0.791259 0.974752
0.905301 0.791259 0.974752
0.934325 0.791259 0.974752
0.956640 0.791259 0.974752
0.974752 0.791259 0.974752
0.989983 0.791259 0.974752
0.000000 0.863856 0.974752
0.791259 0.863856 0.974752
0.863856 0.863856 0.974752
0.905301 0.863856 0.974752
0.934325 0.863856 0.974752
0.956640 0.863856 0.974752
0.974752 0.863856 0.974752
0.989983 0.863856 0.974752
0.000000 0.905301 0.974752
0.791259 0.905301 0.974752
0.863856 0.905301 0.974752
0.905301 0.905301 0.974752
0.934325 0.905301 0.974752
0.956640 0.905301 0.974752
0.974752 0.905301 0.974752
0.989983 0.905301 0.974752
0.000000 0.934325 0.974752
0.791259 0.934325 0.974752
0.863856 0.934325 0.974752
0.905301 0.934325 0.974752
0.934325 0.934325 0.974752
0.956640 0.934325 0.974752
0.974752 0.934325 0.974752
0.989983 0.934325 0.974752
0.000000 0.956640 0.974752
0.791259 0.956640 0.974752
0.863856 0.956640 0.974752
0.905301 0.956640 0.974752
0.934325 0.956640 0.974752
0.956640 0.956640 0.974752
0.974752 0.956640 0.974752
0.989983 0.956640 0.974752
0.000000 0.974752 0.974752
0.791259 0.974752 0.974752
0.863856 0.974752 0.974752
0.905301 0.974752 0.974752
0.934325 0.974752 0.974752
0.956640 0.974752 0.974752
0.974752 0.974752 0.974752
0.989983 0.974752 0.974752
0.000000 0.989983 0.974752
0.791259 0.989983 0.974752
0.863856 0.989983 0.974752
0.905301 0.989983 0.974752
0.934325 0.989983 0.974752
0.956640 0.989983 0.974752
0.974752 0.989983 0.974752
0.989983 0.989983 0.974752
0.000000 0.000000 0.989983
0.791259 0.000000 0.989983
0.863856 0.000000 0.989983
0.905301 0.000000 0.989983
0.934325 0.000000 0.989983
0.956640 0.000000 0.989983
0.974752 0.000000 0.989983
0.989983 0.000000 0.989983
0.000000 0.791259 0.989983
0.791259 0.791259 0.989983
0.863856 0.791259 0.989983
0.905301 0.791259 0.989983
0.934325 0.791259 0.989983
0.956640 0.791259 0.989983
0.974752 0.791259 0.989983
0.989983 0.791259 0.989983
0.000000 0.863856 0.989983
0.791259 0.863856 0.989983
0.863856 0.863856 0.989983
0.905301 0.863856 0.989983
0.934325 0.863856 0.989983
0.956640 0.863856 0.989983
0.974752 0.863856 0.989983
0.989983 0.863856 0.989983
0.000000 0.905301 0.989983
0.791259 0.905301 0.989983
0.863856 0.905301 0.989983
0.905301 0.905301 0.989983
0.934325 0.905301 0.989983
0.956640 0.905301 0.989983
0.974752 0.905301 0.989983
0.989983 0.905301 0.989983
0.000000 0.934325 0.989983
0.791259 0.934325 0.989983
0.863856 0.934325 0.989983
0.905301 0.934325 0.989983
0.934325 0.934325 0.989983
0.956640 0.934325 0.989983
0.974752 0.934325 0.989983
0.989983 0.934325 0.989983
0.000000 0.956640 0.989983
0.791259 0.956640 0.989983
0.863856 0.956640 0.989983
0.905301 0.956640 0.989983
0.934325 0.956640 0.989983
0.956640 0.956640 0.989983
0.974752 0.956640 0.989983
0.989983 0.956640 0.989983
0.000000 0.974752 0.989983
0.791259 0.974752 0.989983
0.863856 0.974752 0.989983
0.905301 0.974752 0.989983
0.934325 0.974752 0.989983
0.956640 0.974752 0.989983
0.974752 0.974752 0.989983
0.989983 0.974752 0.989983
0.000000 0.989983 0.989983
0.791259 0.989983 0.989983
0.863856 0.989983 0.989983
0.905301 0.989983 0.989983
0.934325 0.989983 0.989983
0.956640 0.989983 0.989983
0.974752 0.989983 0.989983
0.989983 0.989983 0.989983
