.nuke/nuke.LUT/linear-2-logC_exteded/AlexaV3_EI3200_Linear2LogC_EE_nuke3d.cube
# Alexa conversion LUT, lin2logc. Full in/full out.
# created by alexalutconv (2.07)
LUT_3D_SIZE 5
DOMAIN_MIN 0.000000 0.000000 0.000000
DOMAIN_MAX 0.903226 0.903226 0.903226
0.000000 0.000000 0.000000
0.892814 0.000000 0.000000
0.946400 0.000000 0.000000
0.974649 0.000000 0.000000
0.993528 0.000000 0.000000
0.000000 0.892814 0.000000
0.892814 0.892814 0.000000
0.946400 0.892814 0.000000
0.974649 0.892814 0.000000
0.993528 0.892814 0.000000
0.000000 0.946400 0.000000
0.892814 0.946400 0.000000
0.946400 0.946400 0.000000
0.974649 0.946400 0.000000
0.993528 0.946400 0.000000
0.000000 0.974649 0.000000
0.892814 0.974649 0.000000
0.946400 0.974649 0.000000
0.974649 0.974649 0.000000
0.993528 0.974649 0.000000
0.000000 0.993528 0.000000
0.892814 0.993528 0.000000
0.946400 0.993528 0.000000
0.974649 0.993528 0.000000
0.993528 0.993528 0.000000
0.000000 0.000000 0.892814
0.892814 0.000000 0.892814
0.946400 0.000000 0.892814
0.974649 0.000000 0.892814
0.993528 0.000000 0.892814
0.000000 0.892814 0.892814
0.892814 0.892814 0.892814
0.946400 0.892814 0.892814
0.974649 0.892814 0.892814
0.993528 0.892814 0.892814
0.000000 0.946400 0.892814
0.892814 0.946400 0.892814
0.946400 0.946400 0.892814
0.974649 0.946400 0.892814
0.993528 0.946400 0.892814
0.000000 0.974649 0.892814
0.892814 0.974649 0.892814
0.946400 0.974649 0.892814
0.974649 0.974649 0.892814
0.993528 0.974649 0.892814
0.000000 0.993528 0.892814
0.892814 0.993528 0.892814
0.946400 0.993528 0.892814
0.974649 0.993528 0.892814
0.993528 0.993528 0.892814
0.000000 0.000000 0.946400
0.892814 0.000000 0.946400
0.946400 0.000000 0.946400
0.974649 0.000000 0.946400
0.993528 0.000000 0.946400
0.000000 0.892814 0.946400
0.892814 0.892814 0.946400
0.946400 0.892814 0.946400
0.974649 0.892814 0.946400
0.993528 0.892814 0.946400
0.000000 0.946400 0.946400
0.892814 0.946400 0.946400
0.946400 0.946400 0.946400
0.974649 0.946400 0.946400
0.993528 0.946400 0.946400
0.000000 0.974649 0.946400
0.892814 0.974649 0.946400
0.946400 0.974649 0.946400
0.974649 0.974649 0.946400
0.993528 0.974649 0.946400
0.000000 0.993528 0.946400
0.892814 0.993528 0.946400
0.946400 0.993528 0.946400
0.974649 0.993528 0.946400
0.993528 0.993528 0.946400
0.000000 0.000000 0.974649
0.892814 0.000000 0.974649
0.946400 0.000000 0.974649
0.974649 0.000000 0.974649
0.993528 0.000000 0.974649
0.000000 0.892814 0.974649
0.892814 0.892814 0.974649
0.946400 0.892814 0.974649
0.974649 0.892814 0.974649
0.993528 0.892814 0.974649
0.000000 0.946400 0.974649
0.892814 0.946400 0.974649
0.946400 0.946400 0.974649
0.974649 0.946400 0.974649
0.993528 0.946400 0.974649
0.000000 0.974649 0.974649
0.892814 0.974649 0.974649
0.946400 0.974649 0.974649
0.974649 0.974649 0.974649
0.993528 0.974649 0.974649
0.000000 0.993528 0.974649
0.892814 0.993528 0.974649
0.946400 0.993528 0.974649
0.974649 0.993528 0.974649
0.993528 0.993528 0.974649
0.000000 0.000000 0.993528
0.892814 0.000000 0.993528
0.946400 0.000000 0.993528
0.974649 0.000000 0.993528
0.993528 0.000000 0.993528
0.000000 0.892814 0.993528
0.892814 0.892814 0.993528
0.946400 0.892814 0.993528
0.974649 0.892814 0.993528
0.993528 0.892814 0.993528
0.000000 0.946400 0.993528
0.892814 0.946400 0.993528
0.946400 0.946400 0.993528
0.974649 0.946400 0.993528
0.993528 0.946400 0.993528
0.000000 0.974649 0.993528
0.892814 0.974649 0.993528
0.946400 0.974649 0.993528
0.974649 0.974649 0.993528
0.993528 0.974649 0.993528
0.000000 0.993528 0.993528
0.892814 0.993528 0.993528
0.946400 0.993528 0.993528
0.974649 0.993528 0.993528
0.993528 0.993528 0.993528
