.nuke/nuke.LUT/linear-2-logC_exteded/AlexaV3_EI0320_Linear2LogC_EE_nuke3d.cube
# Alexa conversion LUT, lin2logc. Full in/full out.
# created by alexalutconv (2.07)
LUT_3D_SIZE 8
DOMAIN_MIN 0.000000 0.000000 0.000000
DOMAIN_MAX 0.903226 0.903226 0.903226
0.000000 0.000000 0.000000
0.644020 0.000000 0.000000
0.723531 0.000000 0.000000
0.769698 0.000000 0.000000
0.802358 0.000000 0.000000
0.827653 0.000000 0.000000
0.848300 0.000000 0.000000
0.865744 0.000000 0.000000
0.000000 0.644020 0.000000
0.644020 0.644020 0.000000
0.723531 0.644020 0.000000
0.769698 0.644020 0.000000
0.802358 0.644020 0.000000
0.827653 0.644020 0.000000
0.848300 0.644020 0.000000
0.865744 0.644020 0.000000
0.000000 0.723531 0.000000
0.644020 0.723531 0.000000
0.723531 0.723531 0.000000
0.769698 0.723531 0.000000
0.802358 0.723531 0.000000
0.827653 0.723531 0.000000
0.848300 0.723531 0.000000
0.865744 0.723531 0.000000
0.000000 0.769698 0.000000
0.644020 0.769698 0.000000
0.723531 0.769698 0.000000
0.769698 0.769698 0.000000
0.802358 0.769698 0.000000
0.827653 0.769698 0.000000
0.848300 0.769698 0.000000
0.865744 0.769698 0.000000
0.000000 0.802358 0.000000
0.644020 0.802358 0.000000
0.723531 0.802358 0.000000
0.769698 0.802358 0.000000
0.802358 0.802358 0.000000
0.827653 0.802358 0.000000
0.848300 0.802358 0.000000
0.865744 0.802358 0.000000
0.000000 0.827653 0.000000
0.644020 0.827653 0.000000
0.723531 0.827653 0.000000
0.769698 0.827653 0.000000
0.802358 0.827653 0.000000
0.827653 0.827653 0.000000
0.848300 0.827653 0.000000
0.865744 0.827653 0.000000
0.000000 0.848300 0.000000
0.644020 0.848300 0.000000
0.723531 0.848300 0.000000
0.769698 0.848300 0.000000
0.802358 0.848300 0.000000
0.827653 0.848300 0.000000
0.848300 0.848300 0.000000
0.865744 0.848300 0.000000
0.000000 0.865744 0.000000
0.644020 0.865744 0.000000
0.723531 0.865744 0.000000
0.769698 0.865744 0.000000
0.802358 0.865744 0.000000
0.827653 0.865744 0.000000
0.848300 0.865744 0.000000
0.865744 0.865744 0.000000
0.000000 0.000000 0.644020
0.644020 0.000000 0.644020
0.723531 0.000000 0.644020
0.769698 0.000000 0.644020
0.802358 0.000000 0.644020
0.827653 0.000000 0.644020
0.848300 0.000000 0.644020
0.865744 0.000000 0.644020
0.000000 0.644020 0.644020
0.644020 0.644020 0.644020
0.723531 0.644020 0.644020
0.769698 0.644020 0.644020
0.802358 0.644020 0.644020
0.827653 0.644020 0.644020
0.848300 0.644020 0.644020
0.865744 0.644020 0.644020
0.000000 0.723531 0.644020
0.644020 0.723531 0.644020
0.723531 0.723531 0.644020
0.769698 0.723531 0.644020
0.802358 0.723531 0.644020
0.827653 0.723531 0.644020
0.848300 0.723531 0.644020
0.865744 0.723531 0.644020
0.000000 0.769698 0.644020
0.644020 0.769698 0.644020
0.723531 0.769698 0.644020
0.769698 0.769698 0.644020
0.802358 0.769698 0.644020
0.827653 0.769698 0.644020
0.848300 0.769698 0.644020
0.865744 0.769698 0.644020
0.000000 0.802358 0.644020
0.644020 0.802358 0.644020
0.723531 0.802358 0.644020
0.769698 0.802358 0.644020
0.802358 0.802358 0.644020
0.827653 0.802358 0.644020
0.848300 0.802358 0.644020
0.865744 0.802358 0.644020
0.000000 0.827653 0.644020
0.644020 0.827653 0.644020
0.723531 0.827653 0.644020
0.769698 0.827653 0.644020
0.802358 0.827653 0.644020
0.827653 0.827653 0.644020
0.848300 0.827653 0.644020
0.865744 0.827653 0.644020
0.000000 0.848300 0.644020
0.644020 0.848300 0.644020
0.723531 0.848300 0.644020
0.769698 0.848300 0.644020
0.802358 0.848300 0.644020
0.827653 0.848300 0.644020
0.848300 0.848300 0.644020
0.865744 0.848300 0.644020
0.000000 0.865744 0.644020
0.644020 0.865744 0.644020
0.723531 0.865744 0.644020
0.769698 0.865744 0.644020
0.802358 0.865744 0.644020
0.827653 0.865744 0.644020
0.848300 0.865744 0.644020
0.865744 0.865744 0.644020
0.000000 0.000000 0.723531
0.644020 0.000000 0.723531
0.723531 0.000000 0.723531
0.769698 0.000000 0.723531
0.802358 0.000000 0.723531
0.827653 0.000000 0.723531
0.848300 0.000000 0.723531
0.865744 0.000000 0.723531
0.000000 0.644020 0.723531
0.644020 0.644020 0.723531
0.723531 0.644020 0.723531
0.769698 0.644020 0.723531
0.802358 0.644020 0.723531
0.827653 0.644020 0.723531
0.848300 0.644020 0.723531
0.865744 0.644020 0.723531
0.000000 0.723531 0.723531
0.644020 0.723531 0.723531
0.723531 0.723531 0.723531
0.769698 0.723531 0.723531
0.802358 0.723531 0.723531
0.827653 0.723531 0.723531
0.848300 0.723531 0.723531
0.865744 0.723531 0.723531
0.000000 0.769698 0.723531
0.644020 0.769698 0.723531
0.723531 0.769698 0.723531
0.769698 0.769698 0.723531
0.802358 0.769698 0.723531
0.827653 0.769698 0.723531
0.848300 0.769698 0.723531
0.865744 0.769698 0.723531
0.000000 0.802358 0.723531
0.644020 0.802358 0.723531
0.723531 0.802358 0.723531
0.769698 0.802358 0.723531
0.802358 0.802358 0.723531
0.827653 0.802358 0.723531
0.848300 0.802358 0.723531
0.865744 0.802358 0.723531
0.000000 0.827653 0.723531
0.644020 0.827653 0.723531
0.723531 0.827653 0.723531
0.769698 0.827653 0.723531
0.802358 0.827653 0.723531
0.827653 0.827653 0.723531
0.848300 0.827653 0.723531
0.865744 0.827653 0.723531
0.000000 0.848300 0.723531
0.644020 0.848300 0.723531
0.723531 0.848300 0.723531
0.769698 0.848300 0.723531
0.802358 0.848300 0.723531
0.827653 0.848300 0.723531
0.848300 0.848300 0.723531
0.865744 0.848300 0.723531
0.000000 0.865744 0.723531
0.644020 0.865744 0.723531
0.723531 0.865744 0.723531
0.769698 0.865744 0.723531
0.802358 0.865744 0.723531
0.827653 0.865744 0.723531
0.848300 0.865744 0.723531
0.865744 0.865744 0.723531
0.000000 0.000000 0.769698
0.644020 0.000000 0.769698
0.723531 0.000000 0.769698
0.769698 0.000000 0.769698
0.802358 0.000000 0.769698
0.827653 0.000000 0.769698
0.848300 0.000000 0.769698
0.865744 0.000000 0.769698
0.000000 0.644020 0.769698
0.644020 0.644020 0.769698
0.723531 0.644020 0.769698
0.769698 0.644020 0.769698
0.802358 0.644020 0.769698
0.827653 0.644020 0.769698
0.848300 0.644020 0.769698
0.865744 0.644020 0.769698
0.000000 0.723531 0.769698
0.644020 0.723531 0.769698
0.723531 0.723531 0.769698
0.769698 0.723531 0.769698
0.802358 0.723531 0.769698
0.827653 0.723531 0.769698
0.848300 0.723531 0.769698
0.865744 0.723531 0.769698
0.000000 0.769698 0.769698
0.644020 0.769698 0.769698
0.723531 0.769698 0.769698
0.769698 0.769698 0.769698
0.802358 0.769698 0.769698
0.827653 0.769698 0.769698
0.848300 0.769698 0.769698
0.865744 0.769698 0.769698
0.000000 0.802358 0.769698
0.644020 0.802358 0.769698
0.723531 0.802358 0.769698
0.769698 0.802358 0.769698
0.802358 0.802358 0.769698
0.827653 0.802358 0.769698
0.848300 0.802358 0.769698
0.865744 0.802358 0.769698
0.000000 0.827653 0.769698
0.644020 0.827653 0.769698
0.723531 0.827653 0.769698
0.769698 0.827653 0.769698
0.802358 0.827653 0.769698
0.827653 0.827653 0.769698
0.848300 0.827653 0.769698
0.865744 0.827653 0.769698
0.000000 0.848300 0.769698
0.644020 0.848300 0.769698
0.723531 0.848300 0.769698
0.769698 0.848300 0.769698
0.802358 0.848300 0.769698
0.827653 0.848300 0.769698
0.848300 0.848300 0.769698
0.865744 0.848300 0.769698
0.000000 0.865744 0.769698
0.644020 0.865744 0.769698
0.723531 0.865744 0.769698
0.769698 0.865744 0.769698
0.802358 0.865744 0.769698
0.827653 0.865744 0.769698
0.848300 0.865744 0.769698
0.865744 0.865744 0.769698
0.000000 0.000000 0.802358
0.644020 0.000000 0.802358
0.723531 0.000000 0.802358
0.769698 0.000000 0.802358
0.802358 0.000000 0.802358
0.827653 0.000000 0.802358
0.848300 0.000000 0.802358
0.865744 0.000000 0.802358
0.000000 0.644020 0.802358
0.644020 0.644020 0.802358
0.723531 0.644020 0.802358
0.769698 0.644020 0.802358
0.802358 0.644020 0.802358
0.827653 0.644020 0.802358
0.848300 0.644020 0.802358
0.865744 0.644020 0.802358
0.000000 0.723531 0.802358
0.644020 0.723531 0.802358
0.723531 0.723531 0.802358
0.769698 0.723531 0.802358
0.802358 0.723531 0.802358
0.827653 0.723531 0.802358
0.848300 0.723531 0.802358
0.865744 0.723531 0.802358
0.000000 0.769698 0.802358
0.644020 0.769698 0.802358
0.723531 0.769698 0.802358
0.769698 0.769698 0.802358
0.802358 0.769698 0.802358
0.827653 0.769698 0.802358
0.848300 0.769698 0.802358
0.865744 0.769698 0.802358
0.000000 0.802358 0.802358
0.644020 0.802358 0.802358
0.723531 0.802358 0.802358
0.769698 0.802358 0.802358
0.802358 0.802358 0.802358
0.827653 0.802358 0.802358
0.848300 0.802358 0.802358
0.865744 0.802358 0.802358
0.000000 0.827653 0.802358
0.644020 0.827653 0.802358
0.723531 0.827653 0.802358
0.769698 0.827653 0.802358
0.802358 0.827653 0.802358
0.827653 0.827653 0.802358
0.848300 0.827653 0.802358
0.865744 0.827653 0.802358
0.000000 0.848300 0.802358
0.644020 0.848300 0.802358
0.723531 0.848300 0.802358
0.769698 0.848300 0.802358
0.802358 0.848300 0.802358
0.827653 0.848300 0.802358
0.848300 0.848300 0.802358
0.865744 0.848300 0.802358
0.000000 0.865744 0.802358
0.644020 0.865744 0.802358
0.723531 0.865744 0.802358
0.769698 0.865744 0.802358
0.802358 0.865744 0.802358
0.827653 0.865744 0.802358
0.848300 0.865744 0.802358
0.865744 0.865744 0.802358
0.000000 0.000000 0.827653
0.644020 0.000000 0.827653
0.723531 0.000000 0.827653
0.769698 0.000000 0.827653
0.802358 0.000000 0.827653
0.827653 0.000000 0.827653
0.848300 0.000000 0.827653
0.865744 0.000000 0.827653
0.000000 0.644020 0.827653
0.644020 0.644020 0.827653
0.723531 0.644020 0.827653
0.769698 0.644020 0.827653
0.802358 0.644020 0.827653
0.827653 0.644020 0.827653
0.848300 0.644020 0.827653
0.865744 0.644020 0.827653
0.000000 0.723531 0.827653
0.644020 0.723531 0.827653
0.723531 0.723531 0.827653
0.769698 0.723531 0.827653
0.802358 0.723531 0.827653
0.827653 0.723531 0.827653
0.848300 0.723531 0.827653
0.865744 0.723531 0.827653
0.000000 0.769698 0.827653
0.644020 0.769698 0.827653
0.723531 0.769698 0.827653
0.769698 0.769698 0.827653
0.802358 0.769698 0.827653
0.827653 0.769698 0.827653
0.848300 0.769698 0.827653
0.865744 0.769698 0.827653
0.000000 0.802358 0.827653
0.644020 0.802358 0.827653
0.723531 0.802358 0.827653
0.769698 0.802358 0.827653
0.802358 0.802358 0.827653
0.827653 0.802358 0.827653
0.848300 0.802358 0.827653
0.865744 0.802358 0.827653
0.000000 0.827653 0.827653
0.644020 0.827653 0.827653
0.723531 0.827653 0.827653
0.769698 0.827653 0.827653
0.802358 0.827653 0.827653
0.827653 0.827653 0.827653
0.848300 0.827653 0.827653
0.865744 0.827653 0.827653
0.000000 0.848300 0.827653
0.644020 0.848300 0.827653
0.723531 0.848300 0.827653
0.769698 0.848300 0.827653
0.802358 0.848300 0.827653
0.827653 0.848300 0.827653
0.848300 0.848300 0.827653
0.865744 0.848300 0.827653
0.000000 0.865744 0.827653
0.644020 0.865744 0.827653
0.723531 0.865744 0.827653
0.769698 0.865744 0.827653
0.802358 0.865744 0.827653
0.827653 0.865744 0.827653
0.848300 0.865744 0.827653
0.865744 0.865744 0.827653
0.000000 0.000000 0.848300
0.644020 0.000000 0.848300
0.723531 0.000000 0.848300
0.769698 0.000000 0.848300
0.802358 0.000000 0.848300
0.827653 0.000000 0.848300
0.848300 0.000000 0.848300
0.865744 0.000000 0.848300
0.000000 0.644020 0.848300
0.644020 0.644020 0.848300
0.723531 0.644020 0.848300
0.769698 0.644020 0.848300
0.802358 0.644020 0.848300
0.827653 0.644020 0.848300
0.848300 0.644020 0.848300
0.865744 0.644020 0.848300
0.000000 0.723531 0.848300
0.644020 0.723531 0.848300
0.723531 0.723531 0.848300
0.769698 0.723531 0.848300
0.802358 0.723531 0.848300
0.827653 0.723531 0.848300
0.848300 0.723531 0.848300
0.865744 0.723531 0.848300
0.000000 0.769698 0.848300
0.644020 0.769698 0.848300
0.723531 0.769698 0.848300
0.769698 0.769698 0.848300
0.802358 0.769698 0.848300
0.827653 0.769698 0.848300
0.848300 0.769698 0.848300
0.865744 0.769698 0.848300
0.000000 0.802358 0.848300
0.644020 0.802358 0.848300
0.723531 0.802358 0.848300
0.769698 0.802358 0.848300
0.802358 0.802358 0.848300
0.827653 0.802358 0.848300
0.848300 0.802358 0.848300
0.865744 0.802358 0.848300
0.000000 0.827653 0.848300
0.644020 0.827653 0.848300
0.723531 0.827653 0.848300
0.769698 0.827653 0.848300
0.802358 0.827653 0.848300
0.827653 0.827653 0.848300
0.848300 0.827653 0.848300
0.865744 0.827653 0.848300
0.000000 0.848300 0.848300
0.644020 0.848300 0.848300
0.723531 0.848300 0.848300
0.769698 0.848300 0.848300
0.802358 0.848300 0.848300
0.827653 0.848300 0.848300
0.848300 0.848300 0.848300
0.865744 0.848300 0.848300
0.000000 0.865744 0.848300
0.644020 0.865744 0.848300
0.723531 0.865744 0.848300
0.769698 0.865744 0.848300
0.802358 0.865744 0.848300
0.827653 0.865744 0.848300
0.848300 0.865744 0.848300
0.865744 0.865744 0.848300
0.000000 0.000000 0.865744
0.644020 0.000000 0.865744
0.723531 0.000000 0.865744
0.769698 0.000000 0.865744
0.802358 0.000000 0.865744
0.827653 0.000000 0.865744
0.848300 0.000000 0.865744
0.865744 0.000000 0.865744
0.000000 0.644020 0.865744
0.644020 0.644020 0.865744
0.723531 0.644020 0.865744
0.769698 0.644020 0.865744
0.802358 0.644020 0.865744
0.827653 0.644020 0.865744
0.848300 0.644020 0.865744
0.865744 0.644020 0.865744
0.000000 0.723531 0.865744
0.644020 0.723531 0.865744
0.723531 0.723531 0.865744
0.769698 0.723531 0.865744
0.802358 0.723531 0.865744
0.827653 0.723531 0.865744
0.848300 0.723531 0.865744
0.865744 0.723531 0.865744
0.000000 0.769698 0.865744
0.644020 0.769698 0.865744
0.723531 0.769698 0.865744
0.769698 0.769698 0.865744
0.802358 0.769698 0.865744
0.827653 0.769698 0.865744
0.848300 0.769698 0.865744
0.865744 0.769698 0.865744
0.000000 0.802358 0.865744
0.644020 0.802358 0.865744
0.723531 0.802358 0.865744
0.769698 0.802358 0.865744
0.802358 0.802358 0.865744
0.827653 0.802358 0.865744
0.848300 0.802358 0.865744
0.865744 0.802358 0.865744
0.000000 0.827653 0.865744
0.644020 0.827653 0.865744
0.723531 0.827653 0.865744
0.769698 0.827653 0.865744
0.802358 0.827653 0.865744
0.827653 0.827653 0.865744
0.848300 0.827653 0.865744
0.865744 0.827653 0.865744
0.000000 0.848300 0.865744
0.644020 0.848300 0.865744
0.723531 0.848300 0.865744
0.769698 0.848300 0.865744
0.802358 0.848300 0.865744
0.827653 0.848300 0.865744
0.848300 0.848300 0.865744
0.865744 0.848300 0.865744
0.000000 0.865744 0.865744
0.644020 0.865744 0.865744
0.723531 0.865744 0.865744
0.769698 0.865744 0.865744
0.802358 0.865744 0.865744
0.827653 0.865744 0.865744
0.848300 0.865744 0.865744
0.865744 0.865744 0.865744
