.nuke/nuke.LUT/linear-2-logC_exteded/AlexaV3_EI2000_Linear2LogC_EE_nuke3d.cube
# Alexa conversion LUT, lin2logc. Full in/full out.
# created by alexalutconv (2.07)
LUT_3D_SIZE 8
DOMAIN_MIN 0.000000 0.000000 0.000000
DOMAIN_MAX 0.903226 0.903226 0.903226
0.000000 0.000000 0.000000
0.809302 0.000000 0.000000
0.878555 0.000000 0.000000
0.916645 0.000000 0.000000
0.942722 0.000000 0.000000
0.962447 0.000000 0.000000
0.978256 0.000000 0.000000
0.991414 0.000000 0.000000
0.000000 0.809302 0.000000
0.809302 0.809302 0.000000
0.878555 0.809302 0.000000
0.916645 0.809302 0.000000
0.942722 0.809302 0.000000
0.962447 0.809302 0.000000
0.978256 0.809302 0.000000
0.991414 0.809302 0.000000
0.000000 0.878555 0.000000
0.809302 0.878555 0.000000
0.878555 0.878555 0.000000
0.916645 0.878555 0.000000
0.942722 0.878555 0.000000
0.962447 0.878555 0.000000
0.978256 0.878555 0.000000
0.991414 0.878555 0.000000
0.000000 0.916645 0.000000
0.809302 0.916645 0.000000
0.878555 0.916645 0.000000
0.916645 0.916645 0.000000
0.942722 0.916645 0.000000
0.962447 0.916645 0.000000
0.978256 0.916645 0.000000
0.991414 0.916645 0.000000
0.000000 0.942722 0.000000
0.809302 0.942722 0.000000
0.878555 0.942722 0.000000
0.916645 0.942722 0.000000
0.942722 0.942722 0.000000
0.962447 0.942722 0.000000
0.978256 0.942722 0.000000
0.991414 0.942722 0.000000
0.000000 0.962447 0.000000
0.809302 0.962447 0.000000
0.878555 0.962447 0.000000
0.916645 0.962447 0.000000
0.942722 0.962447 0.000000
0.962447 0.962447 0.000000
0.978256 0.962447 0.000000
0.991414 0.962447 0.000000
0.000000 0.978256 0.000000
0.809302 0.978256 0.000000
0.878555 0.978256 0.000000
0.916645 0.978256 0.000000
0.942722 0.978256 0.000000
0.962447 0.978256 0.000000
0.978256 0.978256 0.000000
0.991414 0.978256 0.000000
0.000000 0.991414 0.000000
0.809302 0.991414 0.000000
0.878555 0.991414 0.000000
0.916645 0.991414 0.000000
0.942722 0.991414 0.000000
0.962447 0.991414 0.000000
0.978256 0.991414 0.000000
0.991414 0.991414 0.000000
0.000000 0.000000 0.809302
0.809302 0.000000 0.809302
0.878555 0.000000 0.809302
0.916645 0.000000 0.809302
0.942722 0.000000 0.809302
0.962447 0.000000 0.809302
0.978256 0.000000 0.809302
0.991414 0.000000 0.809302
0.000000 0.809302 0.809302
0.809302 0.809302 0.809302
0.878555 0.809302 0.809302
0.916645 0.809302 0.809302
0.942722 0.809302 0.809302
0.962447 0.809302 0.809302
0.978256 0.809302 0.809302
0.991414 0.809302 0.809302
0.000000 0.878555 0.809302
0.809302 0.878555 0.809302
0.878555 0.878555 0.809302
0.916645 0.878555 0.809302
0.942722 0.878555 0.809302
0.962447 0.878555 0.809302
0.978256 0.878555 0.809302
0.991414 0.878555 0.809302
0.000000 0.916645 0.809302
0.809302 0.916645 0.809302
0.878555 0.916645 0.809302
0.916645 0.916645 0.809302
0.942722 0.916645 0.809302
0.962447 0.916645 0.809302
0.978256 0.916645 0.809302
0.991414 0.916645 0.809302
0.000000 0.942722 0.809302
0.809302 0.942722 0.809302
0.878555 0.942722 0.809302
0.916645 0.942722 0.809302
0.942722 0.942722 0.809302
0.962447 0.942722 0.809302
0.978256 0.942722 0.809302
0.991414 0.942722 0.809302
0.000000 0.962447 0.809302
0.809302 0.962447 0.809302
0.878555 0.962447 0.809302
0.916645 0.962447 0.809302
0.942722 0.962447 0.809302
0.962447 0.962447 0.809302
0.978256 0.962447 0.809302
0.991414 0.962447 0.809302
0.000000 0.978256 0.809302
0.809302 0.978256 0.809302
0.878555 0.978256 0.809302
0.916645 0.978256 0.809302
0.942722 0.978256 0.809302
0.962447 0.978256 0.809302
0.978256 0.978256 0.809302
0.991414 0.978256 0.809302
0.000000 0.991414 0.809302
0.809302 0.991414 0.809302
0.878555 0.991414 0.809302
0.916645 0.991414 0.809302
0.942722 0.991414 0.809302
0.962447 0.991414 0.809302
0.978256 0.991414 0.809302
0.991414 0.991414 0.809302
0.000000 0.000000 0.878555
0.809302 0.000000 0.878555
0.878555 0.000000 0.878555
0.916645 0.000000 0.878555
0.942722 0.000000 0.878555
0.962447 0.000000 0.878555
0.978256 0.000000 0.878555
0.991414 0.000000 0.878555
0.000000 0.809302 0.878555
0.809302 0.809302 0.878555
0.878555 0.809302 0.878555
0.916645 0.809302 0.878555
0.942722 0.809302 0.878555
0.962447 0.809302 0.878555
0.978256 0.809302 0.878555
0.991414 0.809302 0.878555
0.000000 0.878555 0.878555
0.809302 0.878555 0.878555
0.878555 0.878555 0.878555
0.916645 0.878555 0.878555
0.942722 0.878555 0.878555
0.962447 0.878555 0.878555
0.978256 0.878555 0.878555
0.991414 0.878555 0.878555
0.000000 0.916645 0.878555
0.809302 0.916645 0.878555
0.878555 0.916645 0.878555
0.916645 0.916645 0.878555
0.942722 0.916645 0.878555
0.962447 0.916645 0.878555
0.978256 0.916645 0.878555
0.991414 0.916645 0.878555
0.000000 0.942722 0.878555
0.809302 0.942722 0.878555
0.878555 0.942722 0.878555
0.916645 0.942722 0.878555
0.942722 0.942722 0.878555
0.962447 0.942722 0.878555
0.978256 0.942722 0.878555
0.991414 0.942722 0.878555
0.000000 0.962447 0.878555
0.809302 0.962447 0.878555
0.878555 0.962447 0.878555
0.916645 0.962447 0.878555
0.942722 0.962447 0.878555
0.962447 0.962447 0.878555
0.978256 0.962447 0.878555
0.991414 0.962447 0.878555
0.000000 0.978256 0.878555
0.809302 0.978256 0.878555
0.878555 0.978256 0.878555
0.916645 0.978256 0.878555
0.942722 0.978256 0.878555
0.962447 0.978256 0.878555
0.978256 0.978256 0.878555
0.991414 0.978256 0.878555
0.000000 0.991414 0.878555
0.809302 0.991414 0.878555
0.878555 0.991414 0.878555
0.916645 0.991414 0.878555
0.942722 0.991414 0.878555
0.962447 0.991414 0.878555
0.978256 0.991414 0.878555
0.991414 0.991414 0.878555
0.000000 0.000000 0.916645
0.809302 0.000000 0.916645
0.878555 0.000000 0.916645
0.916645 0.000000 0.916645
0.942722 0.000000 0.916645
0.962447 0.000000 0.916645
0.978256 0.000000 0.916645
0.991414 0.000000 0.916645
0.000000 0.809302 0.916645
0.809302 0.809302 0.916645
0.878555 0.809302 0.916645
0.916645 0.809302 0.916645
0.942722 0.809302 0.916645
0.962447 0.809302 0.916645
0.978256 0.809302 0.916645
0.991414 0.809302 0.916645
0.000000 0.878555 0.916645
0.809302 0.878555 0.916645
0.878555 0.878555 0.916645
0.916645 0.878555 0.916645
0.942722 0.878555 0.916645
0.962447 0.878555 0.916645
0.978256 0.878555 0.916645
0.991414 0.878555 0.916645
0.000000 0.916645 0.916645
0.809302 0.916645 0.916645
0.878555 0.916645 0.916645
0.916645 0.916645 0.916645
0.942722 0.916645 0.916645
0.962447 0.916645 0.916645
0.978256 0.916645 0.916645
0.991414 0.916645 0.916645
0.000000 0.942722 0.916645
0.809302 0.942722 0.916645
0.878555 0.942722 0.916645
0.916645 0.942722 0.916645
0.942722 0.942722 0.916645
0.962447 0.942722 0.916645
0.978256 0.942722 0.916645
0.991414 0.942722 0.916645
0.000000 0.962447 0.916645
0.809302 0.962447 0.916645
0.878555 0.962447 0.916645
0.916645 0.962447 0.916645
0.942722 0.962447 0.916645
0.962447 0.962447 0.916645
0.978256 0.962447 0.916645
0.991414 0.962447 0.916645
0.000000 0.978256 0.916645
0.809302 0.978256 0.916645
0.878555 0.978256 0.916645
0.916645 0.978256 0.916645
0.942722 0.978256 0.916645
0.962447 0.978256 0.916645
0.978256 0.978256 0.916645
0.991414 0.978256 0.916645
0.000000 0.991414 0.916645
0.809302 0.991414 0.916645
0.878555 0.991414 0.916645
0.916645 0.991414 0.916645
0.942722 0.991414 0.916645
0.962447 0.991414 0.916645
0.978256 0.991414 0.916645
0.991414 0.991414 0.916645
0.000000 0.000000 0.942722
0.809302 0.000000 0.942722
0.878555 0.000000 0.942722
0.916645 0.000000 0.942722
0.942722 0.000000 0.942722
0.962447 0.000000 0.942722
0.978256 0.000000 0.942722
0.991414 0.000000 0.942722
0.000000 0.809302 0.942722
0.809302 0.809302 0.942722
0.878555 0.809302 0.942722
0.916645 0.809302 0.942722
0.942722 0.809302 0.942722
0.962447 0.809302 0.942722
0.978256 0.809302 0.942722
0.991414 0.809302 0.942722
0.000000 0.878555 0.942722
0.809302 0.878555 0.942722
0.878555 0.878555 0.942722
0.916645 0.878555 0.942722
0.942722 0.878555 0.942722
0.962447 0.878555 0.942722
0.978256 0.878555 0.942722
0.991414 0.878555 0.942722
0.000000 0.916645 0.942722
0.809302 0.916645 0.942722
0.878555 0.916645 0.942722
0.916645 0.916645 0.942722
0.942722 0.916645 0.942722
0.962447 0.916645 0.942722
0.978256 0.916645 0.942722
0.991414 0.916645 0.942722
0.000000 0.942722 0.942722
0.809302 0.942722 0.942722
0.878555 0.942722 0.942722
0.916645 0.942722 0.942722
0.942722 0.942722 0.942722
0.962447 0.942722 0.942722
0.978256 0.942722 0.942722
0.991414 0.942722 0.942722
0.000000 0.962447 0.942722
0.809302 0.962447 0.942722
0.878555 0.962447 0.942722
0.916645 0.962447 0.942722
0.942722 0.962447 0.942722
0.962447 0.962447 0.942722
0.978256 0.962447 0.942722
0.991414 0.962447 0.942722
0.000000 0.978256 0.942722
0.809302 0.978256 0.942722
0.878555 0.978256 0.942722
0.916645 0.978256 0.942722
0.942722 0.978256 0.942722
0.962447 0.978256 0.942722
0.978256 0.978256 0.942722
0.991414 0.978256 0.942722
0.000000 0.991414 0.942722
0.809302 0.991414 0.942722
0.878555 0.991414 0.942722
0.916645 0.991414 0.942722
0.942722 0.991414 0.942722
0.962447 0.991414 0.942722
0.978256 0.991414 0.942722
0.991414 0.991414 0.942722
0.000000 0.000000 0.962447
0.809302 0.000000 0.962447
0.878555 0.000000 0.962447
0.916645 0.000000 0.962447
0.942722 0.000000 0.962447
0.962447 0.000000 0.962447
0.978256 0.000000 0.962447
0.991414 0.000000 0.962447
0.000000 0.809302 0.962447
0.809302 0.809302 0.962447
0.878555 0.809302 0.962447
0.916645 0.809302 0.962447
0.942722 0.809302 0.962447
0.962447 0.809302 0.962447
0.978256 0.809302 0.962447
0.991414 0.809302 0.962447
0.000000 0.878555 0.962447
0.809302 0.878555 0.962447
0.878555 0.878555 0.962447
0.916645 0.878555 0.962447
0.942722 0.878555 0.962447
0.962447 0.878555 0.962447
0.978256 0.878555 0.962447
0.991414 0.878555 0.962447
0.000000 0.916645 0.962447
0.809302 0.916645 0.962447
0.878555 0.916645 0.962447
0.916645 0.916645 0.962447
0.942722 0.916645 0.962447
0.962447 0.916645 0.962447
0.978256 0.916645 0.962447
0.991414 0.916645 0.962447
0.000000 0.942722 0.962447
0.809302 0.942722 0.962447
0.878555 0.942722 0.962447
0.916645 0.942722 0.962447
0.942722 0.942722 0.962447
0.962447 0.942722 0.962447
0.978256 0.942722 0.962447
0.991414 0.942722 0.962447
0.000000 0.962447 0.962447
0.809302 0.962447 0.962447
0.878555 0.962447 0.962447
0.916645 0.962447 0.962447
0.942722 0.962447 0.962447
0.962447 0.962447 0.962447
0.978256 0.962447 0.962447
0.991414 0.962447 0.962447
0.000000 0.978256 0.962447
0.809302 0.978256 0.962447
0.878555 0.978256 0.962447
0.916645 0.978256 0.962447
0.942722 0.978256 0.962447
0.962447 0.978256 0.962447
0.978256 0.978256 0.962447
0.991414 0.978256 0.962447
0.000000 0.991414 0.962447
0.809302 0.991414 0.962447
0.878555 0.991414 0.962447
0.916645 0.991414 0.962447
0.942722 0.991414 0.962447
0.962447 0.991414 0.962447
0.978256 0.991414 0.962447
0.991414 0.991414 0.962447
0.000000 0.000000 0.978256
0.809302 0.000000 0.978256
0.878555 0.000000 0.978256
0.916645 0.000000 0.978256
0.942722 0.000000 0.978256
0.962447 0.000000 0.978256
0.978256 0.000000 0.978256
0.991414 0.000000 0.978256
0.000000 0.809302 0.978256
0.809302 0.809302 0.978256
0.878555 0.809302 0.978256
0.916645 0.809302 0.978256
0.942722 0.809302 0.978256
0.962447 0.809302 0.978256
0.978256 0.809302 0.978256
0.991414 0.809302 0.978256
0.000000 0.878555 0.978256
0.809302 0.878555 0.978256
0.878555 0.878555 0.978256
0.916645 0.878555 0.978256
0.942722 0.878555 0.978256
0.962447 0.878555 0.978256
0.978256 0.878555 0.978256
0.991414 0.878555 0.978256
0.000000 0.916645 0.978256
0.809302 0.916645 0.978256
0.878555 0.916645 0.978256
0.916645 0.916645 0.978256
0.942722 0.916645 0.978256
0.962447 0.916645 0.978256
0.978256 0.916645 0.978256
0.991414 0.916645 0.978256
0.000000 0.942722 0.978256
0.809302 0.942722 0.978256
0.878555 0.942722 0.978256
0.916645 0.942722 0.978256
0.942722 0.942722 0.978256
0.962447 0.942722 0.978256
0.978256 0.942722 0.978256
0.991414 0.942722 0.978256
0.000000 0.962447 0.978256
0.809302 0.962447 0.978256
0.878555 0.962447 0.978256
0.916645 0.962447 0.978256
0.942722 0.962447 0.978256
0.962447 0.962447 0.978256
0.978256 0.962447 0.978256
0.991414 0.962447 0.978256
0.000000 0.978256 0.978256
0.809302 0.978256 0.978256
0.878555 0.978256 0.978256
0.916645 0.978256 0.978256
0.942722 0.978256 0.978256
0.962447 0.978256 0.978256
0.978256 0.978256 0.978256
0.991414 0.978256 0.978256
0.000000 0.991414 0.978256
0.809302 0.991414 0.978256
0.878555 0.991414 0.978256
0.916645 0.991414 0.978256
0.942722 0.991414 0.978256
0.962447 0.991414 0.978256
0.978256 0.991414 0.978256
0.991414 0.991414 0.978256
0.000000 0.000000 0.991414
0.809302 0.000000 0.991414
0.878555 0.000000 0.991414
0.916645 0.000000 0.991414
0.942722 0.000000 0.991414
0.962447 0.000000 0.991414
0.978256 0.000000 0.991414
0.991414 0.000000 0.991414
0.000000 0.809302 0.991414
0.809302 0.809302 0.991414
0.878555 0.809302 0.991414
0.916645 0.809302 0.991414
0.942722 0.809302 0.991414
0.962447 0.809302 0.991414
0.978256 0.809302 0.991414
0.991414 0.809302 0.991414
0.000000 0.878555 0.991414
0.809302 0.878555 0.991414
0.878555 0.878555 0.991414
0.916645 0.878555 0.991414
0.942722 0.878555 0.991414
0.962447 0.878555 0.991414
0.978256 0.878555 0.991414
0.991414 0.878555 0.991414
0.000000 0.916645 0.991414
0.809302 0.916645 0.991414
0.878555 0.916645 0.991414
0.916645 0.916645 0.991414
0.942722 0.916645 0.991414
0.962447 0.916645 0.991414
0.978256 0.916645 0.991414
0.991414 0.916645 0.991414
0.000000 0.942722 0.991414
0.809302 0.942722 0.991414
0.878555 0.942722 0.991414
0.916645 0.942722 0.991414
0.942722 0.942722 0.991414
0.962447 0.942722 0.991414
0.978256 0.942722 0.991414
0.991414 0.942722 0.991414
0.000000 0.962447 0.991414
0.809302 0.962447 0.991414
0.878555 0.962447 0.991414
0.916645 0.962447 0.991414
0.942722 0.962447 0.991414
0.962447 0.962447 0.991414
0.978256 0.962447 0.991414
0.991414 0.962447 0.991414
0.000000 0.978256 0.991414
0.809302 0.978256 0.991414
0.878555 0.978256 0.991414
0.916645 0.978256 0.991414
0.942722 0.978256 0.991414
0.962447 0.978256 0.991414
0.978256 0.978256 0.991414
0.991414 0.978256 0.991414
0.000000 0.991414 0.991414
0.809302 0.991414 0.991414
0.878555 0.991414 0.991414
0.916645 0.991414 0.991414
0.942722 0.991414 0.991414
0.962447 0.991414 0.991414
0.978256 0.991414 0.991414
0.991414 0.991414 0.991414
