.nuke/nuke.LUT/linear-2-logC_exteded/AlexaV3_EI0160_Linear2LogC_EE_nuke3d.cube
# Alexa conversion LUT, lin2logc. Full in/full out.
# created by alexalutconv (2.07)
LUT_3D_SIZE 8
DOMAIN_MIN 0.000000 0.000000 0.000000
DOMAIN_MAX 0.903226 0.903226 0.903226
0.000000 0.000000 0.000000
0.572014 0.000000 0.000000
0.653872 0.000000 0.000000
0.701536 0.000000 0.000000
0.735293 0.000000 0.000000
0.761452 0.000000 0.000000
0.782812 0.000000 0.000000
0.800864 0.000000 0.000000
0.000000 0.572014 0.000000
0.572014 0.572014 0.000000
0.653872 0.572014 0.000000
0.701536 0.572014 0.000000
0.735293 0.572014 0.000000
0.761452 0.572014 0.000000
0.782812 0.572014 0.000000
0.800864 0.572014 0.000000
0.000000 0.653872 0.000000
0.572014 0.653872 0.000000
0.653872 0.653872 0.000000
0.701536 0.653872 0.000000
0.735293 0.653872 0.000000
0.761452 0.653872 0.000000
0.782812 0.653872 0.000000
0.800864 0.653872 0.000000
0.000000 0.701536 0.000000
0.572014 0.701536 0.000000
0.653872 0.701536 0.000000
0.701536 0.701536 0.000000
0.735293 0.701536 0.000000
0.761452 0.701536 0.000000
0.782812 0.701536 0.000000
0.800864 0.701536 0.000000
0.000000 0.735293 0.000000
0.572014 0.735293 0.000000
0.653872 0.735293 0.000000
0.701536 0.735293 0.000000
0.735293 0.735293 0.000000
0.761452 0.735293 0.000000
0.782812 0.735293 0.000000
0.800864 0.735293 0.000000
0.000000 0.761452 0.000000
0.572014 0.761452 0.000000
0.653872 0.761452 0.000000
0.701536 0.761452 0.000000
0.735293 0.761452 0.000000
0.761452 0.761452 0.000000
0.782812 0.761452 0.000000
0.800864 0.761452 0.000000
0.000000 0.782812 0.000000
0.572014 0.782812 0.000000
0.653872 0.782812 0.000000
0.701536 0.782812 0.000000
0.735293 0.782812 0.000000
0.761452 0.782812 0.000000
0.782812 0.782812 0.000000
0.800864 0.782812 0.000000
0.000000 0.800864 0.000000
0.572014 0.800864 0.000000
0.653872 0.800864 0.000000
0.701536 0.800864 0.000000
0.735293 0.800864 0.000000
0.761452 0.800864 0.000000
0.782812 0.800864 0.000000
0.800864 0.800864 0.000000
0.000000 0.000000 0.572014
0.572014 0.000000 0.572014
0.653872 0.000000 0.572014
0.701536 0.000000 0.572014
0.735293 0.000000 0.572014
0.761452 0.000000 0.572014
0.782812 0.000000 0.572014
0.800864 0.000000 0.572014
0.000000 0.572014 0.572014
0.572014 0.572014 0.572014
0.653872 0.572014 0.572014
0.701536 0.572014 0.572014
0.735293 0.572014 0.572014
0.761452 0.572014 0.572014
0.782812 0.572014 0.572014
0.800864 0.572014 0.572014
0.000000 0.653872 0.572014
0.572014 0.653872 0.572014
0.653872 0.653872 0.572014
0.701536 0.653872 0.572014
0.735293 0.653872 0.572014
0.761452 0.653872 0.572014
0.782812 0.653872 0.572014
0.800864 0.653872 0.572014
0.000000 0.701536 0.572014
0.572014 0.701536 0.572014
0.653872 0.701536 0.572014
0.701536 0.701536 0.572014
0.735293 0.701536 0.572014
0.761452 0.701536 0.572014
0.782812 0.701536 0.572014
0.800864 0.701536 0.572014
0.000000 0.735293 0.572014
0.572014 0.735293 0.572014
0.653872 0.735293 0.572014
0.701536 0.735293 0.572014
0.735293 0.735293 0.572014
0.761452 0.735293 0.572014
0.782812 0.735293 0.572014
0.800864 0.735293 0.572014
0.000000 0.761452 0.572014
0.572014 0.761452 0.572014
0.653872 0.761452 0.572014
0.701536 0.761452 0.572014
0.735293 0.761452 0.572014
0.761452 0.761452 0.572014
0.782812 0.761452 0.572014
0.800864 0.761452 0.572014
0.000000 0.782812 0.572014
0.572014 0.782812 0.572014
0.653872 0.782812 0.572014
0.701536 0.782812 0.572014
0.735293 0.782812 0.572014
0.761452 0.782812 0.572014
0.782812 0.782812 0.572014
0.800864 0.782812 0.572014
0.000000 0.800864 0.572014
0.572014 0.800864 0.572014
0.653872 0.800864 0.572014
0.701536 0.800864 0.572014
0.735293 0.800864 0.572014
0.761452 0.800864 0.572014
0.782812 0.800864 0.572014
0.800864 0.800864 0.572014
0.000000 0.000000 0.653872
0.572014 0.000000 0.653872
0.653872 0.000000 0.653872
0.701536 0.000000 0.653872
0.735293 0.000000 0.653872
0.761452 0.000000 0.653872
0.782812 0.000000 0.653872
0.800864 0.000000 0.653872
0.000000 0.572014 0.653872
0.572014 0.572014 0.653872
0.653872 0.572014 0.653872
0.701536 0.572014 0.653872
0.735293 0.572014 0.653872
0.761452 0.572014 0.653872
0.782812 0.572014 0.653872
0.800864 0.572014 0.653872
0.000000 0.653872 0.653872
0.572014 0.653872 0.653872
0.653872 0.653872 0.653872
0.701536 0.653872 0.653872
0.735293 0.653872 0.653872
0.761452 0.653872 0.653872
0.782812 0.653872 0.653872
0.800864 0.653872 0.653872
0.000000 0.701536 0.653872
0.572014 0.701536 0.653872
0.653872 0.701536 0.653872
0.701536 0.701536 0.653872
0.735293 0.701536 0.653872
0.761452 0.701536 0.653872
0.782812 0.701536 0.653872
0.800864 0.701536 0.653872
0.000000 0.735293 0.653872
0.572014 0.735293 0.653872
0.653872 0.735293 0.653872
0.701536 0.735293 0.653872
0.735293 0.735293 0.653872
0.761452 0.735293 0.653872
0.782812 0.735293 0.653872
0.800864 0.735293 0.653872
0.000000 0.761452 0.653872
0.572014 0.761452 0.653872
0.653872 0.761452 0.653872
0.701536 0.761452 0.653872
0.735293 0.761452 0.653872
0.761452 0.761452 0.653872
0.782812 0.761452 0.653872
0.800864 0.761452 0.653872
0.000000 0.782812 0.653872
0.572014 0.782812 0.653872
0.653872 0.782812 0.653872
0.701536 0.782812 0.653872
0.735293 0.782812 0.653872
0.761452 0.782812 0.653872
0.782812 0.782812 0.653872
0.800864 0.782812 0.653872
0.000000 0.800864 0.653872
0.572014 0.800864 0.653872
0.653872 0.800864 0.653872
0.701536 0.800864 0.653872
0.735293 0.800864 0.653872
0.761452 0.800864 0.653872
0.782812 0.800864 0.653872
0.800864 0.800864 0.653872
0.000000 0.000000 0.701536
0.572014 0.000000 0.701536
0.653872 0.000000 0.701536
0.701536 0.000000 0.701536
0.735293 0.000000 0.701536
0.761452 0.000000 0.701536
0.782812 0.000000 0.701536
0.800864 0.000000 0.701536
0.000000 0.572014 0.701536
0.572014 0.572014 0.701536
0.653872 0.572014 0.701536
0.701536 0.572014 0.701536
0.735293 0.572014 0.701536
0.761452 0.572014 0.701536
0.782812 0.572014 0.701536
0.800864 0.572014 0.701536
0.000000 0.653872 0.701536
0.572014 0.653872 0.701536
0.653872 0.653872 0.701536
0.701536 0.653872 0.701536
0.735293 0.653872 0.701536
0.761452 0.653872 0.701536
0.782812 0.653872 0.701536
0.800864 0.653872 0.701536
0.000000 0.701536 0.701536
0.572014 0.701536 0.701536
0.653872 0.701536 0.701536
0.701536 0.701536 0.701536
0.735293 0.701536 0.701536
0.761452 0.701536 0.701536
0.782812 0.701536 0.701536
0.800864 0.701536 0.701536
0.000000 0.735293 0.701536
0.572014 0.735293 0.701536
0.653872 0.735293 0.701536
0.701536 0.735293 0.701536
0.735293 0.735293 0.701536
0.761452 0.735293 0.701536
0.782812 0.735293 0.701536
0.800864 0.735293 0.701536
0.000000 0.761452 0.701536
0.572014 0.761452 0.701536
0.653872 0.761452 0.701536
0.701536 0.761452 0.701536
0.735293 0.761452 0.701536
0.761452 0.761452 0.701536
0.782812 0.761452 0.701536
0.800864 0.761452 0.701536
0.000000 0.782812 0.701536
0.572014 0.782812 0.701536
0.653872 0.782812 0.701536
0.701536 0.782812 0.701536
0.735293 0.782812 0.701536
0.761452 0.782812 0.701536
0.782812 0.782812 0.701536
0.800864 0.782812 0.701536
0.000000 0.800864 0.701536
0.572014 0.800864 0.701536
0.653872 0.800864 0.701536
0.701536 0.800864 0.701536
0.735293 0.800864 0.701536
0.761452 0.800864 0.701536
0.782812 0.800864 0.701536
0.800864 0.800864 0.701536
0.000000 0.000000 0.735293
0.572014 0.000000 0.735293
0.653872 0.000000 0.735293
0.701536 0.000000 0.735293
0.735293 0.000000 0.735293
0.761452 0.000000 0.735293
0.782812 0.000000 0.735293
0.800864 0.000000 0.735293
0.000000 0.572014 0.735293
0.572014 0.572014 0.735293
0.653872 0.572014 0.735293
0.701536 0.572014 0.735293
0.735293 0.572014 0.735293
0.761452 0.572014 0.735293
0.782812 0.572014 0.735293
0.800864 0.572014 0.735293
0.000000 0.653872 0.735293
0.572014 0.653872 0.735293
0.653872 0.653872 0.735293
0.701536 0.653872 0.735293
0.735293 0.653872 0.735293
0.761452 0.653872 0.735293
0.782812 0.653872 0.735293
0.800864 0.653872 0.735293
0.000000 0.701536 0.735293
0.572014 0.701536 0.735293
0.653872 0.701536 0.735293
0.701536 0.701536 0.735293
0.735293 0.701536 0.735293
0.761452 0.701536 0.735293
0.782812 0.701536 0.735293
0.800864 0.701536 0.735293
0.000000 0.735293 0.735293
0.572014 0.735293 0.735293
0.653872 0.735293 0.735293
0.701536 0.735293 0.735293
0.735293 0.735293 0.735293
0.761452 0.735293 0.735293
0.782812 0.735293 0.735293
0.800864 0.735293 0.735293
0.000000 0.761452 0.735293
0.572014 0.761452 0.735293
0.653872 0.761452 0.735293
0.701536 0.761452 0.735293
0.735293 0.761452 0.735293
0.761452 0.761452 0.735293
0.782812 0.761452 0.735293
0.800864 0.761452 0.735293
0.000000 0.782812 0.735293
0.572014 0.782812 0.735293
0.653872 0.782812 0.735293
0.701536 0.782812 0.735293
0.735293 0.782812 0.735293
0.761452 0.782812 0.735293
0.782812 0.782812 0.735293
0.800864 0.782812 0.735293
0.000000 0.800864 0.735293
0.572014 0.800864 0.735293
0.653872 0.800864 0.735293
0.701536 0.800864 0.735293
0.735293 0.800864 0.735293
0.761452 0.800864 0.735293
0.782812 0.800864 0.735293
0.800864 0.800864 0.735293
0.000000 0.000000 0.761452
0.572014 0.000000 0.761452
0.653872 0.000000 0.761452
0.701536 0.000000 0.761452
0.735293 0.000000 0.761452
0.761452 0.000000 0.761452
0.782812 0.000000 0.761452
0.800864 0.000000 0.761452
0.000000 0.572014 0.761452
0.572014 0.572014 0.761452
0.653872 0.572014 0.761452
0.701536 0.572014 0.761452
0.735293 0.572014 0.761452
0.761452 0.572014 0.761452
0.782812 0.572014 0.761452
0.800864 0.572014 0.761452
0.000000 0.653872 0.761452
0.572014 0.653872 0.761452
0.653872 0.653872 0.761452
0.701536 0.653872 0.761452
0.735293 0.653872 0.761452
0.761452 0.653872 0.761452
0.782812 0.653872 0.761452
0.800864 0.653872 0.761452
0.000000 0.701536 0.761452
0.572014 0.701536 0.761452
0.653872 0.701536 0.761452
0.701536 0.701536 0.761452
0.735293 0.701536 0.761452
0.761452 0.701536 0.761452
0.782812 0.701536 0.761452
0.800864 0.701536 0.761452
0.000000 0.735293 0.761452
0.572014 0.735293 0.761452
0.653872 0.735293 0.761452
0.701536 0.735293 0.761452
0.735293 0.735293 0.761452
0.761452 0.735293 0.761452
0.782812 0.735293 0.761452
0.800864 0.735293 0.761452
0.000000 0.761452 0.761452
0.572014 0.761452 0.761452
0.653872 0.761452 0.761452
0.701536 0.761452 0.761452
0.735293 0.761452 0.761452
0.761452 0.761452 0.761452
0.782812 0.761452 0.761452
0.800864 0.761452 0.761452
0.000000 0.782812 0.761452
0.572014 0.782812 0.761452
0.653872 0.782812 0.761452
0.701536 0.782812 0.761452
0.735293 0.782812 0.761452
0.761452 0.782812 0.761452
0.782812 0.782812 0.761452
0.800864 0.782812 0.761452
0.000000 0.800864 0.761452
0.572014 0.800864 0.761452
0.653872 0.800864 0.761452
0.701536 0.800864 0.761452
0.735293 0.800864 0.761452
0.761452 0.800864 0.761452
0.782812 0.800864 0.761452
0.800864 0.800864 0.761452
0.000000 0.000000 0.782812
0.572014 0.000000 0.782812
0.653872 0.000000 0.782812
0.701536 0.000000 0.782812
0.735293 0.000000 0.782812
0.761452 0.000000 0.782812
0.782812 0.000000 0.782812
0.800864 0.000000 0.782812
0.000000 0.572014 0.782812
0.572014 0.572014 0.782812
0.653872 0.572014 0.782812
0.701536 0.572014 0.782812
0.735293 0.572014 0.782812
0.761452 0.572014 0.782812
0.782812 0.572014 0.782812
0.800864 0.572014 0.782812
0.000000 0.653872 0.782812
0.572014 0.653872 0.782812
0.653872 0.653872 0.782812
0.701536 0.653872 0.782812
0.735293 0.653872 0.782812
0.761452 0.653872 0.782812
0.782812 0.653872 0.782812
0.800864 0.653872 0.782812
0.000000 0.701536 0.782812
0.572014 0.701536 0.782812
0.653872 0.701536 0.782812
0.701536 0.701536 0.782812
0.735293 0.701536 0.782812
0.761452 0.701536 0.782812
0.782812 0.701536 0.782812
0.800864 0.701536 0.782812
0.000000 0.735293 0.782812
0.572014 0.735293 0.782812
0.653872 0.735293 0.782812
0.701536 0.735293 0.782812
0.735293 0.735293 0.782812
0.761452 0.735293 0.782812
0.782812 0.735293 0.782812
0.800864 0.735293 0.782812
0.000000 0.761452 0.782812
0.572014 0.761452 0.782812
0.653872 0.761452 0.782812
0.701536 0.761452 0.782812
0.735293 0.761452 0.782812
0.761452 0.761452 0.782812
0.782812 0.761452 0.782812
0.800864 0.761452 0.782812
0.000000 0.782812 0.782812
0.572014 0.782812 0.782812
0.653872 0.782812 0.782812
0.701536 0.782812 0.782812
0.735293 0.782812 0.782812
0.761452 0.782812 0.782812
0.782812 0.782812 0.782812
0.800864 0.782812 0.782812
0.000000 0.800864 0.782812
0.572014 0.800864 0.782812
0.653872 0.800864 0.782812
0.701536 0.800864 0.782812
0.735293 0.800864 0.782812
0.761452 0.800864 0.782812
0.782812 0.800864 0.782812
0.800864 0.800864 0.782812
0.000000 0.000000 0.800864
0.572014 0.000000 0.800864
0.653872 0.000000 0.800864
0.701536 0.000000 0.800864
0.735293 0.000000 0.800864
0.761452 0.000000 0.800864
0.782812 0.000000 0.800864
0.800864 0.000000 0.800864
0.000000 0.572014 0.800864
0.572014 0.572014 0.800864
0.653872 0.572014 0.800864
0.701536 0.572014 0.800864
0.735293 0.572014 0.800864
0.761452 0.572014 0.800864
0.782812 0.572014 0.800864
0.800864 0.572014 0.800864
0.000000 0.653872 0.800864
0.572014 0.653872 0.800864
0.653872 0.653872 0.800864
0.701536 0.653872 0.800864
0.735293 0.653872 0.800864
0.761452 0.653872 0.800864
0.782812 0.653872 0.800864
0.800864 0.653872 0.800864
0.000000 0.701536 0.800864
0.572014 0.701536 0.800864
0.653872 0.701536 0.800864
0.701536 0.701536 0.800864
0.735293 0.701536 0.800864
0.761452 0.701536 0.800864
0.782812 0.701536 0.800864
0.800864 0.701536 0.800864
0.000000 0.735293 0.800864
0.572014 0.735293 0.800864
0.653872 0.735293 0.800864
0.701536 0.735293 0.800864
0.735293 0.735293 0.800864
0.761452 0.735293 0.800864
0.782812 0.735293 0.800864
0.800864 0.735293 0.800864
0.000000 0.761452 0.800864
0.572014 0.761452 0.800864
0.653872 0.761452 0.800864
0.701536 0.761452 0.800864
0.735293 0.761452 0.800864
0.761452 0.761452 0.800864
0.782812 0.761452 0.800864
0.800864 0.761452 0.800864
0.000000 0.782812 0.800864
0.572014 0.782812 0.800864
0.653872 0.782812 0.800864
0.701536 0.782812 0.800864
0.735293 0.782812 0.800864
0.761452 0.782812 0.800864
0.782812 0.782812 0.800864
0.800864 0.782812 0.800864
0.000000 0.800864 0.800864
0.572014 0.800864 0.800864
0.653872 0.800864 0.800864
0.701536 0.800864 0.800864
0.735293 0.800864 0.800864
0.761452 0.800864 0.800864
0.782812 0.800864 0.800864
0.800864 0.800864 0.800864
