.nuke/nuke.LUT/linear-2-logC_exteded/AlexaV3_EI1000_Linear2LogC_EE_nuke3d.cube
# Alexa conversion LUT, lin2logc. Full in/full out.
# created by alexalutconv (2.07)
LUT_3D_SIZE 5
DOMAIN_MIN 0.000000 0.000000 0.000000
DOMAIN_MAX 0.903226 0.903226 0.903226
0.000000 0.000000 0.000000
0.811968 0.000000 0.000000
0.886350 0.000000 0.000000
0.929637 0.000000 0.000000
0.960289 0.000000 0.000000
0.000000 0.811968 0.000000
0.811968 0.811968 0.000000
0.886350 0.811968 0.000000
0.929637 0.811968 0.000000
0.960289 0.811968 0.000000
0.000000 0.886350 0.000000
0.811968 0.886350 0.000000
0.886350 0.886350 0.000000
0.929637 0.886350 0.000000
0.960289 0.886350 0.000000
0.000000 0.929637 0.000000
0.811968 0.929637 0.000000
0.886350 0.929637 0.000000
0.929637 0.929637 0.000000
0.960289 0.929637 0.000000
0.000000 0.960289 0.000000
0.811968 0.960289 0.000000
0.886350 0.960289 0.000000
0.929637 0.960289 0.000000
0.960289 0.960289 0.000000
0.000000 0.000000 0.811968
0.811968 0.000000 0.811968
0.886350 0.000000 0.811968
0.929637 0.000000 0.811968
0.960289 0.000000 0.811968
0.000000 0.811968 0.811968
0.811968 0.811968 0.811968
0.886350 0.811968 0.811968
0.929637 0.811968 0.811968
0.960289 0.811968 0.811968
0.000000 0.886350 0.811968
0.811968 0.886350 0.811968
0.886350 0.886350 0.811968
0.929637 0.886350 0.811968
0.960289 0.886350 0.811968
0.000000 0.929637 0.811968
0.811968 0.929637 0.811968
0.886350 0.929637 0.811968
0.929637 0.929637 0.811968
0.960289 0.929637 0.811968
0.000000 0.960289 0.811968
0.811968 0.960289 0.811968
0.886350 0.960289 0.811968
0.929637 0.960289 0.811968
0.960289 0.960289 0.811968
0.000000 0.000000 0.886350
0.811968 0.000000 0.886350
0.886350 0.000000 0.886350
0.929637 0.000000 0.886350
0.960289 0.000000 0.886350
0.000000 0.811968 0.886350
0.811968 0.811968 0.886350
0.886350 0.811968 0.886350
0.929637 0.811968 0.886350
0.960289 0.811968 0.886350
0.000000 0.886350 0.886350
0.811968 0.886350 0.886350
0.886350 0.886350 0.886350
0.929637 0.886350 0.886350
0.960289 0.886350 0.886350
0.000000 0.929637 0.886350
0.811968 0.929637 0.886350
0.886350 0.929637 0.886350
0.929637 0.929637 0.886350
0.960289 0.929637 0.886350
0.000000 0.960289 0.886350
0.811968 0.960289 0.886350
0.886350 0.960289 0.886350
0.929637 0.960289 0.886350
0.960289 0.960289 0.886350
0.000000 0.000000 0.929637
0.811968 0.000000 0.929637
0.886350 0.000000 0.929637
0.929637 0.000000 0.929637
0.960289 0.000000 0.929637
0.000000 0.811968 0.929637
0.811968 0.811968 0.929637
0.886350 0.811968 0.929637
0.929637 0.811968 0.929637
0.960289 0.811968 0.929637
0.000000 0.886350 0.929637
0.811968 0.886350 0.929637
0.886350 0.886350 0.929637
0.929637 0.886350 0.929637
0.960289 0.886350 0.929637
0.000000 0.929637 0.929637
0.811968 0.929637 0.929637
0.886350 0.929637 0.929637
0.929637 0.929637 0.929637
0.960289 0.929637 0.929637
0.000000 0.960289 0.929637
0.811968 0.960289 0.929637
0.886350 0.960289 0.929637
0.929637 0.960289 0.929637
0.960289 0.960289 0.929637
0.000000 0.000000 0.960289
0.811968 0.000000 0.960289
0.886350 0.000000 0.960289
0.929637 0.000000 0.960289
0.960289 0.000000 0.960289
0.000000 0.811968 0.960289
0.811968 0.811968 0.960289
0.886350 0.811968 0.960289
0.929637 0.811968 0.960289
0.960289 0.811968 0.960289
0.000000 0.886350 0.960289
0.811968 0.886350 0.960289
0.886350 0.886350 0.960289
0.929637 0.886350 0.960289
0.960289 0.886350 0.960289
0.000000 0.929637 0.960289
0.811968 0.929637 0.960289
0.886350 0.929637 0.960289
0.929637 0.929637 0.960289
0.960289 0.929637 0.960289
0.000000 0.960289 0.960289
0.811968 0.960289 0.960289
0.886350 0.960289 0.960289
0.929637 0.960289 0.960289
0.960289 0.960289 0.960289
