.nuke/nuke.LUT/linear-2-logC_exteded/AlexaV3_EI2000_Linear2LogC_EE_nuke3d.cube
# Alexa conversion LUT, lin2logc. Full in/full out.
# created by alexalutconv (2.07)
LUT_3D_SIZE 32
0.000000 0.000000 0.000000
0.658169 0.000000 0.000000
0.735500 0.000000 0.000000
0.778966 0.000000 0.000000
0.809302 0.000000 0.000000
0.832223 0.000000 0.000000
0.850494 0.000000 0.000000
0.865643 0.000000 0.000000
0.878555 0.000000 0.000000
0.889789 0.000000 0.000000
0.899719 0.000000 0.000000
0.908606 0.000000 0.000000
0.916645 0.000000 0.000000
0.923976 0.000000 0.000000
0.930711 0.000000 0.000000
0.936936 0.000000 0.000000
0.942722 0.000000 0.000000
0.948123 0.000000 0.000000
0.953187 0.000000 0.000000
0.957951 0.000000 0.000000
0.962447 0.000000 0.000000
0.966704 0.000000 0.000000
0.970745 0.000000 0.000000
0.974589 0.000000 0.000000
0.978256 0.000000 0.000000
0.981759 0.000000 0.000000
0.985111 0.000000 0.000000
0.988326 0.000000 0.000000
0.991414 0.000000 0.000000
0.994383 0.000000 0.000000
0.997242 0.000000 0.000000
1.000000 0.000000 0.000000
0.000000 0.658169 0.000000
0.658169 0.658169 0.000000
0.735500 0.658169 0.000000
0.778966 0.658169 0.000000
0.809302 0.658169 0.000000
0.832223 0.658169 0.000000
0.850494 0.658169 0.000000
0.865643 0.658169 0.000000
0.878555 0.658169 0.000000
0.889789 0.658169 0.000000
0.899719 0.658169 0.000000
0.908606 0.658169 0.000000
0.916645 0.658169 0.000000
0.923976 0.658169 0.000000
0.930711 0.658169 0.000000
0.936936 0.658169 0.000000
0.942722 0.658169 0.000000
0.948123 0.658169 0.000000
0.953187 0.658169 0.000000
0.957951 0.658169 0.000000
0.962447 0.658169 0.000000
0.966704 0.658169 0.000000
0.970745 0.658169 0.000000
0.974589 0.658169 0.000000
0.978256 0.658169 0.000000
0.981759 0.658169 0.000000
0.985111 0.658169 0.000000
0.988326 0.658169 0.000000
0.991414 0.658169 0.000000
0.994383 0.658169 0.000000
0.997242 0.658169 0.000000
1.000000 0.658169 0.000000
0.000000 0.735500 0.000000
0.658169 0.735500 0.000000
0.735500 0.735500 0.000000
0.778966 0.735500 0.000000
0.809302 0.735500 0.000000
0.832223 0.735500 0.000000
0.850494 0.735500 0.000000
0.865643 0.735500 0.000000
0.878555 0.735500 0.000000
0.889789 0.735500 0.000000
0.899719 0.735500 0.000000
0.908606 0.735500 0.000000
0.916645 0.735500 0.000000
0.923976 0.735500 0.000000
0.930711 0.735500 0.000000
0.936936 0.735500 0.000000
0.942722 0.735500 0.000000
0.948123 0.735500 0.000000
0.953187 0.735500 0.000000
0.957951 0.735500 0.000000
0.962447 0.735500 0.000000
0.966704 0.735500 0.000000
0.970745 0.735500 0.000000
0.974589 0.735500 0.000000
0.978256 0.735500 0.000000
0.981759 0.735500 0.000000
0.985111 0.735500 0.000000
0.988326 0.735500 0.000000
0.991414 0.735500 0.000000
0.994383 0.735500 0.000000
0.997242 0.735500 0.000000
1.000000 0.735500 0.000000
0.000000 0.778966 0.000000
0.658169 0.778966 0.000000
0.735500 0.778966 0.000000
0.778966 0.778966 0.000000
0.809302 0.778966 0.000000
0.832223 0.778966 0.000000
0.850494 0.778966 0.000000
0.865643 0.778966 0.000000
0.878555 0.778966 0.000000
0.889789 0.778966 0.000000
0.899719 0.778966 0.000000
0.908606 0.778966 0.000000
0.916645 0.778966 0.000000
0.923976 0.778966 0.000000
0.930711 0.778966 0.000000
0.936936 0.778966 0.000000
0.942722 0.778966 0.000000
0.948123 0.778966 0.000000
0.953187 0.778966 0.000000
0.957951 0.778966 0.000000
0.962447 0.778966 0.000000
0.966704 0.778966 0.000000
0.970745 0.778966 0.000000
0.974589 0.778966 0.000000
0.978256 0.778966 0.000000
0.981759 0.778966 0.000000
0.985111 0.778966 0.000000
0.988326 0.778966 0.000000
0.991414 0.778966 0.000000
0.994383 0.778966 0.000000
0.997242 0.778966 0.000000
1.000000 0.778966 0.000000
0.000000 0.809302 0.000000
0.658169 0.809302 0.000000
0.735500 0.809302 0.000000
0.778966 0.809302 0.000000
0.809302 0.809302 0.000000
0.832223 0.809302 0.000000
0.850494 0.809302 0.000000
0.865643 0.809302 0.000000
0.878555 0.809302 0.000000
0.889789 0.809302 0.000000
0.899719 0.809302 0.000000
0.908606 0.809302 0.000000
0.916645 0.809302 0.000000
0.923976 0.809302 0.000000
0.930711 0.809302 0.000000
0.936936 0.809302 0.000000
0.942722 0.809302 0.000000
0.948123 0.809302 0.000000
0.953187 0.809302 0.000000
0.957951 0.809302 0.000000
0.962447 0.809302 0.000000
0.966704 0.809302 0.000000
0.970745 0.809302 0.000000
0.974589 0.809302 0.000000
0.978256 0.809302 0.000000
0.981759 0.809302 0.000000
0.985111 0.809302 0.000000
0.988326 0.809302 0.000000
0.991414 0.809302 0.000000
0.994383 0.809302 0.000000
0.997242 0.809302 0.000000
1.000000 0.809302 0.000000
0.000000 0.832223 0.000000
0.658169 0.832223 0.000000
0.735500 0.832223 0.000000
0.778966 0.832223 0.000000
0.809302 0.832223 0.000000
0.832223 0.832223 0.000000
0.850494 0.832223 0.000000
0.865643 0.832223 0.000000
0.878555 0.832223 0.000000
0.889789 0.832223 0.000000
0.899719 0.832223 0.000000
0.908606 0.832223 0.000000
0.916645 0.832223 0.000000
0.923976 0.832223 0.000000
0.930711 0.832223 0.000000
0.936936 0.832223 0.000000
0.942722 0.832223 0.000000
0.948123 0.832223 0.000000
0.953187 0.832223 0.000000
0.957951 0.832223 0.000000
0.962447 0.832223 0.000000
0.966704 0.832223 0.000000
0.970745 0.832223 0.000000
0.974589 0.832223 0.000000
0.978256 0.832223 0.000000
0.981759 0.832223 0.000000
0.985111 0.832223 0.000000
0.988326 0.832223 0.000000
0.991414 0.832223 0.000000
0.994383 0.832223 0.000000
0.997242 0.832223 0.000000
1.000000 0.832223 0.000000
0.000000 0.850494 0.000000
0.658169 0.850494 0.000000
0.735500 0.850494 0.000000
0.778966 0.850494 0.000000
0.809302 0.850494 0.000000
0.832223 0.850494 0.000000
0.850494 0.850494 0.000000
0.865643 0.850494 0.000000
0.878555 0.850494 0.000000
0.889789 0.850494 0.000000
0.899719 0.850494 0.000000
0.908606 0.850494 0.000000
0.916645 0.850494 0.000000
0.923976 0.850494 0.000000
0.930711 0.850494 0.000000
0.936936 0.850494 0.000000
0.942722 0.850494 0.000000
0.948123 0.850494 0.000000
0.953187 0.850494 0.000000
0.957951 0.850494 0.000000
0.962447 0.850494 0.000000
0.966704 0.850494 0.000000
0.970745 0.850494 0.000000
0.974589 0.850494 0.000000
0.978256 0.850494 0.000000
0.981759 0.850494 0.000000
0.985111 0.850494 0.000000
0.988326 0.850494 0.000000
0.991414 0.850494 0.000000
0.994383 0.850494 0.000000
0.997242 0.850494 0.000000
1.000000 0.850494 0.000000
0.000000 0.865643 0.000000
0.658169 0.865643 0.000000
0.735500 0.865643 0.000000
0.778966 0.865643 0.000000
0.809302 0.865643 0.000000
0.832223 0.865643 0.000000
0.850494 0.865643 0.000000
0.865643 0.865643 0.000000
0.878555 0.865643 0.000000
0.889789 0.865643 0.000000
0.899719 0.865643 0.000000
0.908606 0.865643 0.000000
0.916645 0.865643 0.000000
0.923976 0.865643 0.000000
0.930711 0.865643 0.000000
0.936936 0.865643 0.000000
0.942722 0.865643 0.000000
0.948123 0.865643 0.000000
0.953187 0.865643 0.000000
0.957951 0.865643 0.000000
0.962447 0.865643 0.000000
0.966704 0.865643 0.000000
0.970745 0.865643 0.000000
0.974589 0.865643 0.000000
0.978256 0.865643 0.000000
0.981759 0.865643 0.000000
0.985111 0.865643 0.000000
0.988326 0.865643 0.000000
0.991414 0.865643 0.000000
0.994383 0.865643 0.000000
0.997242 0.865643 0.000000
1.000000 0.865643 0.000000
0.000000 0.878555 0.000000
0.658169 0.878555 0.000000
0.735500 0.878555 0.000000
0.778966 0.878555 0.000000
0.809302 0.878555 0.000000
0.832223 0.878555 0.000000
0.850494 0.878555 0.000000
0.865643 0.878555 0.000000
0.878555 0.878555 0.000000
0.889789 0.878555 0.000000
0.899719 0.878555 0.000000
0.908606 0.878555 0.000000
0.916645 0.878555 0.000000
0.923976 0.878555 0.000000
0.930711 0.878555 0.000000
0.936936 0.878555 0.000000
0.942722 0.878555 0.000000
0.948123 0.878555 0.000000
0.953187 0.878555 0.000000
0.957951 0.878555 0.000000
0.962447 0.878555 0.000000
0.966704 0.878555 0.000000
0.970745 0.878555 0.000000
0.974589 0.878555 0.000000
0.978256 0.878555 0.000000
0.981759 0.878555 0.000000
0.985111 0.878555 0.000000
0.988326 0.878555 0.000000
0.991414 0.878555 0.000000
0.994383 0.878555 0.000000
0.997242 0.878555 0.000000
1.000000 0.878555 0.000000
0.000000 0.889789 0.000000
0.658169 0.889789 0.000000
0.735500 0.889789 0.000000
0.778966 0.889789 0.000000
0.809302 0.889789 0.000000
0.832223 0.889789 0.000000
0.850494 0.889789 0.000000
0.865643 0.889789 0.000000
0.878555 0.889789 0.000000
0.889789 0.889789 0.000000
0.899719 0.889789 0.000000
0.908606 0.889789 0.000000
0.916645 0.889789 0.000000
0.923976 0.889789 0.000000
0.930711 0.889789 0.000000
0.936936 0.889789 0.000000
0.942722 0.889789 0.000000
0.948123 0.889789 0.000000
0.953187 0.889789 0.000000
0.957951 0.889789 0.000000
0.962447 0.889789 0.000000
0.966704 0.889789 0.000000
0.970745 0.889789 0.000000
0.974589 0.889789 0.000000
0.978256 0.889789 0.000000
0.981759 0.889789 0.000000
0.985111 0.889789 0.000000
0.988326 0.889789 0.000000
0.991414 0.889789 0.000000
0.994383 0.889789 0.000000
0.997242 0.889789 0.000000
1.000000 0.889789 0.000000
0.000000 0.899719 0.000000
0.658169 0.899719 0.000000
0.735500 0.899719 0.000000
0.778966 0.899719 0.000000
0.809302 0.899719 0.000000
0.832223 0.899719 0.000000
0.850494 0.899719 0.000000
0.865643 0.899719 0.000000
0.878555 0.899719 0.000000
0.889789 0.899719 0.000000
0.899719 0.899719 0.000000
0.908606 0.899719 0.000000
0.916645 0.899719 0.000000
0.923976 0.899719 0.000000
0.930711 0.899719 0.000000
0.936936 0.899719 0.000000
0.942722 0.899719 0.000000
0.948123 0.899719 0.000000
0.953187 0.899719 0.000000
0.957951 0.899719 0.000000
0.962447 0.899719 0.000000
0.966704 0.899719 0.000000
0.970745 0.899719 0.000000
0.974589 0.899719 0.000000
0.978256 0.899719 0.000000
0.981759 0.899719 0.000000
0.985111 0.899719 0.000000
0.988326 0.899719 0.000000
0.991414 0.899719 0.000000
0.994383 0.899719 0.000000
0.997242 0.899719 0.000000
1.000000 0.899719 0.000000
0.000000 0.908606 0.000000
0.658169 0.908606 0.000000
0.735500 0.908606 0.000000
0.778966 0.908606 0.000000
0.809302 0.908606 0.000000
0.832223 0.908606 0.000000
0.850494 0.908606 0.000000
0.865643 0.908606 0.000000
0.878555 0.908606 0.000000
0.889789 0.908606 0.000000
0.899719 0.908606 0.000000
0.908606 0.908606 0.000000
0.916645 0.908606 0.000000
0.923976 0.908606 0.000000
0.930711 0.908606 0.000000
0.936936 0.908606 0.000000
0.942722 0.908606 0.000000
0.948123 0.908606 0.000000
0.953187 0.908606 0.000000
0.957951 0.908606 0.000000
0.962447 0.908606 0.000000
0.966704 0.908606 0.000000
0.970745 0.908606 0.000000
0.974589 0.908606 0.000000
0.978256 0.908606 0.000000
0.981759 0.908606 0.000000
0.985111 0.908606 0.000000
0.988326 0.908606 0.000000
0.991414 0.908606 0.000000
0.994383 0.908606 0.000000
0.997242 0.908606 0.000000
1.000000 0.908606 0.000000
0.000000 0.916645 0.000000
0.658169 0.916645 0.000000
0.735500 0.916645 0.000000
0.778966 0.916645 0.000000
0.809302 0.916645 0.000000
0.832223 0.916645 0.000000
0.850494 0.916645 0.000000
0.865643 0.916645 0.000000
0.878555 0.916645 0.000000
0.889789 0.916645 0.000000
0.899719 0.916645 0.000000
0.908606 0.916645 0.000000
0.916645 0.916645 0.000000
0.923976 0.916645 0.000000
0.930711 0.916645 0.000000
0.936936 0.916645 0.000000
0.942722 0.916645 0.000000
0.948123 0.916645 0.000000
0.953187 0.916645 0.000000
0.957951 0.916645 0.000000
0.962447 0.916645 0.000000
0.966704 0.916645 0.000000
0.970745 0.916645 0.000000
0.974589 0.916645 0.000000
0.978256 0.916645 0.000000
0.981759 0.916645 0.000000
0.985111 0.916645 0.000000
0.988326 0.916645 0.000000
0.991414 0.916645 0.000000
0.994383 0.916645 0.000000
0.997242 0.916645 0.000000
1.000000 0.916645 0.000000
0.000000 0.923976 0.000000
0.658169 0.923976 0.000000
0.735500 0.923976 0.000000
0.778966 0.923976 0.000000
0.809302 0.923976 0.000000
0.832223 0.923976 0.000000
0.850494 0.923976 0.000000
0.865643 0.923976 0.000000
0.878555 0.923976 0.000000
0.889789 0.923976 0.000000
0.899719 0.923976 0.000000
0.908606 0.923976 0.000000
0.916645 0.923976 0.000000
0.923976 0.923976 0.000000
0.930711 0.923976 0.000000
0.936936 0.923976 0.000000
0.942722 0.923976 0.000000
0.948123 0.923976 0.000000
0.953187 0.923976 0.000000
0.957951 0.923976 0.000000
0.962447 0.923976 0.000000
0.966704 0.923976 0.000000
0.970745 0.923976 0.000000
0.974589 0.923976 0.000000
0.978256 0.923976 0.000000
0.981759 0.923976 0.000000
0.985111 0.923976 0.000000
0.988326 0.923976 0.000000
0.991414 0.923976 0.000000
0.994383 0.923976 0.000000
0.997242 0.923976 0.000000
1.000000 0.923976 0.000000
0.000000 0.930711 0.000000
0.658169 0.930711 0.000000
0.735500 0.930711 0.000000
0.778966 0.930711 0.000000
0.809302 0.930711 0.000000
0.832223 0.930711 0.000000
0.850494 0.930711 0.000000
0.865643 0.930711 0.000000
0.878555 0.930711 0.000000
0.889789 0.930711 0.000000
0.899719 0.930711 0.000000
0.908606 0.930711 0.000000
0.916645 0.930711 0.000000
0.923976 0.930711 0.000000
0.930711 0.930711 0.000000
0.936936 0.930711 0.000000
0.942722 0.930711 0.000000
0.948123 0.930711 0.000000
0.953187 0.930711 0.000000
0.957951 0.930711 0.000000
0.962447 0.930711 0.000000
0.966704 0.930711 0.000000
0.970745 0.930711 0.000000
0.974589 0.930711 0.000000
0.978256 0.930711 0.000000
0.981759 0.930711 0.000000
0.985111 0.930711 0.000000
0.988326 0.930711 0.000000
0.991414 0.930711 0.000000
0.994383 0.930711 0.000000
0.997242 0.930711 0.000000
1.000000 0.930711 0.000000
0.000000 0.936936 0.000000
0.658169 0.936936 0.000000
0.735500 0.936936 0.000000
0.778966 0.936936 0.000000
0.809302 0.936936 0.000000
0.832223 0.936936 0.000000
0.850494 0.936936 0.000000
0.865643 0.936936 0.000000
0.878555 0.936936 0.000000
0.889789 0.936936 0.000000
0.899719 0.936936 0.000000
0.908606 0.936936 0.000000
0.916645 0.936936 0.000000
0.923976 0.936936 0.000000
0.930711 0.936936 0.000000
0.936936 0.936936 0.000000
0.942722 0.936936 0.000000
0.948123 0.936936 0.000000
0.953187 0.936936 0.000000
0.957951 0.936936 0.000000
0.962447 0.936936 0.000000
0.966704 0.936936 0.000000
0.970745 0.936936 0.000000
0.974589 0.936936 0.000000
0.978256 0.936936 0.000000
0.981759 0.936936 0.000000
0.985111 0.936936 0.000000
0.988326 0.936936 0.000000
0.991414 0.936936 0.000000
0.994383 0.936936 0.000000
0.997242 0.936936 0.000000
1.000000 0.936936 0.000000
0.000000 0.942722 0.000000
0.658169 0.942722 0.000000
0.735500 0.942722 0.000000
0.778966 0.942722 0.000000
0.809302 0.942722 0.000000
0.832223 0.942722 0.000000
0.850494 0.942722 0.000000
0.865643 0.942722 0.000000
0.878555 0.942722 0.000000
0.889789 0.942722 0.000000
0.899719 0.942722 0.000000
0.908606 0.942722 0.000000
0.916645 0.942722 0.000000
0.923976 0.942722 0.000000
0.930711 0.942722 0.000000
0.936936 0.942722 0.000000
0.942722 0.942722 0.000000
0.948123 0.942722 0.000000
0.953187 0.942722 0.000000
0.957951 0.942722 0.000000
0.962447 0.942722 0.000000
0.966704 0.942722 0.000000
0.970745 0.942722 0.000000
0.974589 0.942722 0.000000
0.978256 0.942722 0.000000
0.981759 0.942722 0.000000
0.985111 0.942722 0.000000
0.988326 0.942722 0.000000
0.991414 0.942722 0.000000
0.994383 0.942722 0.000000
0.997242 0.942722 0.000000
1.000000 0.942722 0.000000
0.000000 0.948123 0.000000
0.658169 0.948123 0.000000
0.735500 0.948123 0.000000
0.778966 0.948123 0.000000
0.809302 0.948123 0.000000
0.832223 0.948123 0.000000
0.850494 0.948123 0.000000
0.865643 0.948123 0.000000
0.878555 0.948123 0.000000
0.889789 0.948123 0.000000
0.899719 0.948123 0.000000
0.908606 0.948123 0.000000
0.916645 0.948123 0.000000
0.923976 0.948123 0.000000
0.930711 0.948123 0.000000
0.936936 0.948123 0.000000
0.942722 0.948123 0.000000
0.948123 0.948123 0.000000
0.953187 0.948123 0.000000
0.957951 0.948123 0.000000
0.962447 0.948123 0.000000
0.966704 0.948123 0.000000
0.970745 0.948123 0.000000
0.974589 0.948123 0.000000
0.978256 0.948123 0.000000
0.981759 0.948123 0.000000
0.985111 0.948123 0.000000
0.988326 0.948123 0.000000
0.991414 0.948123 0.000000
0.994383 0.948123 0.000000
0.997242 0.948123 0.000000
1.000000 0.948123 0.000000
0.000000 0.953187 0.000000
0.658169 0.953187 0.000000
0.735500 0.953187 0.000000
0.778966 0.953187 0.000000
0.809302 0.953187 0.000000
0.832223 0.953187 0.000000
0.850494 0.953187 0.000000
0.865643 0.953187 0.000000
0.878555 0.953187 0.000000
0.889789 0.953187 0.000000
0.899719 0.953187 0.000000
0.908606 0.953187 0.000000
0.916645 0.953187 0.000000
0.923976 0.953187 0.000000
0.930711 0.953187 0.000000
0.936936 0.953187 0.000000
0.942722 0.953187 0.000000
0.948123 0.953187 0.000000
0.953187 0.953187 0.000000
0.957951 0.953187 0.000000
0.962447 0.953187 0.000000
0.966704 0.953187 0.000000
0.970745 0.953187 0.000000
0.974589 0.953187 0.000000
0.978256 0.953187 0.000000
0.981759 0.953187 0.000000
0.985111 0.953187 0.000000
0.988326 0.953187 0.000000
0.991414 0.953187 0.000000
0.994383 0.953187 0.000000
0.997242 0.953187 0.000000
1.000000 0.953187 0.000000
0.000000 0.957951 0.000000
0.658169 0.957951 0.000000
0.735500 0.957951 0.000000
0.778966 0.957951 0.000000
0.809302 0.957951 0.000000
0.832223 0.957951 0.000000
0.850494 0.957951 0.000000
0.865643 0.957951 0.000000
0.878555 0.957951 0.000000
0.889789 0.957951 0.000000
0.899719 0.957951 0.000000
0.908606 0.957951 0.000000
0.916645 0.957951 0.000000
0.923976 0.957951 0.000000
0.930711 0.957951 0.000000
0.936936 0.957951 0.000000
0.942722 0.957951 0.000000
0.948123 0.957951 0.000000
0.953187 0.957951 0.000000
0.957951 0.957951 0.000000
0.962447 0.957951 0.000000
0.966704 0.957951 0.000000
0.970745 0.957951 0.000000
0.974589 0.957951 0.000000
0.978256 0.957951 0.000000
0.981759 0.957951 0.000000
0.985111 0.957951 0.000000
0.988326 0.957951 0.000000
0.991414 0.957951 0.000000
0.994383 0.957951 0.000000
0.997242 0.957951 0.000000
1.000000 0.957951 0.000000
0.000000 0.962447 0.000000
0.658169 0.962447 0.000000
0.735500 0.962447 0.000000
0.778966 0.962447 0.000000
0.809302 0.962447 0.000000
0.832223 0.962447 0.000000
0.850494 0.962447 0.000000
0.865643 0.962447 0.000000
0.878555 0.962447 0.000000
0.889789 0.962447 0.000000
0.899719 0.962447 0.000000
0.908606 0.962447 0.000000
0.916645 0.962447 0.000000
0.923976 0.962447 0.000000
0.930711 0.962447 0.000000
0.936936 0.962447 0.000000
0.942722 0.962447 0.000000
0.948123 0.962447 0.000000
0.953187 0.962447 0.000000
0.957951 0.962447 0.000000
0.962447 0.962447 0.000000
0.966704 0.962447 0.000000
0.970745 0.962447 0.000000
0.974589 0.962447 0.000000
0.978256 0.962447 0.000000
0.981759 0.962447 0.000000
0.985111 0.962447 0.000000
0.988326 0.962447 0.000000
0.991414 0.962447 0.000000
0.994383 0.962447 0.000000
0.997242 0.962447 0.000000
1.000000 0.962447 0.000000
0.000000 0.966704 0.000000
0.658169 0.966704 0.000000
0.735500 0.966704 0.000000
0.778966 0.966704 0.000000
0.809302 0.966704 0.000000
0.832223 0.966704 0.000000
0.850494 0.966704 0.000000
0.865643 0.966704 0.000000
0.878555 0.966704 0.000000
0.889789 0.966704 0.000000
0.899719 0.966704 0.000000
0.908606 0.966704 0.000000
0.916645 0.966704 0.000000
0.923976 0.966704 0.000000
0.930711 0.966704 0.000000
0.936936 0.966704 0.000000
0.942722 0.966704 0.000000
0.948123 0.966704 0.000000
0.953187 0.966704 0.000000
0.957951 0.966704 0.000000
0.962447 0.966704 0.000000
0.966704 0.966704 0.000000
0.970745 0.966704 0.000000
0.974589 0.966704 0.000000
0.978256 0.966704 0.000000
0.981759 0.966704 0.000000
0.985111 0.966704 0.000000
0.988326 0.966704 0.000000
0.991414 0.966704 0.000000
0.994383 0.966704 0.000000
0.997242 0.966704 0.000000
1.000000 0.966704 0.000000
0.000000 0.970745 0.000000
0.658169 0.970745 0.000000
0.735500 0.970745 0.000000
0.778966 0.970745 0.000000
0.809302 0.970745 0.000000
0.832223 0.970745 0.000000
0.850494 0.970745 0.000000
0.865643 0.970745 0.000000
0.878555 0.970745 0.000000
0.889789 0.970745 0.000000
0.899719 0.970745 0.000000
0.908606 0.970745 0.000000
0.916645 0.970745 0.000000
0.923976 0.970745 0.000000
0.930711 0.970745 0.000000
0.936936 0.970745 0.000000
0.942722 0.970745 0.000000
0.948123 0.970745 0.000000
0.953187 0.970745 0.000000
0.957951 0.970745 0.000000
0.962447 0.970745 0.000000
0.966704 0.970745 0.000000
0.970745 0.970745 0.000000
0.974589 0.970745 0.000000
0.978256 0.970745 0.000000
0.981759 0.970745 0.000000
0.985111 0.970745 0.000000
0.988326 0.970745 0.000000
0.991414 0.970745 0.000000
0.994383 0.970745 0.000000
0.997242 0.970745 0.000000
1.000000 0.970745 0.000000
0.000000 0.974589 0.000000
0.658169 0.974589 0.000000
0.735500 0.974589 0.000000
0.778966 0.974589 0.000000
0.809302 0.974589 0.000000
0.832223 0.974589 0.000000
0.850494 0.974589 0.000000
0.865643 0.974589 0.000000
0.878555 0.974589 0.000000
0.889789 0.974589 0.000000
0.899719 0.974589 0.000000
0.908606 0.974589 0.000000
0.916645 0.974589 0.000000
0.923976 0.974589 0.000000
0.930711 0.974589 0.000000
0.936936 0.974589 0.000000
0.942722 0.974589 0.000000
0.948123 0.974589 0.000000
0.953187 0.974589 0.000000
0.957951 0.974589 0.000000
0.962447 0.974589 0.000000
0.966704 0.974589 0.000000
0.970745 0.974589 0.000000
0.974589 0.974589 0.000000
0.978256 0.974589 0.000000
0.981759 0.974589 0.000000
0.985111 0.974589 0.000000
0.988326 0.974589 0.000000
0.991414 0.974589 0.000000
0.994383 0.974589 0.000000
0.997242 0.974589 0.000000
1.000000 0.974589 0.000000
0.000000 0.978256 0.000000
0.658169 0.978256 0.000000
0.735500 0.978256 0.000000
0.778966 0.978256 0.000000
0.809302 0.978256 0.000000
0.832223 0.978256 0.000000
0.850494 0.978256 0.000000
0.865643 0.978256 0.000000
0.878555 0.978256 0.000000
0.889789 0.978256 0.000000
0.899719 0.978256 0.000000
0.908606 0.978256 0.000000
0.916645 0.978256 0.000000
0.923976 0.978256 0.000000
0.930711 0.978256 0.000000
0.936936 0.978256 0.000000
0.942722 0.978256 0.000000
0.948123 0.978256 0.000000
0.953187 0.978256 0.000000
0.957951 0.978256 0.000000
0.962447 0.978256 0.000000
0.966704 0.978256 0.000000
0.970745 0.978256 0.000000
0.974589 0.978256 0.000000
0.978256 0.978256 0.000000
0.981759 0.978256 0.000000
0.985111 0.978256 0.000000
0.988326 0.978256 0.000000
0.991414 0.978256 0.000000
0.994383 0.978256 0.000000
0.997242 0.978256 0.000000
1.000000 0.978256 0.000000
0.000000 0.981759 0.000000
0.658169 0.981759 0.000000
0.735500 0.981759 0.000000
0.778966 0.981759 0.000000
0.809302 0.981759 0.000000
0.832223 0.981759 0.000000
0.850494 0.981759 0.000000
0.865643 0.981759 0.000000
0.878555 0.981759 0.000000
0.889789 0.981759 0.000000
0.899719 0.981759 0.000000
0.908606 0.981759 0.000000
0.916645 0.981759 0.000000
0.923976 0.981759 0.000000
0.930711 0.981759 0.000000
0.936936 0.981759 0.000000
0.942722 0.981759 0.000000
0.948123 0.981759 0.000000
0.953187 0.981759 0.000000
0.957951 0.981759 0.000000
0.962447 0.981759 0.000000
0.966704 0.981759 0.000000
0.970745 0.981759 0.000000
0.974589 0.981759 0.000000
0.978256 0.981759 0.000000
0.981759 0.981759 0.000000
0.985111 0.981759 0.000000
0.988326 0.981759 0.000000
0.991414 0.981759 0.000000
0.994383 0.981759 0.000000
0.997242 0.981759 0.000000
1.000000 0.981759 0.000000
0.000000 0.985111 0.000000
0.658169 0.985111 0.000000
0.735500 0.985111 0.000000
0.778966 0.985111 0.000000
0.809302 0.985111 0.000000
0.832223 0.985111 0.000000
0.850494 0.985111 0.000000
0.865643 0.985111 0.000000
0.878555 0.985111 0.000000
0.889789 0.985111 0.000000
0.899719 0.985111 0.000000
0.908606 0.985111 0.000000
0.916645 0.985111 0.000000
0.923976 0.985111 0.000000
0.930711 0.985111 0.000000
0.936936 0.985111 0.000000
0.942722 0.985111 0.000000
0.948123 0.985111 0.000000
0.953187 0.985111 0.000000
0.957951 0.985111 0.000000
0.962447 0.985111 0.000000
0.966704 0.985111 0.000000
0.970745 0.985111 0.000000
0.974589 0.985111 0.000000
0.978256 0.985111 0.000000
0.981759 0.985111 0.000000
0.985111 0.985111 0.000000
0.988326 0.985111 0.000000
0.991414 0.985111 0.000000
0.994383 0.985111 0.000000
0.997242 0.985111 0.000000
1.000000 0.985111 0.000000
0.000000 0.988326 0.000000
0.658169 0.988326 0.000000
0.735500 0.988326 0.000000
0.778966 0.988326 0.000000
0.809302 0.988326 0.000000
0.832223 0.988326 0.000000
0.850494 0.988326 0.000000
0.865643 0.988326 0.000000
0.878555 0.988326 0.000000
0.889789 0.988326 0.000000
0.899719 0.988326 0.000000
0.908606 0.988326 0.000000
0.916645 0.988326 0.000000
0.923976 0.988326 0.000000
0.930711 0.988326 0.000000
0.936936 0.988326 0.000000
0.942722 0.988326 0.000000
0.948123 0.988326 0.000000
0.953187 0.988326 0.000000
0.957951 0.988326 0.000000
0.962447 0.988326 0.000000
