.nuke/nuke.LUT/linear-2-logC_exteded/AlexaV3_EI0160_Linear2LogC_EE_nuke3d.cube
# Alexa conversion LUT, lin2logc. Full in/full out.
# created by alexalutconv (2.07)
LUT_3D_SIZE 5
DOMAIN_MIN 0.000000 0.000000 0.000000
DOMAIN_MAX 0.903226 0.903226 0.903226
0.000000 0.000000 0.000000
0.638147 0.000000 0.000000
0.719630 0.000000 0.000000
0.767169 0.000000 0.000000
0.800864 0.000000 0.000000
0.000000 0.638147 0.000000
0.638147 0.638147 0.000000
0.719630 0.638147 0.000000
0.767169 0.638147 0.000000
0.800864 0.638147 0.000000
0.000000 0.719630 0.000000
0.638147 0.719630 0.000000
0.719630 0.719630 0.000000
0.767169 0.719630 0.000000
0.800864 0.719630 0.000000
0.000000 0.767169 0.000000
0.638147 0.767169 0.000000
0.719630 0.767169 0.000000
0.767169 0.767169 0.000000
0.800864 0.767169 0.000000
0.000000 0.800864 0.000000
0.638147 0.800864 0.000000
0.719630 0.800864 0.000000
0.767169 0.800864 0.000000
0.800864 0.800864 0.000000
0.000000 0.000000 0.638147
0.638147 0.000000 0.638147
0.719630 0.000000 0.638147
0.767169 0.000000 0.638147
0.800864 0.000000 0.638147
0.000000 0.638147 0.638147
0.638147 0.638147 0.638147
0.719630 0.638147 0.638147
0.767169 0.638147 0.638147
0.800864 0.638147 0.638147
0.000000 0.719630 0.638147
0.638147 0.719630 0.638147
0.719630 0.719630 0.638147
0.767169 0.719630 0.638147
0.800864 0.719630 0.638147
0.000000 0.767169 0.638147
0.638147 0.767169 0.638147
0.719630 0.767169 0.638147
0.767169 0.767169 0.638147
0.800864 0.767169 0.638147
0.000000 0.800864 0.638147
0.638147 0.800864 0.638147
0.719630 0.800864 0.638147
0.767169 0.800864 0.638147
0.800864 0.800864 0.638147
0.000000 0.000000 0.719630
0.638147 0.000000 0.719630
0.719630 0.000000 0.719630
0.767169 0.000000 0.719630
0.800864 0.000000 0.719630
0.000000 0.638147 0.719630
0.638147 0.638147 0.719630
0.719630 0.638147 0.719630
0.767169 0.638147 0.719630
0.800864 0.638147 0.719630
0.000000 0.719630 0.719630
0.638147 0.719630 0.719630
0.719630 0.719630 0.719630
0.767169 0.719630 0.719630
0.800864 0.719630 0.719630
0.000000 0.767169 0.719630
0.638147 0.767169 0.719630
0.719630 0.767169 0.719630
0.767169 0.767169 0.719630
0.800864 0.767169 0.719630
0.000000 0.800864 0.719630
0.638147 0.800864 0.719630
0.719630 0.800864 0.719630
0.767169 0.800864 0.719630
0.800864 0.800864 0.719630
0.000000 0.000000 0.767169
0.638147 0.000000 0.767169
0.719630 0.000000 0.767169
0.767169 0.000000 0.767169
0.800864 0.000000 0.767169
0.000000 0.638147 0.767169
0.638147 0.638147 0.767169
0.719630 0.638147 0.767169
0.767169 0.638147 0.767169
0.800864 0.638147 0.767169
0.000000 0.719630 0.767169
0.638147 0.719630 0.767169
0.719630 0.719630 0.767169
0.767169 0.719630 0.767169
0.800864 0.719630 0.767169
0.000000 0.767169 0.767169
0.638147 0.767169 0.767169
0.719630 0.767169 0.767169
0.767169 0.767169 0.767169
0.800864 0.767169 0.767169
0.000000 0.800864 0.767169
0.638147 0.800864 0.767169
0.719630 0.800864 0.767169
0.767169 0.800864 0.767169
0.800864 0.800864 0.767169
0.000000 0.000000 0.800864
0.638147 0.000000 0.800864
0.719630 0.000000 0.800864
0.767169 0.000000 0.800864
0.800864 0.000000 0.800864
0.000000 0.638147 0.800864
0.638147 0.638147 0.800864
0.719630 0.638147 0.800864
0.767169 0.638147 0.800864
0.800864 0.638147 0.800864
0.000000 0.719630 0.800864
0.638147 0.719630 0.800864
0.719630 0.719630 0.800864
0.767169 0.719630 0.800864
0.800864 0.719630 0.800864
0.000000 0.767169 0.800864
0.638147 0.767169 0.800864
0.719630 0.767169 0.800864
0.767169 0.767169 0.800864
0.800864 0.767169 0.800864
0.000000 0.800864 0.800864
0.638147 0.800864 0.800864
0.719630 0.800864 0.800864
0.767169 0.800864 0.800864
0.800864 0.800864 0.800864
