.nuke/nuke.LUT/linear-2-logC_exteded/AlexaV3_EI0200_Linear2LogC_EE_nuke3d.cube
# Alexa conversion LUT, lin2logc. Full in/full out.
# created by alexalutconv (2.07)
LUT_3D_SIZE 8
DOMAIN_MIN 0.000000 0.000000 0.000000
DOMAIN_MAX 0.903226 0.903226 0.903226
0.000000 0.000000 0.000000
0.595709 0.000000 0.000000
0.676863 0.000000 0.000000
0.724062 0.000000 0.000000
0.757475 0.000000 0.000000
0.783360 0.000000 0.000000
0.804494 0.000000 0.000000
0.822353 0.000000 0.000000
0.000000 0.595709 0.000000
0.595709 0.595709 0.000000
0.676863 0.595709 0.000000
0.724062 0.595709 0.000000
0.757475 0.595709 0.000000
0.783360 0.595709 0.000000
0.804494 0.595709 0.000000
0.822353 0.595709 0.000000
0.000000 0.676863 0.000000
0.595709 0.676863 0.000000
0.676863 0.676863 0.000000
0.724062 0.676863 0.000000
0.757475 0.676863 0.000000
0.783360 0.676863 0.000000
0.804494 0.676863 0.000000
0.822353 0.676863 0.000000
0.000000 0.724062 0.000000
0.595709 0.724062 0.000000
0.676863 0.724062 0.000000
0.724062 0.724062 0.000000
0.757475 0.724062 0.000000
0.783360 0.724062 0.000000
0.804494 0.724062 0.000000
0.822353 0.724062 0.000000
0.000000 0.757475 0.000000
0.595709 0.757475 0.000000
0.676863 0.757475 0.000000
0.724062 0.757475 0.000000
0.757475 0.757475 0.000000
0.783360 0.757475 0.000000
0.804494 0.757475 0.000000
0.822353 0.757475 0.000000
0.000000 0.783360 0.000000
0.595709 0.783360 0.000000
0.676863 0.783360 0.000000
0.724062 0.783360 0.000000
0.757475 0.783360 0.000000
0.783360 0.783360 0.000000
0.804494 0.783360 0.000000
0.822353 0.783360 0.000000
0.000000 0.804494 0.000000
0.595709 0.804494 0.000000
0.676863 0.804494 0.000000
0.724062 0.804494 0.000000
0.757475 0.804494 0.000000
0.783360 0.804494 0.000000
0.804494 0.804494 0.000000
0.822353 0.804494 0.000000
0.000000 0.822353 0.000000
0.595709 0.822353 0.000000
0.676863 0.822353 0.000000
0.724062 0.822353 0.000000
0.757475 0.822353 0.000000
0.783360 0.822353 0.000000
0.804494 0.822353 0.000000
0.822353 0.822353 0.000000
0.000000 0.000000 0.595709
0.595709 0.000000 0.595709
0.676863 0.000000 0.595709
0.724062 0.000000 0.595709
0.757475 0.000000 0.595709
0.783360 0.000000 0.595709
0.804494 0.000000 0.595709
0.822353 0.000000 0.595709
0.000000 0.595709 0.595709
0.595709 0.595709 0.595709
0.676863 0.595709 0.595709
0.724062 0.595709 0.595709
0.757475 0.595709 0.595709
0.783360 0.595709 0.595709
0.804494 0.595709 0.595709
0.822353 0.595709 0.595709
0.000000 0.676863 0.595709
0.595709 0.676863 0.595709
0.676863 0.676863 0.595709
0.724062 0.676863 0.595709
0.757475 0.676863 0.595709
0.783360 0.676863 0.595709
0.804494 0.676863 0.595709
0.822353 0.676863 0.595709
0.000000 0.724062 0.595709
0.595709 0.724062 0.595709
0.676863 0.724062 0.595709
0.724062 0.724062 0.595709
0.757475 0.724062 0.595709
0.783360 0.724062 0.595709
0.804494 0.724062 0.595709
0.822353 0.724062 0.595709
0.000000 0.757475 0.595709
0.595709 0.757475 0.595709
0.676863 0.757475 0.595709
0.724062 0.757475 0.595709
0.757475 0.757475 0.595709
0.783360 0.757475 0.595709
0.804494 0.757475 0.595709
0.822353 0.757475 0.595709
0.000000 0.783360 0.595709
0.595709 0.783360 0.595709
0.676863 0.783360 0.595709
0.724062 0.783360 0.595709
0.757475 0.783360 0.595709
0.783360 0.783360 0.595709
0.804494 0.783360 0.595709
0.822353 0.783360 0.595709
0.000000 0.804494 0.595709
0.595709 0.804494 0.595709
0.676863 0.804494 0.595709
0.724062 0.804494 0.595709
0.757475 0.804494 0.595709
0.783360 0.804494 0.595709
0.804494 0.804494 0.595709
0.822353 0.804494 0.595709
0.000000 0.822353 0.595709
0.595709 0.822353 0.595709
0.676863 0.822353 0.595709
0.724062 0.822353 0.595709
0.757475 0.822353 0.595709
0.783360 0.822353 0.595709
0.804494 0.822353 0.595709
0.822353 0.822353 0.595709
0.000000 0.000000 0.676863
0.595709 0.000000 0.676863
0.676863 0.000000 0.676863
0.724062 0.000000 0.676863
0.757475 0.000000 0.676863
0.783360 0.000000 0.676863
0.804494 0.000000 0.676863
0.822353 0.000000 0.676863
0.000000 0.595709 0.676863
0.595709 0.595709 0.676863
0.676863 0.595709 0.676863
0.724062 0.595709 0.676863
0.757475 0.595709 0.676863
0.783360 0.595709 0.676863
0.804494 0.595709 0.676863
0.822353 0.595709 0.676863
0.000000 0.676863 0.676863
0.595709 0.676863 0.676863
0.676863 0.676863 0.676863
0.724062 0.676863 0.676863
0.757475 0.676863 0.676863
0.783360 0.676863 0.676863
0.804494 0.676863 0.676863
0.822353 0.676863 0.676863
0.000000 0.724062 0.676863
0.595709 0.724062 0.676863
0.676863 0.724062 0.676863
0.724062 0.724062 0.676863
0.757475 0.724062 0.676863
0.783360 0.724062 0.676863
0.804494 0.724062 0.676863
0.822353 0.724062 0.676863
0.000000 0.757475 0.676863
0.595709 0.757475 0.676863
0.676863 0.757475 0.676863
0.724062 0.757475 0.676863
0.757475 0.757475 0.676863
0.783360 0.757475 0.676863
0.804494 0.757475 0.676863
0.822353 0.757475 0.676863
0.000000 0.783360 0.676863
0.595709 0.783360 0.676863
0.676863 0.783360 0.676863
0.724062 0.783360 0.676863
0.757475 0.783360 0.676863
0.783360 0.783360 0.676863
0.804494 0.783360 0.676863
0.822353 0.783360 0.676863
0.000000 0.804494 0.676863
0.595709 0.804494 0.676863
0.676863 0.804494 0.676863
0.724062 0.804494 0.676863
0.757475 0.804494 0.676863
0.783360 0.804494 0.676863
0.804494 0.804494 0.676863
0.822353 0.804494 0.676863
0.000000 0.822353 0.676863
0.595709 0.822353 0.676863
0.676863 0.822353 0.676863
0.724062 0.822353 0.676863
0.757475 0.822353 0.676863
0.783360 0.822353 0.676863
0.804494 0.822353 0.676863
0.822353 0.822353 0.676863
0.000000 0.000000 0.724062
0.595709 0.000000 0.724062
0.676863 0.000000 0.724062
0.724062 0.000000 0.724062
0.757475 0.000000 0.724062
0.783360 0.000000 0.724062
0.804494 0.000000 0.724062
0.822353 0.000000 0.724062
0.000000 0.595709 0.724062
0.595709 0.595709 0.724062
0.676863 0.595709 0.724062
0.724062 0.595709 0.724062
0.757475 0.595709 0.724062
0.783360 0.595709 0.724062
0.804494 0.595709 0.724062
0.822353 0.595709 0.724062
0.000000 0.676863 0.724062
0.595709 0.676863 0.724062
0.676863 0.676863 0.724062
0.724062 0.676863 0.724062
0.757475 0.676863 0.724062
0.783360 0.676863 0.724062
0.804494 0.676863 0.724062
0.822353 0.676863 0.724062
0.000000 0.724062 0.724062
0.595709 0.724062 0.724062
0.676863 0.724062 0.724062
0.724062 0.724062 0.724062
0.757475 0.724062 0.724062
0.783360 0.724062 0.724062
0.804494 0.724062 0.724062
0.822353 0.724062 0.724062
0.000000 0.757475 0.724062
0.595709 0.757475 0.724062
0.676863 0.757475 0.724062
0.724062 0.757475 0.724062
0.757475 0.757475 0.724062
0.783360 0.757475 0.724062
0.804494 0.757475 0.724062
0.822353 0.757475 0.724062
0.000000 0.783360 0.724062
0.595709 0.783360 0.724062
0.676863 0.783360 0.724062
0.724062 0.783360 0.724062
0.757475 0.783360 0.724062
0.783360 0.783360 0.724062
0.804494 0.783360 0.724062
0.822353 0.783360 0.724062
0.000000 0.804494 0.724062
0.595709 0.804494 0.724062
0.676863 0.804494 0.724062
0.724062 0.804494 0.724062
0.757475 0.804494 0.724062
0.783360 0.804494 0.724062
0.804494 0.804494 0.724062
0.822353 0.804494 0.724062
0.000000 0.822353 0.724062
0.595709 0.822353 0.724062
0.676863 0.822353 0.724062
0.724062 0.822353 0.724062
0.757475 0.822353 0.724062
0.783360 0.822353 0.724062
0.804494 0.822353 0.724062
0.822353 0.822353 0.724062
0.000000 0.000000 0.757475
0.595709 0.000000 0.757475
0.676863 0.000000 0.757475
0.724062 0.000000 0.757475
0.757475 0.000000 0.757475
0.783360 0.000000 0.757475
0.804494 0.000000 0.757475
0.822353 0.000000 0.757475
0.000000 0.595709 0.757475
0.595709 0.595709 0.757475
0.676863 0.595709 0.757475
0.724062 0.595709 0.757475
0.757475 0.595709 0.757475
0.783360 0.595709 0.757475
0.804494 0.595709 0.757475
0.822353 0.595709 0.757475
0.000000 0.676863 0.757475
0.595709 0.676863 0.757475
0.676863 0.676863 0.757475
0.724062 0.676863 0.757475
0.757475 0.676863 0.757475
0.783360 0.676863 0.757475
0.804494 0.676863 0.757475
0.822353 0.676863 0.757475
0.000000 0.724062 0.757475
0.595709 0.724062 0.757475
0.676863 0.724062 0.757475
0.724062 0.724062 0.757475
0.757475 0.724062 0.757475
0.783360 0.724062 0.757475
0.804494 0.724062 0.757475
0.822353 0.724062 0.757475
0.000000 0.757475 0.757475
0.595709 0.757475 0.757475
0.676863 0.757475 0.757475
0.724062 0.757475 0.757475
0.757475 0.757475 0.757475
0.783360 0.757475 0.757475
0.804494 0.757475 0.757475
0.822353 0.757475 0.757475
0.000000 0.783360 0.757475
0.595709 0.783360 0.757475
0.676863 0.783360 0.757475
0.724062 0.783360 0.757475
0.757475 0.783360 0.757475
0.783360 0.783360 0.757475
0.804494 0.783360 0.757475
0.822353 0.783360 0.757475
0.000000 0.804494 0.757475
0.595709 0.804494 0.757475
0.676863 0.804494 0.757475
0.724062 0.804494 0.757475
0.757475 0.804494 0.757475
0.783360 0.804494 0.757475
0.804494 0.804494 0.757475
0.822353 0.804494 0.757475
0.000000 0.822353 0.757475
0.595709 0.822353 0.757475
0.676863 0.822353 0.757475
0.724062 0.822353 0.757475
0.757475 0.822353 0.757475
0.783360 0.822353 0.757475
0.804494 0.822353 0.757475
0.822353 0.822353 0.757475
0.000000 0.000000 0.783360
0.595709 0.000000 0.783360
0.676863 0.000000 0.783360
0.724062 0.000000 0.783360
0.757475 0.000000 0.783360
0.783360 0.000000 0.783360
0.804494 0.000000 0.783360
0.822353 0.000000 0.783360
0.000000 0.595709 0.783360
0.595709 0.595709 0.783360
0.676863 0.595709 0.783360
0.724062 0.595709 0.783360
0.757475 0.595709 0.783360
0.783360 0.595709 0.783360
0.804494 0.595709 0.783360
0.822353 0.595709 0.783360
0.000000 0.676863 0.783360
0.595709 0.676863 0.783360
0.676863 0.676863 0.783360
0.724062 0.676863 0.783360
0.757475 0.676863 0.783360
0.783360 0.676863 0.783360
0.804494 0.676863 0.783360
0.822353 0.676863 0.783360
0.000000 0.724062 0.783360
0.595709 0.724062 0.783360
0.676863 0.724062 0.783360
0.724062 0.724062 0.783360
0.757475 0.724062 0.783360
0.783360 0.724062 0.783360
0.804494 0.724062 0.783360
0.822353 0.724062 0.783360
0.000000 0.757475 0.783360
0.595709 0.757475 0.783360
0.676863 0.757475 0.783360
0.724062 0.757475 0.783360
0.757475 0.757475 0.783360
0.783360 0.757475 0.783360
0.804494 0.757475 0.783360
0.822353 0.757475 0.783360
0.000000 0.783360 0.783360
0.595709 0.783360 0.783360
0.676863 0.783360 0.783360
0.724062 0.783360 0.783360
0.757475 0.783360 0.783360
0.783360 0.783360 0.783360
0.804494 0.783360 0.783360
0.822353 0.783360 0.783360
0.000000 0.804494 0.783360
0.595709 0.804494 0.783360
0.676863 0.804494 0.783360
0.724062 0.804494 0.783360
0.757475 0.804494 0.783360
0.783360 0.804494 0.783360
0.804494 0.804494 0.783360
0.822353 0.804494 0.783360
0.000000 0.822353 0.783360
0.595709 0.822353 0.783360
0.676863 0.822353 0.783360
0.724062 0.822353 0.783360
0.757475 0.822353 0.783360
0.783360 0.822353 0.783360
0.804494 0.822353 0.783360
0.822353 0.822353 0.783360
0.000000 0.000000 0.804494
0.595709 0.000000 0.804494
0.676863 0.000000 0.804494
0.724062 0.000000 0.804494
0.757475 0.000000 0.804494
0.783360 0.000000 0.804494
0.804494 0.000000 0.804494
0.822353 0.000000 0.804494
0.000000 0.595709 0.804494
0.595709 0.595709 0.804494
0.676863 0.595709 0.804494
0.724062 0.595709 0.804494
0.757475 0.595709 0.804494
0.783360 0.595709 0.804494
0.804494 0.595709 0.804494
0.822353 0.595709 0.804494
0.000000 0.676863 0.804494
0.595709 0.676863 0.804494
0.676863 0.676863 0.804494
0.724062 0.676863 0.804494
0.757475 0.676863 0.804494
0.783360 0.676863 0.804494
0.804494 0.676863 0.804494
0.822353 0.676863 0.804494
0.000000 0.724062 0.804494
0.595709 0.724062 0.804494
0.676863 0.724062 0.804494
0.724062 0.724062 0.804494
0.757475 0.724062 0.804494
0.783360 0.724062 0.804494
0.804494 0.724062 0.804494
0.822353 0.724062 0.804494
0.000000 0.757475 0.804494
0.595709 0.757475 0.804494
0.676863 0.757475 0.804494
0.724062 0.757475 0.804494
0.757475 0.757475 0.804494
0.783360 0.757475 0.804494
0.804494 0.757475 0.804494
0.822353 0.757475 0.804494
0.000000 0.783360 0.804494
0.595709 0.783360 0.804494
0.676863 0.783360 0.804494
0.724062 0.783360 0.804494
0.757475 0.783360 0.804494
0.783360 0.783360 0.804494
0.804494 0.783360 0.804494
0.822353 0.783360 0.804494
0.000000 0.804494 0.804494
0.595709 0.804494 0.804494
0.676863 0.804494 0.804494
0.724062 0.804494 0.804494
0.757475 0.804494 0.804494
0.783360 0.804494 0.804494
0.804494 0.804494 0.804494
0.822353 0.804494 0.804494
0.000000 0.822353 0.804494
0.595709 0.822353 0.804494
0.676863 0.822353 0.804494
0.724062 0.822353 0.804494
0.757475 0.822353 0.804494
0.783360 0.822353 0.804494
0.804494 0.822353 0.804494
0.822353 0.822353 0.804494
0.000000 0.000000 0.822353
0.595709 0.000000 0.822353
0.676863 0.000000 0.822353
0.724062 0.000000 0.822353
0.757475 0.000000 0.822353
0.783360 0.000000 0.822353
0.804494 0.000000 0.822353
0.822353 0.000000 0.822353
0.000000 0.595709 0.822353
0.595709 0.595709 0.822353
0.676863 0.595709 0.822353
0.724062 0.595709 0.822353
0.757475 0.595709 0.822353
0.783360 0.595709 0.822353
0.804494 0.595709 0.822353
0.822353 0.595709 0.822353
0.000000 0.676863 0.822353
0.595709 0.676863 0.822353
0.676863 0.676863 0.822353
0.724062 0.676863 0.822353
0.757475 0.676863 0.822353
0.783360 0.676863 0.822353
0.804494 0.676863 0.822353
0.822353 0.676863 0.822353
0.000000 0.724062 0.822353
0.595709 0.724062 0.822353
0.676863 0.724062 0.822353
0.724062 0.724062 0.822353
0.757475 0.724062 0.822353
0.783360 0.724062 0.822353
0.804494 0.724062 0.822353
0.822353 0.724062 0.822353
0.000000 0.757475 0.822353
0.595709 0.757475 0.822353
0.676863 0.757475 0.822353
0.724062 0.757475 0.822353
0.757475 0.757475 0.822353
0.783360 0.757475 0.822353
0.804494 0.757475 0.822353
0.822353 0.757475 0.822353
0.000000 0.783360 0.822353
0.595709 0.783360 0.822353
0.676863 0.783360 0.822353
0.724062 0.783360 0.822353
0.757475 0.783360 0.822353
0.783360 0.783360 0.822353
0.804494 0.783360 0.822353
0.822353 0.783360 0.822353
0.000000 0.804494 0.822353
0.595709 0.804494 0.822353
0.676863 0.804494 0.822353
0.724062 0.804494 0.822353
0.757475 0.804494 0.822353
0.783360 0.804494 0.822353
0.804494 0.804494 0.822353
0.822353 0.804494 0.822353
0.000000 0.822353 0.822353
0.595709 0.822353 0.822353
0.676863 0.822353 0.822353
0.724062 0.822353 0.822353
0.757475 0.822353 0.822353
0.783360 0.822353 0.822353
0.804494 0.822353 0.822353
0.822353 0.822353 0.822353
