.nuke/nuke.LUT/linear-2-logC_exteded/AlexaV3_EI2560_Linear2LogC_EE_nuke3d.cube
# Alexa conversion LUT, lin2logc. Full in/full out.
# created by alexalutconv (2.07)
LUT_3D_SIZE 5
DOMAIN_MIN 0.000000 0.000000 0.000000
DOMAIN_MAX 0.903226 0.903226 0.903226
0.000000 0.000000 0.000000
0.880835 0.000000 0.000000
0.939677 0.000000 0.000000
0.971296 0.000000 0.000000
0.992646 0.000000 0.000000
0.000000 0.880835 0.000000
0.880835 0.880835 0.000000
0.939677 0.880835 0.000000
0.971296 0.880835 0.000000
0.992646 0.880835 0.000000
0.000000 0.939677 0.000000
0.880835 0.939677 0.000000
0.939677 0.939677 0.000000
0.971296 0.939677 0.000000
0.992646 0.939677 0.000000
0.000000 0.971296 0.000000
0.880835 0.971296 0.000000
0.939677 0.971296 0.000000
0.971296 0.971296 0.000000
0.992646 0.971296 0.000000
0.000000 0.992646 0.000000
0.880835 0.992646 0.000000
0.939677 0.992646 0.000000
0.971296 0.992646 0.000000
0.992646 0.992646 0.000000
0.000000 0.000000 0.880835
0.880835 0.000000 0.880835
0.939677 0.000000 0.880835
0.971296 0.000000 0.880835
0.992646 0.000000 0.880835
0.000000 0.880835 0.880835
0.880835 0.880835 0.880835
0.939677 0.880835 0.880835
0.971296 0.880835 0.880835
0.992646 0.880835 0.880835
0.000000 0.939677 0.880835
0.880835 0.939677 0.880835
0.939677 0.939677 0.880835
0.971296 0.939677 0.880835
0.992646 0.939677 0.880835
0.000000 0.971296 0.880835
0.880835 0.971296 0.880835
0.939677 0.971296 0.880835
0.971296 0.971296 0.880835
0.992646 0.971296 0.880835
0.000000 0.992646 0.880835
0.880835 0.992646 0.880835
0.939677 0.992646 0.880835
0.971296 0.992646 0.880835
0.992646 0.992646 0.880835
0.000000 0.000000 0.939677
0.880835 0.000000 0.939677
0.939677 0.000000 0.939677
0.971296 0.000000 0.939677
0.992646 0.000000 0.939677
0.000000 0.880835 0.939677
0.880835 0.880835 0.939677
0.939677 0.880835 0.939677
0.971296 0.880835 0.939677
0.992646 0.880835 0.939677
0.000000 0.939677 0.939677
0.880835 0.939677 0.939677
0.939677 0.939677 0.939677
0.971296 0.939677 0.939677
0.992646 0.939677 0.939677
0.000000 0.971296 0.939677
0.880835 0.971296 0.939677
0.939677 0.971296 0.939677
0.971296 0.971296 0.939677
0.992646 0.971296 0.939677
0.000000 0.992646 0.939677
0.880835 0.992646 0.939677
0.939677 0.992646 0.939677
0.971296 0.992646 0.939677
0.992646 0.992646 0.939677
0.000000 0.000000 0.971296
0.880835 0.000000 0.971296
0.939677 0.000000 0.971296
0.971296 0.000000 0.971296
0.992646 0.000000 0.971296
0.000000 0.880835 0.971296
0.880835 0.880835 0.971296
0.939677 0.880835 0.971296
0.971296 0.880835 0.971296
0.992646 0.880835 0.971296
0.000000 0.939677 0.971296
0.880835 0.939677 0.971296
0.939677 0.939677 0.971296
0.971296 0.939677 0.971296
0.992646 0.939677 0.971296
0.000000 0.971296 0.971296
0.880835 0.971296 0.971296
0.939677 0.971296 0.971296
0.971296 0.971296 0.971296
0.992646 0.971296 0.971296
0.000000 0.992646 0.971296
0.880835 0.992646 0.971296
0.939677 0.992646 0.971296
0.971296 0.992646 0.971296
0.992646 0.992646 0.971296
0.000000 0.000000 0.992646
0.880835 0.000000 0.992646
0.939677 0.000000 0.992646
0.971296 0.000000 0.992646
0.992646 0.000000 0.992646
0.000000 0.880835 0.992646
0.880835 0.880835 0.992646
0.939677 0.880835 0.992646
0.971296 0.880835 0.992646
0.992646 0.880835 0.992646
0.000000 0.939677 0.992646
0.880835 0.939677 0.992646
0.939677 0.939677 0.992646
0.971296 0.939677 0.992646
0.992646 0.939677 0.992646
0.000000 0.971296 0.992646
0.880835 0.971296 0.992646
0.939677 0.971296 0.992646
0.971296 0.971296 0.992646
0.992646 0.971296 0.992646
0.000000 0.992646 0.992646
0.880835 0.992646 0.992646
0.939677 0.992646 0.992646
0.971296 0.992646 0.992646
0.992646 0.992646 0.992646
