.nuke/nuke.LUT/linear-2-logC_exteded/AlexaV3_EI1000_Linear2LogC_EE_nuke3d.cube
# Alexa conversion LUT, lin2logc. Full in/full out.
# created by alexalutconv (2.07)
LUT_3D_SIZE 32
0.000000 0.000000 0.000000
0.594412 0.000000 0.000000
0.674598 0.000000 0.000000
0.719730 0.000000 0.000000
0.751288 0.000000 0.000000
0.775577 0.000000 0.000000
0.795326 0.000000 0.000000
0.811968 0.000000 0.000000
0.826348 0.000000 0.000000
0.839010 0.000000 0.000000
0.850319 0.000000 0.000000
0.860538 0.000000 0.000000
0.869858 0.000000 0.000000
0.878425 0.000000 0.000000
0.886350 0.000000 0.000000
0.893724 0.000000 0.000000
0.900620 0.000000 0.000000
0.907094 0.000000 0.000000
0.913194 0.000000 0.000000
0.918963 0.000000 0.000000
0.924435 0.000000 0.000000
0.929637 0.000000 0.000000
0.934597 0.000000 0.000000
0.939334 0.000000 0.000000
0.943870 0.000000 0.000000
0.948219 0.000000 0.000000
0.952397 0.000000 0.000000
0.956416 0.000000 0.000000
0.960289 0.000000 0.000000
0.964025 0.000000 0.000000
0.967634 0.000000 0.000000
0.971124 0.000000 0.000000
0.000000 0.594412 0.000000
0.594412 0.594412 0.000000
0.674598 0.594412 0.000000
0.719730 0.594412 0.000000
0.751288 0.594412 0.000000
0.775577 0.594412 0.000000
0.795326 0.594412 0.000000
0.811968 0.594412 0.000000
0.826348 0.594412 0.000000
0.839010 0.594412 0.000000
0.850319 0.594412 0.000000
0.860538 0.594412 0.000000
0.869858 0.594412 0.000000
0.878425 0.594412 0.000000
0.886350 0.594412 0.000000
0.893724 0.594412 0.000000
0.900620 0.594412 0.000000
0.907094 0.594412 0.000000
0.913194 0.594412 0.000000
0.918963 0.594412 0.000000
0.924435 0.594412 0.000000
0.929637 0.594412 0.000000
0.934597 0.594412 0.000000
0.939334 0.594412 0.000000
0.943870 0.594412 0.000000
0.948219 0.594412 0.000000
0.952397 0.594412 0.000000
0.956416 0.594412 0.000000
0.960289 0.594412 0.000000
0.964025 0.594412 0.000000
0.967634 0.594412 0.000000
0.971124 0.594412 0.000000
0.000000 0.674598 0.000000
0.594412 0.674598 0.000000
0.674598 0.674598 0.000000
0.719730 0.674598 0.000000
0.751288 0.674598 0.000000
0.775577 0.674598 0.000000
0.795326 0.674598 0.000000
0.811968 0.674598 0.000000
0.826348 0.674598 0.000000
0.839010 0.674598 0.000000
0.850319 0.674598 0.000000
0.860538 0.674598 0.000000
0.869858 0.674598 0.000000
0.878425 0.674598 0.000000
0.886350 0.674598 0.000000
0.893724 0.674598 0.000000
0.900620 0.674598 0.000000
0.907094 0.674598 0.000000
0.913194 0.674598 0.000000
0.918963 0.674598 0.000000
0.924435 0.674598 0.000000
0.929637 0.674598 0.000000
0.934597 0.674598 0.000000
0.939334 0.674598 0.000000
0.943870 0.674598 0.000000
0.948219 0.674598 0.000000
0.952397 0.674598 0.000000
0.956416 0.674598 0.000000
0.960289 0.674598 0.000000
0.964025 0.674598 0.000000
0.967634 0.674598 0.000000
0.971124 0.674598 0.000000
0.000000 0.719730 0.000000
0.594412 0.719730 0.000000
0.674598 0.719730 0.000000
0.719730 0.719730 0.000000
0.751288 0.719730 0.000000
0.775577 0.719730 0.000000
0.795326 0.719730 0.000000
0.811968 0.719730 0.000000
0.826348 0.719730 0.000000
0.839010 0.719730 0.000000
0.850319 0.719730 0.000000
0.860538 0.719730 0.000000
0.869858 0.719730 0.000000
0.878425 0.719730 0.000000
0.886350 0.719730 0.000000
0.893724 0.719730 0.000000
0.900620 0.719730 0.000000
0.907094 0.719730 0.000000
0.913194 0.719730 0.000000
0.918963 0.719730 0.000000
0.924435 0.719730 0.000000
0.929637 0.719730 0.000000
0.934597 0.719730 0.000000
0.939334 0.719730 0.000000
0.943870 0.719730 0.000000
0.948219 0.719730 0.000000
0.952397 0.719730 0.000000
0.956416 0.719730 0.000000
0.960289 0.719730 0.000000
0.964025 0.719730 0.000000
0.967634 0.719730 0.000000
0.971124 0.719730 0.000000
0.000000 0.751288 0.000000
0.594412 0.751288 0.000000
0.674598 0.751288 0.000000
0.719730 0.751288 0.000000
0.751288 0.751288 0.000000
0.775577 0.751288 0.000000
0.795326 0.751288 0.000000
0.811968 0.751288 0.000000
0.826348 0.751288 0.000000
0.839010 0.751288 0.000000
0.850319 0.751288 0.000000
0.860538 0.751288 0.000000
0.869858 0.751288 0.000000
0.878425 0.751288 0.000000
0.886350 0.751288 0.000000
0.893724 0.751288 0.000000
0.900620 0.751288 0.000000
0.907094 0.751288 0.000000
0.913194 0.751288 0.000000
0.918963 0.751288 0.000000
0.924435 0.751288 0.000000
0.929637 0.751288 0.000000
0.934597 0.751288 0.000000
0.939334 0.751288 0.000000
0.943870 0.751288 0.000000
0.948219 0.751288 0.000000
0.952397 0.751288 0.000000
0.956416 0.751288 0.000000
0.960289 0.751288 0.000000
0.964025 0.751288 0.000000
0.967634 0.751288 0.000000
0.971124 0.751288 0.000000
0.000000 0.775577 0.000000
0.594412 0.775577 0.000000
0.674598 0.775577 0.000000
0.719730 0.775577 0.000000
0.751288 0.775577 0.000000
0.775577 0.775577 0.000000
0.795326 0.775577 0.000000
0.811968 0.775577 0.000000
0.826348 0.775577 0.000000
0.839010 0.775577 0.000000
0.850319 0.775577 0.000000
0.860538 0.775577 0.000000
0.869858 0.775577 0.000000
0.878425 0.775577 0.000000
0.886350 0.775577 0.000000
0.893724 0.775577 0.000000
0.900620 0.775577 0.000000
0.907094 0.775577 0.000000
0.913194 0.775577 0.000000
0.918963 0.775577 0.000000
0.924435 0.775577 0.000000
0.929637 0.775577 0.000000
0.934597 0.775577 0.000000
0.939334 0.775577 0.000000
0.943870 0.775577 0.000000
0.948219 0.775577 0.000000
0.952397 0.775577 0.000000
0.956416 0.775577 0.000000
0.960289 0.775577 0.000000
0.964025 0.775577 0.000000
0.967634 0.775577 0.000000
0.971124 0.775577 0.000000
0.000000 0.795326 0.000000
0.594412 0.795326 0.000000
0.674598 0.795326 0.000000
0.719730 0.795326 0.000000
0.751288 0.795326 0.000000
0.775577 0.795326 0.000000
0.795326 0.795326 0.000000
0.811968 0.795326 0.000000
0.826348 0.795326 0.000000
0.839010 0.795326 0.000000
0.850319 0.795326 0.000000
0.860538 0.795326 0.000000
0.869858 0.795326 0.000000
0.878425 0.795326 0.000000
0.886350 0.795326 0.000000
0.893724 0.795326 0.000000
0.900620 0.795326 0.000000
0.907094 0.795326 0.000000
0.913194 0.795326 0.000000
0.918963 0.795326 0.000000
0.924435 0.795326 0.000000
0.929637 0.795326 0.000000
0.934597 0.795326 0.000000
0.939334 0.795326 0.000000
0.943870 0.795326 0.000000
0.948219 0.795326 0.000000
0.952397 0.795326 0.000000
0.956416 0.795326 0.000000
0.960289 0.795326 0.000000
0.964025 0.795326 0.000000
0.967634 0.795326 0.000000
0.971124 0.795326 0.000000
0.000000 0.811968 0.000000
0.594412 0.811968 0.000000
0.674598 0.811968 0.000000
0.719730 0.811968 0.000000
0.751288 0.811968 0.000000
0.775577 0.811968 0.000000
0.795326 0.811968 0.000000
0.811968 0.811968 0.000000
0.826348 0.811968 0.000000
0.839010 0.811968 0.000000
0.850319 0.811968 0.000000
0.860538 0.811968 0.000000
0.869858 0.811968 0.000000
0.878425 0.811968 0.000000
0.886350 0.811968 0.000000
0.893724 0.811968 0.000000
0.900620 0.811968 0.000000
0.907094 0.811968 0.000000
0.913194 0.811968 0.000000
0.918963 0.811968 0.000000
0.924435 0.811968 0.000000
0.929637 0.811968 0.000000
0.934597 0.811968 0.000000
0.939334 0.811968 0.000000
0.943870 0.811968 0.000000
0.948219 0.811968 0.000000
0.952397 0.811968 0.000000
0.956416 0.811968 0.000000
0.960289 0.811968 0.000000
0.964025 0.811968 0.000000
0.967634 0.811968 0.000000
0.971124 0.811968 0.000000
0.000000 0.826348 0.000000
0.594412 0.826348 0.000000
0.674598 0.826348 0.000000
0.719730 0.826348 0.000000
0.751288 0.826348 0.000000
0.775577 0.826348 0.000000
0.795326 0.826348 0.000000
0.811968 0.826348 0.000000
0.826348 0.826348 0.000000
0.839010 0.826348 0.000000
0.850319 0.826348 0.000000
0.860538 0.826348 0.000000
0.869858 0.826348 0.000000
0.878425 0.826348 0.000000
0.886350 0.826348 0.000000
0.893724 0.826348 0.000000
0.900620 0.826348 0.000000
0.907094 0.826348 0.000000
0.913194 0.826348 0.000000
0.918963 0.826348 0.000000
0.924435 0.826348 0.000000
0.929637 0.826348 0.000000
0.934597 0.826348 0.000000
0.939334 0.826348 0.000000
0.943870 0.826348 0.000000
0.948219 0.826348 0.000000
0.952397 0.826348 0.000000
0.956416 0.826348 0.000000
0.960289 0.826348 0.000000
0.964025 0.826348 0.000000
0.967634 0.826348 0.000000
0.971124 0.826348 0.000000
0.000000 0.839010 0.000000
0.594412 0.839010 0.000000
0.674598 0.839010 0.000000
0.719730 0.839010 0.000000
0.751288 0.839010 0.000000
0.775577 0.839010 0.000000
0.795326 0.839010 0.000000
0.811968 0.839010 0.000000
0.826348 0.839010 0.000000
0.839010 0.839010 0.000000
0.850319 0.839010 0.000000
0.860538 0.839010 0.000000
0.869858 0.839010 0.000000
0.878425 0.839010 0.000000
0.886350 0.839010 0.000000
0.893724 0.839010 0.000000
0.900620 0.839010 0.000000
0.907094 0.839010 0.000000
0.913194 0.839010 0.000000
0.918963 0.839010 0.000000
0.924435 0.839010 0.000000
0.929637 0.839010 0.000000
0.934597 0.839010 0.000000
0.939334 0.839010 0.000000
0.943870 0.839010 0.000000
0.948219 0.839010 0.000000
0.952397 0.839010 0.000000
0.956416 0.839010 0.000000
0.960289 0.839010 0.000000
0.964025 0.839010 0.000000
0.967634 0.839010 0.000000
0.971124 0.839010 0.000000
0.000000 0.850319 0.000000
0.594412 0.850319 0.000000
0.674598 0.850319 0.000000
0.719730 0.850319 0.000000
0.751288 0.850319 0.000000
0.775577 0.850319 0.000000
0.795326 0.850319 0.000000
0.811968 0.850319 0.000000
0.826348 0.850319 0.000000
0.839010 0.850319 0.000000
0.850319 0.850319 0.000000
0.860538 0.850319 0.000000
0.869858 0.850319 0.000000
0.878425 0.850319 0.000000
0.886350 0.850319 0.000000
0.893724 0.850319 0.000000
0.900620 0.850319 0.000000
0.907094 0.850319 0.000000
0.913194 0.850319 0.000000
0.918963 0.850319 0.000000
0.924435 0.850319 0.000000
0.929637 0.850319 0.000000
0.934597 0.850319 0.000000
0.939334 0.850319 0.000000
0.943870 0.850319 0.000000
0.948219 0.850319 0.000000
0.952397 0.850319 0.000000
0.956416 0.850319 0.000000
0.960289 0.850319 0.000000
0.964025 0.850319 0.000000
0.967634 0.850319 0.000000
0.971124 0.850319 0.000000
0.000000 0.860538 0.000000
0.594412 0.860538 0.000000
0.674598 0.860538 0.000000
0.719730 0.860538 0.000000
0.751288 0.860538 0.000000
0.775577 0.860538 0.000000
0.795326 0.860538 0.000000
0.811968 0.860538 0.000000
0.826348 0.860538 0.000000
0.839010 0.860538 0.000000
0.850319 0.860538 0.000000
0.860538 0.860538 0.000000
0.869858 0.860538 0.000000
0.878425 0.860538 0.000000
0.886350 0.860538 0.000000
0.893724 0.860538 0.000000
0.900620 0.860538 0.000000
0.907094 0.860538 0.000000
0.913194 0.860538 0.000000
0.918963 0.860538 0.000000
0.924435 0.860538 0.000000
0.929637 0.860538 0.000000
0.934597 0.860538 0.000000
0.939334 0.860538 0.000000
0.943870 0.860538 0.000000
0.948219 0.860538 0.000000
0.952397 0.860538 0.000000
0.956416 0.860538 0.000000
0.960289 0.860538 0.000000
0.964025 0.860538 0.000000
0.967634 0.860538 0.000000
0.971124 0.860538 0.000000
0.000000 0.869858 0.000000
0.594412 0.869858 0.000000
0.674598 0.869858 0.000000
0.719730 0.869858 0.000000
0.751288 0.869858 0.000000
0.775577 0.869858 0.000000
0.795326 0.869858 0.000000
0.811968 0.869858 0.000000
0.826348 0.869858 0.000000
0.839010 0.869858 0.000000
0.850319 0.869858 0.000000
0.860538 0.869858 0.000000
0.869858 0.869858 0.000000
0.878425 0.869858 0.000000
0.886350 0.869858 0.000000
0.893724 0.869858 0.000000
0.900620 0.869858 0.000000
0.907094 0.869858 0.000000
0.913194 0.869858 0.000000
0.918963 0.869858 0.000000
0.924435 0.869858 0.000000
0.929637 0.869858 0.000000
0.934597 0.869858 0.000000
0.939334 0.869858 0.000000
0.943870 0.869858 0.000000
0.948219 0.869858 0.000000
0.952397 0.869858 0.000000
0.956416 0.869858 0.000000
0.960289 0.869858 0.000000
0.964025 0.869858 0.000000
0.967634 0.869858 0.000000
0.971124 0.869858 0.000000
0.000000 0.878425 0.000000
0.594412 0.878425 0.000000
0.674598 0.878425 0.000000
0.719730 0.878425 0.000000
0.751288 0.878425 0.000000
0.775577 0.878425 0.000000
0.795326 0.878425 0.000000
0.811968 0.878425 0.000000
0.826348 0.878425 0.000000
0.839010 0.878425 0.000000
0.850319 0.878425 0.000000
0.860538 0.878425 0.000000
0.869858 0.878425 0.000000
0.878425 0.878425 0.000000
0.886350 0.878425 0.000000
0.893724 0.878425 0.000000
0.900620 0.878425 0.000000
0.907094 0.878425 0.000000
0.913194 0.878425 0.000000
0.918963 0.878425 0.000000
0.924435 0.878425 0.000000
0.929637 0.878425 0.000000
0.934597 0.878425 0.000000
0.939334 0.878425 0.000000
0.943870 0.878425 0.000000
0.948219 0.878425 0.000000
0.952397 0.878425 0.000000
0.956416 0.878425 0.000000
0.960289 0.878425 0.000000
0.964025 0.878425 0.000000
0.967634 0.878425 0.000000
0.971124 0.878425 0.000000
0.000000 0.886350 0.000000
0.594412 0.886350 0.000000
0.674598 0.886350 0.000000
0.719730 0.886350 0.000000
0.751288 0.886350 0.000000
0.775577 0.886350 0.000000
0.795326 0.886350 0.000000
0.811968 0.886350 0.000000
0.826348 0.886350 0.000000
0.839010 0.886350 0.000000
0.850319 0.886350 0.000000
0.860538 0.886350 0.000000
0.869858 0.886350 0.000000
0.878425 0.886350 0.000000
0.886350 0.886350 0.000000
0.893724 0.886350 0.000000
0.900620 0.886350 0.000000
0.907094 0.886350 0.000000
0.913194 0.886350 0.000000
0.918963 0.886350 0.000000
0.924435 0.886350 0.000000
0.929637 0.886350 0.000000
0.934597 0.886350 0.000000
0.939334 0.886350 0.000000
0.943870 0.886350 0.000000
0.948219 0.886350 0.000000
0.952397 0.886350 0.000000
0.956416 0.886350 0.000000
0.960289 0.886350 0.000000
0.964025 0.886350 0.000000
0.967634 0.886350 0.000000
0.971124 0.886350 0.000000
0.000000 0.893724 0.000000
0.594412 0.893724 0.000000
0.674598 0.893724 0.000000
0.719730 0.893724 0.000000
0.751288 0.893724 0.000000
0.775577 0.893724 0.000000
0.795326 0.893724 0.000000
0.811968 0.893724 0.000000
0.826348 0.893724 0.000000
0.839010 0.893724 0.000000
0.850319 0.893724 0.000000
0.860538 0.893724 0.000000
0.869858 0.893724 0.000000
0.878425 0.893724 0.000000
0.886350 0.893724 0.000000
0.893724 0.893724 0.000000
0.900620 0.893724 0.000000
0.907094 0.893724 0.000000
0.913194 0.893724 0.000000
0.918963 0.893724 0.000000
0.924435 0.893724 0.000000
0.929637 0.893724 0.000000
0.934597 0.893724 0.000000
0.939334 0.893724 0.000000
0.943870 0.893724 0.000000
0.948219 0.893724 0.000000
0.952397 0.893724 0.000000
0.956416 0.893724 0.000000
0.960289 0.893724 0.000000
0.964025 0.893724 0.000000
0.967634 0.893724 0.000000
0.971124 0.893724 0.000000
0.000000 0.900620 0.000000
0.594412 0.900620 0.000000
0.674598 0.900620 0.000000
0.719730 0.900620 0.000000
0.751288 0.900620 0.000000
0.775577 0.900620 0.000000
0.795326 0.900620 0.000000
0.811968 0.900620 0.000000
0.826348 0.900620 0.000000
0.839010 0.900620 0.000000
0.850319 0.900620 0.000000
0.860538 0.900620 0.000000
0.869858 0.900620 0.000000
0.878425 0.900620 0.000000
0.886350 0.900620 0.000000
0.893724 0.900620 0.000000
0.900620 0.900620 0.000000
0.907094 0.900620 0.000000
0.913194 0.900620 0.000000
0.918963 0.900620 0.000000
0.924435 0.900620 0.000000
0.929637 0.900620 0.000000
0.934597 0.900620 0.000000
0.939334 0.900620 0.000000
0.943870 0.900620 0.000000
0.948219 0.900620 0.000000
0.952397 0.900620 0.000000
0.956416 0.900620 0.000000
0.960289 0.900620 0.000000
0.964025 0.900620 0.000000
0.967634 0.900620 0.000000
0.971124 0.900620 0.000000
0.000000 0.907094 0.000000
0.594412 0.907094 0.000000
0.674598 0.907094 0.000000
0.719730 0.907094 0.000000
0.751288 0.907094 0.000000
0.775577 0.907094 0.000000
0.795326 0.907094 0.000000
0.811968 0.907094 0.000000
0.826348 0.907094 0.000000
0.839010 0.907094 0.000000
0.850319 0.907094 0.000000
0.860538 0.907094 0.000000
0.869858 0.907094 0.000000
0.878425 0.907094 0.000000
0.886350 0.907094 0.000000
0.893724 0.907094 0.000000
0.900620 0.907094 0.000000
0.907094 0.907094 0.000000
0.913194 0.907094 0.000000
0.918963 0.907094 0.000000
0.924435 0.907094 0.000000
0.929637 0.907094 0.000000
0.934597 0.907094 0.000000
0.939334 0.907094 0.000000
0.943870 0.907094 0.000000
0.948219 0.907094 0.000000
0.952397 0.907094 0.000000
0.956416 0.907094 0.000000
0.960289 0.907094 0.000000
0.964025 0.907094 0.000000
0.967634 0.907094 0.000000
0.971124 0.907094 0.000000
0.000000 0.913194 0.000000
0.594412 0.913194 0.000000
0.674598 0.913194 0.000000
0.719730 0.913194 0.000000
0.751288 0.913194 0.000000
0.775577 0.913194 0.000000
0.795326 0.913194 0.000000
0.811968 0.913194 0.000000
0.826348 0.913194 0.000000
0.839010 0.913194 0.000000
0.850319 0.913194 0.000000
0.860538 0.913194 0.000000
0.869858 0.913194 0.000000
0.878425 0.913194 0.000000
0.886350 0.913194 0.000000
0.893724 0.913194 0.000000
0.900620 0.913194 0.000000
0.907094 0.913194 0.000000
0.913194 0.913194 0.000000
0.918963 0.913194 0.000000
0.924435 0.913194 0.000000
0.929637 0.913194 0.000000
0.934597 0.913194 0.000000
0.939334 0.913194 0.000000
0.943870 0.913194 0.000000
0.948219 0.913194 0.000000
0.952397 0.913194 0.000000
0.956416 0.913194 0.000000
0.960289 0.913194 0.000000
0.964025 0.913194 0.000000
0.967634 0.913194 0.000000
0.971124 0.913194 0.000000
0.000000 0.918963 0.000000
0.594412 0.918963 0.000000
0.674598 0.918963 0.000000
0.719730 0.918963 0.000000
0.751288 0.918963 0.000000
0.775577 0.918963 0.000000
0.795326 0.918963 0.000000
0.811968 0.918963 0.000000
0.826348 0.918963 0.000000
0.839010 0.918963 0.000000
0.850319 0.918963 0.000000
0.860538 0.918963 0.000000
0.869858 0.918963 0.000000
0.878425 0.918963 0.000000
0.886350 0.918963 0.000000
0.893724 0.918963 0.000000
0.900620 0.918963 0.000000
0.907094 0.918963 0.000000
0.913194 0.918963 0.000000
0.918963 0.918963 0.000000
0.924435 0.918963 0.000000
0.929637 0.918963 0.000000
0.934597 0.918963 0.000000
0.939334 0.918963 0.000000
0.943870 0.918963 0.000000
0.948219 0.918963 0.000000
0.952397 0.918963 0.000000
0.956416 0.918963 0.000000
0.960289 0.918963 0.000000
0.964025 0.918963 0.000000
0.967634 0.918963 0.000000
0.971124 0.918963 0.000000
0.000000 0.924435 0.000000
0.594412 0.924435 0.000000
0.674598 0.924435 0.000000
0.719730 0.924435 0.000000
0.751288 0.924435 0.000000
0.775577 0.924435 0.000000
0.795326 0.924435 0.000000
0.811968 0.924435 0.000000
0.826348 0.924435 0.000000
0.839010 0.924435 0.000000
0.850319 0.924435 0.000000
0.860538 0.924435 0.000000
0.869858 0.924435 0.000000
0.878425 0.924435 0.000000
0.886350 0.924435 0.000000
0.893724 0.924435 0.000000
0.900620 0.924435 0.000000
0.907094 0.924435 0.000000
0.913194 0.924435 0.000000
0.918963 0.924435 0.000000
0.924435 0.924435 0.000000
0.929637 0.924435 0.000000
0.934597 0.924435 0.000000
0.939334 0.924435 0.000000
0.943870 0.924435 0.000000
0.948219 0.924435 0.000000
0.952397 0.924435 0.000000
0.956416 0.924435 0.000000
0.960289 0.924435 0.000000
0.964025 0.924435 0.000000
0.967634 0.924435 0.000000
0.971124 0.924435 0.000000
0.000000 0.929637 0.000000
0.594412 0.929637 0.000000
0.674598 0.929637 0.000000
0.719730 0.929637 0.000000
0.751288 0.929637 0.000000
0.775577 0.929637 0.000000
0.795326 0.929637 0.000000
0.811968 0.929637 0.000000
0.826348 0.929637 0.000000
0.839010 0.929637 0.000000
0.850319 0.929637 0.000000
0.860538 0.929637 0.000000
0.869858 0.929637 0.000000
0.878425 0.929637 0.000000
0.886350 0.929637 0.000000
0.893724 0.929637 0.000000
0.900620 0.929637 0.000000
0.907094 0.929637 0.000000
0.913194 0.929637 0.000000
0.918963 0.929637 0.000000
0.924435 0.929637 0.000000
0.929637 0.929637 0.000000
0.934597 0.929637 0.000000
0.939334 0.929637 0.000000
0.943870 0.929637 0.000000
0.948219 0.929637 0.000000
0.952397 0.929637 0.000000
0.956416 0.929637 0.000000
0.960289 0.929637 0.000000
0.964025 0.929637 0.000000
0.967634 0.929637 0.000000
0.971124 0.929637 0.000000
0.000000 0.934597 0.000000
0.594412 0.934597 0.000000
0.674598 0.934597 0.000000
0.719730 0.934597 0.000000
0.751288 0.934597 0.000000
0.775577 0.934597 0.000000
0.795326 0.934597 0.000000
0.811968 0.934597 0.000000
0.826348 0.934597 0.000000
0.839010 0.934597 0.000000
0.850319 0.934597 0.000000
0.860538 0.934597 0.000000
0.869858 0.934597 0.000000
0.878425 0.934597 0.000000
0.886350 0.934597 0.000000
0.893724 0.934597 0.000000
0.900620 0.934597 0.000000
0.907094 0.934597 0.000000
0.913194 0.934597 0.000000
0.918963 0.934597 0.000000
0.924435 0.934597 0.000000
0.929637 0.934597 0.000000
0.934597 0.934597 0.000000
0.939334 0.934597 0.000000
0.943870 0.934597 0.000000
0.948219 0.934597 0.000000
0.952397 0.934597 0.000000
0.956416 0.934597 0.000000
0.960289 0.934597 0.000000
0.964025 0.934597 0.000000
0.967634 0.934597 0.000000
0.971124 0.934597 0.000000
0.000000 0.939334 0.000000
0.594412 0.939334 0.000000
0.674598 0.939334 0.000000
0.719730 0.939334 0.000000
0.751288 0.939334 0.000000
0.775577 0.939334 0.000000
0.795326 0.939334 0.000000
0.811968 0.939334 0.000000
0.826348 0.939334 0.000000
0.839010 0.939334 0.000000
0.850319 0.939334 0.000000
0.860538 0.939334 0.000000
0.869858 0.939334 0.000000
0.878425 0.939334 0.000000
0.886350 0.939334 0.000000
0.893724 0.939334 0.000000
0.900620 0.939334 0.000000
0.907094 0.939334 0.000000
0.913194 0.939334 0.000000
0.918963 0.939334 0.000000
0.924435 0.939334 0.000000
0.929637 0.939334 0.000000
0.934597 0.939334 0.000000
0.939334 0.939334 0.000000
0.943870 0.939334 0.000000
0.948219 0.939334 0.000000
0.952397 0.939334 0.000000
0.956416 0.939334 0.000000
0.960289 0.939334 0.000000
0.964025 0.939334 0.000000
0.967634 0.939334 0.000000
0.971124 0.939334 0.000000
0.000000 0.943870 0.000000
0.594412 0.943870 0.000000
0.674598 0.943870 0.000000
0.719730 0.943870 0.000000
0.751288 0.943870 0.000000
0.775577 0.943870 0.000000
0.795326 0.943870 0.000000
0.811968 0.943870 0.000000
0.826348 0.943870 0.000000
0.839010 0.943870 0.000000
0.850319 0.943870 0.000000
0.860538 0.943870 0.000000
0.869858 0.943870 0.000000
0.878425 0.943870 0.000000
0.886350 0.943870 0.000000
0.893724 0.943870 0.000000
0.900620 0.943870 0.000000
0.907094 0.943870 0.000000
0.913194 0.943870 0.000000
0.918963 0.943870 0.000000
0.924435 0.943870 0.000000
0.929637 0.943870 0.000000
0.934597 0.943870 0.000000
0.939334 0.943870 0.000000
0.943870 0.943870 0.000000
0.948219 0.943870 0.000000
0.952397 0.943870 0.000000
0.956416 0.943870 0.000000
0.960289 0.943870 0.000000
0.964025 0.943870 0.000000
0.967634 0.943870 0.000000
0.971124 0.943870 0.000000
0.000000 0.948219 0.000000
0.594412 0.948219 0.000000
0.674598 0.948219 0.000000
0.719730 0.948219 0.000000
0.751288 0.948219 0.000000
0.775577 0.948219 0.000000
0.795326 0.948219 0.000000
0.811968 0.948219 0.000000
0.826348 0.948219 0.000000
0.839010 0.948219 0.000000
0.850319 0.948219 0.000000
0.860538 0.948219 0.000000
0.869858 0.948219 0.000000
0.878425 0.948219 0.000000
0.886350 0.948219 0.000000
0.893724 0.948219 0.000000
0.900620 0.948219 0.000000
0.907094 0.948219 0.000000
0.913194 0.948219 0.000000
0.918963 0.948219 0.000000
0.924435 0.948219 0.000000
0.929637 0.948219 0.000000
0.934597 0.948219 0.000000
0.939334 0.948219 0.000000
0.943870 0.948219 0.000000
0.948219 0.948219 0.000000
0.952397 0.948219 0.000000
0.956416 0.948219 0.000000
0.960289 0.948219 0.000000
0.964025 0.948219 0.000000
0.967634 0.948219 0.000000
0.971124 0.948219 0.000000
0.000000 0.952397 0.000000
0.594412 0.952397 0.000000
0.674598 0.952397 0.000000
0.719730 0.952397 0.000000
0.751288 0.952397 0.000000
0.775577 0.952397 0.000000
0.795326 0.952397 0.000000
0.811968 0.952397 0.000000
0.826348 0.952397 0.000000
0.839010 0.952397 0.000000
0.850319 0.952397 0.000000
0.860538 0.952397 0.000000
0.869858 0.952397 0.000000
0.878425 0.952397 0.000000
0.886350 0.952397 0.000000
0.893724 0.952397 0.000000
0.900620 0.952397 0.000000
0.907094 0.952397 0.000000
0.913194 0.952397 0.000000
0.918963 0.952397 0.000000
0.924435 0.952397 0.000000
0.929637 0.952397 0.000000
0.934597 0.952397 0.000000
0.939334 0.952397 0.000000
0.943870 0.952397 0.000000
0.948219 0.952397 0.000000
0.952397 0.952397 0.000000
0.956416 0.952397 0.000000
0.960289 0.952397 0.000000
0.964025 0.952397 0.000000
0.967634 0.952397 0.000000
0.971124 0.952397 0.000000
0.000000 0.956416 0.000000
0.594412 0.956416 0.000000
0.674598 0.956416 0.000000
0.719730 0.956416 0.000000
0.751288 0.956416 0.000000
0.775577 0.956416 0.000000
0.795326 0.956416 0.000000
0.811968 0.956416 0.000000
0.826348 0.956416 0.000000
0.839010 0.956416 0.000000
0.850319 0.956416 0.000000
0.860538 0.956416 0.000000
0.869858 0.956416 0.000000
0.878425 0.956416 0.000000
0.886350 0.956416 0.000000
0.893724 0.956416 0.000000
0.900620 0.956416 0.000000
0.907094 0.956416 0.000000
0.913194 0.956416 0.000000
0.918963 0.956416 0.000000
0.924435 0.956416 0.000000
