.nuke/nuke.LUT/linear-2-logC_exteded/AlexaV3_EI0500_Linear2LogC_EE_nuke3d.cube
# Alexa conversion LUT, lin2logc. Full in/full out.
# created by alexalutconv (2.07)
LUT_3D_SIZE 8
DOMAIN_MIN 0.000000 0.000000 0.000000
DOMAIN_MAX 0.903226 0.903226 0.903226
0.000000 0.000000 0.000000
0.687747 0.000000 0.000000
0.765568 0.000000 0.000000
0.810711 0.000000 0.000000
0.842637 0.000000 0.000000
0.867357 0.000000 0.000000
0.887533 0.000000 0.000000
0.904578 0.000000 0.000000
0.000000 0.687747 0.000000
0.687747 0.687747 0.000000
0.765568 0.687747 0.000000
0.810711 0.687747 0.000000
0.842637 0.687747 0.000000
0.867357 0.687747 0.000000
0.887533 0.687747 0.000000
0.904578 0.687747 0.000000
0.000000 0.765568 0.000000
0.687747 0.765568 0.000000
0.765568 0.765568 0.000000
0.810711 0.765568 0.000000
0.842637 0.765568 0.000000
0.867357 0.765568 0.000000
0.887533 0.765568 0.000000
0.904578 0.765568 0.000000
0.000000 0.810711 0.000000
0.687747 0.810711 0.000000
0.765568 0.810711 0.000000
0.810711 0.810711 0.000000
0.842637 0.810711 0.000000
0.867357 0.810711 0.000000
0.887533 0.810711 0.000000
0.904578 0.810711 0.000000
0.000000 0.842637 0.000000
0.687747 0.842637 0.000000
0.765568 0.842637 0.000000
0.810711 0.842637 0.000000
0.842637 0.842637 0.000000
0.867357 0.842637 0.000000
0.887533 0.842637 0.000000
0.904578 0.842637 0.000000
0.000000 0.867357 0.000000
0.687747 0.867357 0.000000
0.765568 0.867357 0.000000
0.810711 0.867357 0.000000
0.842637 0.867357 0.000000
0.867357 0.867357 0.000000
0.887533 0.867357 0.000000
0.904578 0.867357 0.000000
0.000000 0.887533 0.000000
0.687747 0.887533 0.000000
0.765568 0.887533 0.000000
0.810711 0.887533 0.000000
0.842637 0.887533 0.000000
0.867357 0.887533 0.000000
0.887533 0.887533 0.000000
0.904578 0.887533 0.000000
0.000000 0.904578 0.000000
0.687747 0.904578 0.000000
0.765568 0.904578 0.000000
0.810711 0.904578 0.000000
0.842637 0.904578 0.000000
0.867357 0.904578 0.000000
0.887533 0.904578 0.000000
0.904578 0.904578 0.000000
0.000000 0.000000 0.687747
0.687747 0.000000 0.687747
0.765568 0.000000 0.687747
0.810711 0.000000 0.687747
0.842637 0.000000 0.687747
0.867357 0.000000 0.687747
0.887533 0.000000 0.687747
0.904578 0.000000 0.687747
0.000000 0.687747 0.687747
0.687747 0.687747 0.687747
0.765568 0.687747 0.687747
0.810711 0.687747 0.687747
0.842637 0.687747 0.687747
0.867357 0.687747 0.687747
0.887533 0.687747 0.687747
0.904578 0.687747 0.687747
0.000000 0.765568 0.687747
0.687747 0.765568 0.687747
0.765568 0.765568 0.687747
0.810711 0.765568 0.687747
0.842637 0.765568 0.687747
0.867357 0.765568 0.687747
0.887533 0.765568 0.687747
0.904578 0.765568 0.687747
0.000000 0.810711 0.687747
0.687747 0.810711 0.687747
0.765568 0.810711 0.687747
0.810711 0.810711 0.687747
0.842637 0.810711 0.687747
0.867357 0.810711 0.687747
0.887533 0.810711 0.687747
0.904578 0.810711 0.687747
0.000000 0.842637 0.687747
0.687747 0.842637 0.687747
0.765568 0.842637 0.687747
0.810711 0.842637 0.687747
0.842637 0.842637 0.687747
0.867357 0.842637 0.687747
0.887533 0.842637 0.687747
0.904578 0.842637 0.687747
0.000000 0.867357 0.687747
0.687747 0.867357 0.687747
0.765568 0.867357 0.687747
0.810711 0.867357 0.687747
0.842637 0.867357 0.687747
0.867357 0.867357 0.687747
0.887533 0.867357 0.687747
0.904578 0.867357 0.687747
0.000000 0.887533 0.687747
0.687747 0.887533 0.687747
0.765568 0.887533 0.687747
0.810711 0.887533 0.687747
0.842637 0.887533 0.687747
0.867357 0.887533 0.687747
0.887533 0.887533 0.687747
0.904578 0.887533 0.687747
0.000000 0.904578 0.687747
0.687747 0.904578 0.687747
0.765568 0.904578 0.687747
0.810711 0.904578 0.687747
0.842637 0.904578 0.687747
0.867357 0.904578 0.687747
0.887533 0.904578 0.687747
0.904578 0.904578 0.687747
0.000000 0.000000 0.765568
0.687747 0.000000 0.765568
0.765568 0.000000 0.765568
0.810711 0.000000 0.765568
0.842637 0.000000 0.765568
0.867357 0.000000 0.765568
0.887533 0.000000 0.765568
0.904578 0.000000 0.765568
0.000000 0.687747 0.765568
0.687747 0.687747 0.765568
0.765568 0.687747 0.765568
0.810711 0.687747 0.765568
0.842637 0.687747 0.765568
0.867357 0.687747 0.765568
0.887533 0.687747 0.765568
0.904578 0.687747 0.765568
0.000000 0.765568 0.765568
0.687747 0.765568 0.765568
0.765568 0.765568 0.765568
0.810711 0.765568 0.765568
0.842637 0.765568 0.765568
0.867357 0.765568 0.765568
0.887533 0.765568 0.765568
0.904578 0.765568 0.765568
0.000000 0.810711 0.765568
0.687747 0.810711 0.765568
0.765568 0.810711 0.765568
0.810711 0.810711 0.765568
0.842637 0.810711 0.765568
0.867357 0.810711 0.765568
0.887533 0.810711 0.765568
0.904578 0.810711 0.765568
0.000000 0.842637 0.765568
0.687747 0.842637 0.765568
0.765568 0.842637 0.765568
0.810711 0.842637 0.765568
0.842637 0.842637 0.765568
0.867357 0.842637 0.765568
0.887533 0.842637 0.765568
0.904578 0.842637 0.765568
0.000000 0.867357 0.765568
0.687747 0.867357 0.765568
0.765568 0.867357 0.765568
0.810711 0.867357 0.765568
0.842637 0.867357 0.765568
0.867357 0.867357 0.765568
0.887533 0.867357 0.765568
0.904578 0.867357 0.765568
0.000000 0.887533 0.765568
0.687747 0.887533 0.765568
0.765568 0.887533 0.765568
0.810711 0.887533 0.765568
0.842637 0.887533 0.765568
0.867357 0.887533 0.765568
0.887533 0.887533 0.765568
0.904578 0.887533 0.765568
0.000000 0.904578 0.765568
0.687747 0.904578 0.765568
0.765568 0.904578 0.765568
0.810711 0.904578 0.765568
0.842637 0.904578 0.765568
0.867357 0.904578 0.765568
0.887533 0.904578 0.765568
0.904578 0.904578 0.765568
0.000000 0.000000 0.810711
0.687747 0.000000 0.810711
0.765568 0.000000 0.810711
0.810711 0.000000 0.810711
0.842637 0.000000 0.810711
0.867357 0.000000 0.810711
0.887533 0.000000 0.810711
0.904578 0.000000 0.810711
0.000000 0.687747 0.810711
0.687747 0.687747 0.810711
0.765568 0.687747 0.810711
0.810711 0.687747 0.810711
0.842637 0.687747 0.810711
0.867357 0.687747 0.810711
0.887533 0.687747 0.810711
0.904578 0.687747 0.810711
0.000000 0.765568 0.810711
0.687747 0.765568 0.810711
0.765568 0.765568 0.810711
0.810711 0.765568 0.810711
0.842637 0.765568 0.810711
0.867357 0.765568 0.810711
0.887533 0.765568 0.810711
0.904578 0.765568 0.810711
0.000000 0.810711 0.810711
0.687747 0.810711 0.810711
0.765568 0.810711 0.810711
0.810711 0.810711 0.810711
0.842637 0.810711 0.810711
0.867357 0.810711 0.810711
0.887533 0.810711 0.810711
0.904578 0.810711 0.810711
0.000000 0.842637 0.810711
0.687747 0.842637 0.810711
0.765568 0.842637 0.810711
0.810711 0.842637 0.810711
0.842637 0.842637 0.810711
0.867357 0.842637 0.810711
0.887533 0.842637 0.810711
0.904578 0.842637 0.810711
0.000000 0.867357 0.810711
0.687747 0.867357 0.810711
0.765568 0.867357 0.810711
0.810711 0.867357 0.810711
0.842637 0.867357 0.810711
0.867357 0.867357 0.810711
0.887533 0.867357 0.810711
0.904578 0.867357 0.810711
0.000000 0.887533 0.810711
0.687747 0.887533 0.810711
0.765568 0.887533 0.810711
0.810711 0.887533 0.810711
0.842637 0.887533 0.810711
0.867357 0.887533 0.810711
0.887533 0.887533 0.810711
0.904578 0.887533 0.810711
0.000000 0.904578 0.810711
0.687747 0.904578 0.810711
0.765568 0.904578 0.810711
0.810711 0.904578 0.810711
0.842637 0.904578 0.810711
0.867357 0.904578 0.810711
0.887533 0.904578 0.810711
0.904578 0.904578 0.810711
0.000000 0.000000 0.842637
0.687747 0.000000 0.842637
0.765568 0.000000 0.842637
0.810711 0.000000 0.842637
0.842637 0.000000 0.842637
0.867357 0.000000 0.842637
0.887533 0.000000 0.842637
0.904578 0.000000 0.842637
0.000000 0.687747 0.842637
0.687747 0.687747 0.842637
0.765568 0.687747 0.842637
0.810711 0.687747 0.842637
0.842637 0.687747 0.842637
0.867357 0.687747 0.842637
0.887533 0.687747 0.842637
0.904578 0.687747 0.842637
0.000000 0.765568 0.842637
0.687747 0.765568 0.842637
0.765568 0.765568 0.842637
0.810711 0.765568 0.842637
0.842637 0.765568 0.842637
0.867357 0.765568 0.842637
0.887533 0.765568 0.842637
0.904578 0.765568 0.842637
0.000000 0.810711 0.842637
0.687747 0.810711 0.842637
0.765568 0.810711 0.842637
0.810711 0.810711 0.842637
0.842637 0.810711 0.842637
0.867357 0.810711 0.842637
0.887533 0.810711 0.842637
0.904578 0.810711 0.842637
0.000000 0.842637 0.842637
0.687747 0.842637 0.842637
0.765568 0.842637 0.842637
0.810711 0.842637 0.842637
0.842637 0.842637 0.842637
0.867357 0.842637 0.842637
0.887533 0.842637 0.842637
0.904578 0.842637 0.842637
0.000000 0.867357 0.842637
0.687747 0.867357 0.842637
0.765568 0.867357 0.842637
0.810711 0.867357 0.842637
0.842637 0.867357 0.842637
0.867357 0.867357 0.842637
0.887533 0.867357 0.842637
0.904578 0.867357 0.842637
0.000000 0.887533 0.842637
0.687747 0.887533 0.842637
0.765568 0.887533 0.842637
0.810711 0.887533 0.842637
0.842637 0.887533 0.842637
0.867357 0.887533 0.842637
0.887533 0.887533 0.842637
0.904578 0.887533 0.842637
0.000000 0.904578 0.842637
0.687747 0.904578 0.842637
0.765568 0.904578 0.842637
0.810711 0.904578 0.842637
0.842637 0.904578 0.842637
0.867357 0.904578 0.842637
0.887533 0.904578 0.842637
0.904578 0.904578 0.842637
0.000000 0.000000 0.867357
0.687747 0.000000 0.867357
0.765568 0.000000 0.867357
0.810711 0.000000 0.867357
0.842637 0.000000 0.867357
0.867357 0.000000 0.867357
0.887533 0.000000 0.867357
0.904578 0.000000 0.867357
0.000000 0.687747 0.867357
0.687747 0.687747 0.867357
0.765568 0.687747 0.867357
0.810711 0.687747 0.867357
0.842637 0.687747 0.867357
0.867357 0.687747 0.867357
0.887533 0.687747 0.867357
0.904578 0.687747 0.867357
0.000000 0.765568 0.867357
0.687747 0.765568 0.867357
0.765568 0.765568 0.867357
0.810711 0.765568 0.867357
0.842637 0.765568 0.867357
0.867357 0.765568 0.867357
0.887533 0.765568 0.867357
0.904578 0.765568 0.867357
0.000000 0.810711 0.867357
0.687747 0.810711 0.867357
0.765568 0.810711 0.867357
0.810711 0.810711 0.867357
0.842637 0.810711 0.867357
0.867357 0.810711 0.867357
0.887533 0.810711 0.867357
0.904578 0.810711 0.867357
0.000000 0.842637 0.867357
0.687747 0.842637 0.867357
0.765568 0.842637 0.867357
0.810711 0.842637 0.867357
0.842637 0.842637 0.867357
0.867357 0.842637 0.867357
0.887533 0.842637 0.867357
0.904578 0.842637 0.867357
0.000000 0.867357 0.867357
0.687747 0.867357 0.867357
0.765568 0.867357 0.867357
0.810711 0.867357 0.867357
0.842637 0.867357 0.867357
0.867357 0.867357 0.867357
0.887533 0.867357 0.867357
0.904578 0.867357 0.867357
0.000000 0.887533 0.867357
0.687747 0.887533 0.867357
0.765568 0.887533 0.867357
0.810711 0.887533 0.867357
0.842637 0.887533 0.867357
0.867357 0.887533 0.867357
0.887533 0.887533 0.867357
0.904578 0.887533 0.867357
0.000000 0.904578 0.867357
0.687747 0.904578 0.867357
0.765568 0.904578 0.867357
0.810711 0.904578 0.867357
0.842637 0.904578 0.867357
0.867357 0.904578 0.867357
0.887533 0.904578 0.867357
0.904578 0.904578 0.867357
0.000000 0.000000 0.887533
0.687747 0.000000 0.887533
0.765568 0.000000 0.887533
0.810711 0.000000 0.887533
0.842637 0.000000 0.887533
0.867357 0.000000 0.887533
0.887533 0.000000 0.887533
0.904578 0.000000 0.887533
0.000000 0.687747 0.887533
0.687747 0.687747 0.887533
0.765568 0.687747 0.887533
0.810711 0.687747 0.887533
0.842637 0.687747 0.887533
0.867357 0.687747 0.887533
0.887533 0.687747 0.887533
0.904578 0.687747 0.887533
0.000000 0.765568 0.887533
0.687747 0.765568 0.887533
0.765568 0.765568 0.887533
0.810711 0.765568 0.887533
0.842637 0.765568 0.887533
0.867357 0.765568 0.887533
0.887533 0.765568 0.887533
0.904578 0.765568 0.887533
0.000000 0.810711 0.887533
0.687747 0.810711 0.887533
0.765568 0.810711 0.887533
0.810711 0.810711 0.887533
0.842637 0.810711 0.887533
0.867357 0.810711 0.887533
0.887533 0.810711 0.887533
0.904578 0.810711 0.887533
0.000000 0.842637 0.887533
0.687747 0.842637 0.887533
0.765568 0.842637 0.887533
0.810711 0.842637 0.887533
0.842637 0.842637 0.887533
0.867357 0.842637 0.887533
0.887533 0.842637 0.887533
0.904578 0.842637 0.887533
0.000000 0.867357 0.887533
0.687747 0.867357 0.887533
0.765568 0.867357 0.887533
0.810711 0.867357 0.887533
0.842637 0.867357 0.887533
0.867357 0.867357 0.887533
0.887533 0.867357 0.887533
0.904578 0.867357 0.887533
0.000000 0.887533 0.887533
0.687747 0.887533 0.887533
0.765568 0.887533 0.887533
0.810711 0.887533 0.887533
0.842637 0.887533 0.887533
0.867357 0.887533 0.887533
0.887533 0.887533 0.887533
0.904578 0.887533 0.887533
0.000000 0.904578 0.887533
0.687747 0.904578 0.887533
0.765568 0.904578 0.887533
0.810711 0.904578 0.887533
0.842637 0.904578 0.887533
0.867357 0.904578 0.887533
0.887533 0.904578 0.887533
0.904578 0.904578 0.887533
0.000000 0.000000 0.904578
0.687747 0.000000 0.904578
0.765568 0.000000 0.904578
0.810711 0.000000 0.904578
0.842637 0.000000 0.904578
0.867357 0.000000 0.904578
0.887533 0.000000 0.904578
0.904578 0.000000 0.904578
0.000000 0.687747 0.904578
0.687747 0.687747 0.904578
0.765568 0.687747 0.904578
0.810711 0.687747 0.904578
0.842637 0.687747 0.904578
0.867357 0.687747 0.904578
0.887533 0.687747 0.904578
0.904578 0.687747 0.904578
0.000000 0.765568 0.904578
0.687747 0.765568 0.904578
0.765568 0.765568 0.904578
0.810711 0.765568 0.904578
0.842637 0.765568 0.904578
0.867357 0.765568 0.904578
0.887533 0.765568 0.904578
0.904578 0.765568 0.904578
0.000000 0.810711 0.904578
0.687747 0.810711 0.904578
0.765568 0.810711 0.904578
0.810711 0.810711 0.904578
0.842637 0.810711 0.904578
0.867357 0.810711 0.904578
0.887533 0.810711 0.904578
0.904578 0.810711 0.904578
0.000000 0.842637 0.904578
0.687747 0.842637 0.904578
0.765568 0.842637 0.904578
0.810711 0.842637 0.904578
0.842637 0.842637 0.904578
0.867357 0.842637 0.904578
0.887533 0.842637 0.904578
0.904578 0.842637 0.904578
0.000000 0.867357 0.904578
0.687747 0.867357 0.904578
0.765568 0.867357 0.904578
0.810711 0.867357 0.904578
0.842637 0.867357 0.904578
0.867357 0.867357 0.904578
0.887533 0.867357 0.904578
0.904578 0.867357 0.904578
0.000000 0.887533 0.904578
0.687747 0.887533 0.904578
0.765568 0.887533 0.904578
0.810711 0.887533 0.904578
0.842637 0.887533 0.904578
0.867357 0.887533 0.904578
0.887533 0.887533 0.904578
0.904578 0.887533 0.904578
0.000000 0.904578 0.904578
0.687747 0.904578 0.904578
0.765568 0.904578 0.904578
0.810711 0.904578 0.904578
0.842637 0.904578 0.904578
0.867357 0.904578 0.904578
0.887533 0.904578 0.904578
0.904578 0.904578 0.904578
