.nuke/nuke.LUT/linear-2-logC_exteded/AlexaV3_EI0250_Linear2LogC_EE_nuke3d.cube
# Alexa conversion LUT, lin2logc. Full in/full out.
# created by alexalutconv (2.07)
LUT_3D_SIZE 5
DOMAIN_MIN 0.000000 0.000000 0.000000
DOMAIN_MAX 0.903226 0.903226 0.903226
0.000000 0.000000 0.000000
0.683896 0.000000 0.000000
0.763759 0.000000 0.000000
0.810299 0.000000 0.000000
0.843272 0.000000 0.000000
0.000000 0.683896 0.000000
0.683896 0.683896 0.000000
0.763759 0.683896 0.000000
0.810299 0.683896 0.000000
0.843272 0.683896 0.000000
0.000000 0.763759 0.000000
0.683896 0.763759 0.000000
0.763759 0.763759 0.000000
0.810299 0.763759 0.000000
0.843272 0.763759 0.000000
0.000000 0.810299 0.000000
0.683896 0.810299 0.000000
0.763759 0.810299 0.000000
0.810299 0.810299 0.000000
0.843272 0.810299 0.000000
0.000000 0.843272 0.000000
0.683896 0.843272 0.000000
0.763759 0.843272 0.000000
0.810299 0.843272 0.000000
0.843272 0.843272 0.000000
0.000000 0.000000 0.683896
0.683896 0.000000 0.683896
0.763759 0.000000 0.683896
0.810299 0.000000 0.683896
0.843272 0.000000 0.683896
0.000000 0.683896 0.683896
0.683896 0.683896 0.683896
0.763759 0.683896 0.683896
0.810299 0.683896 0.683896
0.843272 0.683896 0.683896
0.000000 0.763759 0.683896
0.683896 0.763759 0.683896
0.763759 0.763759 0.683896
0.810299 0.763759 0.683896
0.843272 0.763759 0.683896
0.000000 0.810299 0.683896
0.683896 0.810299 0.683896
0.763759 0.810299 0.683896
0.810299 0.810299 0.683896
0.843272 0.810299 0.683896
0.000000 0.843272 0.683896
0.683896 0.843272 0.683896
0.763759 0.843272 0.683896
0.810299 0.843272 0.683896
0.843272 0.843272 0.683896
0.000000 0.000000 0.763759
0.683896 0.000000 0.763759
0.763759 0.000000 0.763759
0.810299 0.000000 0.763759
0.843272 0.000000 0.763759
0.000000 0.683896 0.763759
0.683896 0.683896 0.763759
0.763759 0.683896 0.763759
0.810299 0.683896 0.763759
0.843272 0.683896 0.763759
0.000000 0.763759 0.763759
0.683896 0.763759 0.763759
0.763759 0.763759 0.763759
0.810299 0.763759 0.763759
0.843272 0.763759 0.763759
0.000000 0.810299 0.763759
0.683896 0.810299 0.763759
0.763759 0.810299 0.763759
0.810299 0.810299 0.763759
0.843272 0.810299 0.763759
0.000000 0.843272 0.763759
0.683896 0.843272 0.763759
0.763759 0.843272 0.763759
0.810299 0.843272 0.763759
0.843272 0.843272 0.763759
0.000000 0.000000 0.810299
0.683896 0.000000 0.810299
0.763759 0.000000 0.810299
0.810299 0.000000 0.810299
0.843272 0.000000 0.810299
0.000000 0.683896 0.810299
0.683896 0.683896 0.810299
0.763759 0.683896 0.810299
0.810299 0.683896 0.810299
0.843272 0.683896 0.810299
0.000000 0.763759 0.810299
0.683896 0.763759 0.810299
0.763759 0.763759 0.810299
0.810299 0.763759 0.810299
0.843272 0.763759 0.810299
0.000000 0.810299 0.810299
0.683896 0.810299 0.810299
0.763759 0.810299 0.810299
0.810299 0.810299 0.810299
0.843272 0.810299 0.810299
0.000000 0.843272 0.810299
0.683896 0.843272 0.810299
0.763759 0.843272 0.810299
0.810299 0.843272 0.810299
0.843272 0.843272 0.810299
0.000000 0.000000 0.843272
0.683896 0.000000 0.843272
0.763759 0.000000 0.843272
0.810299 0.000000 0.843272
0.843272 0.000000 0.843272
0.000000 0.683896 0.843272
0.683896 0.683896 0.843272
0.763759 0.683896 0.843272
0.810299 0.683896 0.843272
0.843272 0.683896 0.843272
0.000000 0.763759 0.843272
0.683896 0.763759 0.843272
0.763759 0.763759 0.843272
0.810299 0.763759 0.843272
0.843272 0.763759 0.843272
0.000000 0.810299 0.843272
0.683896 0.810299 0.843272
0.763759 0.810299 0.843272
0.810299 0.810299 0.843272
0.843272 0.810299 0.843272
0.000000 0.843272 0.843272
0.683896 0.843272 0.843272
0.763759 0.843272 0.843272
0.810299 0.843272 0.843272
0.843272 0.843272 0.843272
