.nuke/nuke.LUT/linear-2-logC_exteded/AlexaV3_EI1000_Linear2LogC_EE_nuke3d.cube
# Alexa conversion LUT, lin2logc. Full in/full out.
# created by alexalutconv (2.07)
LUT_3D_SIZE 8
DOMAIN_MIN 0.000000 0.000000 0.000000
DOMAIN_MAX 0.903226 0.903226 0.903226
0.000000 0.000000 0.000000
0.751288 0.000000 0.000000
0.826348 0.000000 0.000000
0.869858 0.000000 0.000000
0.900620 0.000000 0.000000
0.924435 0.000000 0.000000
0.943870 0.000000 0.000000
0.960289 0.000000 0.000000
0.000000 0.751288 0.000000
0.751288 0.751288 0.000000
0.826348 0.751288 0.000000
0.869858 0.751288 0.000000
0.900620 0.751288 0.000000
0.924435 0.751288 0.000000
0.943870 0.751288 0.000000
0.960289 0.751288 0.000000
0.000000 0.826348 0.000000
0.751288 0.826348 0.000000
0.826348 0.826348 0.000000
0.869858 0.826348 0.000000
0.900620 0.826348 0.000000
0.924435 0.826348 0.000000
0.943870 0.826348 0.000000
0.960289 0.826348 0.000000
0.000000 0.869858 0.000000
0.751288 0.869858 0.000000
0.826348 0.869858 0.000000
0.869858 0.869858 0.000000
0.900620 0.869858 0.000000
0.924435 0.869858 0.000000
0.943870 0.869858 0.000000
0.960289 0.869858 0.000000
0.000000 0.900620 0.000000
0.751288 0.900620 0.000000
0.826348 0.900620 0.000000
0.869858 0.900620 0.000000
0.900620 0.900620 0.000000
0.924435 0.900620 0.000000
0.943870 0.900620 0.000000
0.960289 0.900620 0.000000
0.000000 0.924435 0.000000
0.751288 0.924435 0.000000
0.826348 0.924435 0.000000
0.869858 0.924435 0.000000
0.900620 0.924435 0.000000
0.924435 0.924435 0.000000
0.943870 0.924435 0.000000
0.960289 0.924435 0.000000
0.000000 0.943870 0.000000
0.751288 0.943870 0.000000
0.826348 0.943870 0.000000
0.869858 0.943870 0.000000
0.900620 0.943870 0.000000
0.924435 0.943870 0.000000
0.943870 0.943870 0.000000
0.960289 0.943870 0.000000
0.000000 0.960289 0.000000
0.751288 0.960289 0.000000
0.826348 0.960289 0.000000
0.869858 0.960289 0.000000
0.900620 0.960289 0.000000
0.924435 0.960289 0.000000
0.943870 0.960289 0.000000
0.960289 0.960289 0.000000
0.000000 0.000000 0.751288
0.751288 0.000000 0.751288
0.826348 0.000000 0.751288
0.869858 0.000000 0.751288
0.900620 0.000000 0.751288
0.924435 0.000000 0.751288
0.943870 0.000000 0.751288
0.960289 0.000000 0.751288
0.000000 0.751288 0.751288
0.751288 0.751288 0.751288
0.826348 0.751288 0.751288
0.869858 0.751288 0.751288
0.900620 0.751288 0.751288
0.924435 0.751288 0.751288
0.943870 0.751288 0.751288
0.960289 0.751288 0.751288
0.000000 0.826348 0.751288
0.751288 0.826348 0.751288
0.826348 0.826348 0.751288
0.869858 0.826348 0.751288
0.900620 0.826348 0.751288
0.924435 0.826348 0.751288
0.943870 0.826348 0.751288
0.960289 0.826348 0.751288
0.000000 0.869858 0.751288
0.751288 0.869858 0.751288
0.826348 0.869858 0.751288
0.869858 0.869858 0.751288
0.900620 0.869858 0.751288
0.924435 0.869858 0.751288
0.943870 0.869858 0.751288
0.960289 0.869858 0.751288
0.000000 0.900620 0.751288
0.751288 0.900620 0.751288
0.826348 0.900620 0.751288
0.869858 0.900620 0.751288
0.900620 0.900620 0.751288
0.924435 0.900620 0.751288
0.943870 0.900620 0.751288
0.960289 0.900620 0.751288
0.000000 0.924435 0.751288
0.751288 0.924435 0.751288
0.826348 0.924435 0.751288
0.869858 0.924435 0.751288
0.900620 0.924435 0.751288
0.924435 0.924435 0.751288
0.943870 0.924435 0.751288
0.960289 0.924435 0.751288
0.000000 0.943870 0.751288
0.751288 0.943870 0.751288
0.826348 0.943870 0.751288
0.869858 0.943870 0.751288
0.900620 0.943870 0.751288
0.924435 0.943870 0.751288
0.943870 0.943870 0.751288
0.960289 0.943870 0.751288
0.000000 0.960289 0.751288
0.751288 0.960289 0.751288
0.826348 0.960289 0.751288
0.869858 0.960289 0.751288
0.900620 0.960289 0.751288
0.924435 0.960289 0.751288
0.943870 0.960289 0.751288
0.960289 0.960289 0.751288
0.000000 0.000000 0.826348
0.751288 0.000000 0.826348
0.826348 0.000000 0.826348
0.869858 0.000000 0.826348
0.900620 0.000000 0.826348
0.924435 0.000000 0.826348
0.943870 0.000000 0.826348
0.960289 0.000000 0.826348
0.000000 0.751288 0.826348
0.751288 0.751288 0.826348
0.826348 0.751288 0.826348
0.869858 0.751288 0.826348
0.900620 0.751288 0.826348
0.924435 0.751288 0.826348
0.943870 0.751288 0.826348
0.960289 0.751288 0.826348
0.000000 0.826348 0.826348
0.751288 0.826348 0.826348
0.826348 0.826348 0.826348
0.869858 0.826348 0.826348
0.900620 0.826348 0.826348
0.924435 0.826348 0.826348
0.943870 0.826348 0.826348
0.960289 0.826348 0.826348
0.000000 0.869858 0.826348
0.751288 0.869858 0.826348
0.826348 0.869858 0.826348
0.869858 0.869858 0.826348
0.900620 0.869858 0.826348
0.924435 0.869858 0.826348
0.943870 0.869858 0.826348
0.960289 0.869858 0.826348
0.000000 0.900620 0.826348
0.751288 0.900620 0.826348
0.826348 0.900620 0.826348
0.869858 0.900620 0.826348
0.900620 0.900620 0.826348
0.924435 0.900620 0.826348
0.943870 0.900620 0.826348
0.960289 0.900620 0.826348
0.000000 0.924435 0.826348
0.751288 0.924435 0.826348
0.826348 0.924435 0.826348
0.869858 0.924435 0.826348
0.900620 0.924435 0.826348
0.924435 0.924435 0.826348
0.943870 0.924435 0.826348
0.960289 0.924435 0.826348
0.000000 0.943870 0.826348
0.751288 0.943870 0.826348
0.826348 0.943870 0.826348
0.869858 0.943870 0.826348
0.900620 0.943870 0.826348
0.924435 0.943870 0.826348
0.943870 0.943870 0.826348
0.960289 0.943870 0.826348
0.000000 0.960289 0.826348
0.751288 0.960289 0.826348
0.826348 0.960289 0.826348
0.869858 0.960289 0.826348
0.900620 0.960289 0.826348
0.924435 0.960289 0.826348
0.943870 0.960289 0.826348
0.960289 0.960289 0.826348
0.000000 0.000000 0.869858
0.751288 0.000000 0.869858
0.826348 0.000000 0.869858
0.869858 0.000000 0.869858
0.900620 0.000000 0.869858
0.924435 0.000000 0.869858
0.943870 0.000000 0.869858
0.960289 0.000000 0.869858
0.000000 0.751288 0.869858
0.751288 0.751288 0.869858
0.826348 0.751288 0.869858
0.869858 0.751288 0.869858
0.900620 0.751288 0.869858
0.924435 0.751288 0.869858
0.943870 0.751288 0.869858
0.960289 0.751288 0.869858
0.000000 0.826348 0.869858
0.751288 0.826348 0.869858
0.826348 0.826348 0.869858
0.869858 0.826348 0.869858
0.900620 0.826348 0.869858
0.924435 0.826348 0.869858
0.943870 0.826348 0.869858
0.960289 0.826348 0.869858
0.000000 0.869858 0.869858
0.751288 0.869858 0.869858
0.826348 0.869858 0.869858
0.869858 0.869858 0.869858
0.900620 0.869858 0.869858
0.924435 0.869858 0.869858
0.943870 0.869858 0.869858
0.960289 0.869858 0.869858
0.000000 0.900620 0.869858
0.751288 0.900620 0.869858
0.826348 0.900620 0.869858
0.869858 0.900620 0.869858
0.900620 0.900620 0.869858
0.924435 0.900620 0.869858
0.943870 0.900620 0.869858
0.960289 0.900620 0.869858
0.000000 0.924435 0.869858
0.751288 0.924435 0.869858
0.826348 0.924435 0.869858
0.869858 0.924435 0.869858
0.900620 0.924435 0.869858
0.924435 0.924435 0.869858
0.943870 0.924435 0.869858
0.960289 0.924435 0.869858
0.000000 0.943870 0.869858
0.751288 0.943870 0.869858
0.826348 0.943870 0.869858
0.869858 0.943870 0.869858
0.900620 0.943870 0.869858
0.924435 0.943870 0.869858
0.943870 0.943870 0.869858
0.960289 0.943870 0.869858
0.000000 0.960289 0.869858
0.751288 0.960289 0.869858
0.826348 0.960289 0.869858
0.869858 0.960289 0.869858
0.900620 0.960289 0.869858
0.924435 0.960289 0.869858
0.943870 0.960289 0.869858
0.960289 0.960289 0.869858
0.000000 0.000000 0.900620
0.751288 0.000000 0.900620
0.826348 0.000000 0.900620
0.869858 0.000000 0.900620
0.900620 0.000000 0.900620
0.924435 0.000000 0.900620
0.943870 0.000000 0.900620
0.960289 0.000000 0.900620
0.000000 0.751288 0.900620
0.751288 0.751288 0.900620
0.826348 0.751288 0.900620
0.869858 0.751288 0.900620
0.900620 0.751288 0.900620
0.924435 0.751288 0.900620
0.943870 0.751288 0.900620
0.960289 0.751288 0.900620
0.000000 0.826348 0.900620
0.751288 0.826348 0.900620
0.826348 0.826348 0.900620
0.869858 0.826348 0.900620
0.900620 0.826348 0.900620
0.924435 0.826348 0.900620
0.943870 0.826348 0.900620
0.960289 0.826348 0.900620
0.000000 0.869858 0.900620
0.751288 0.869858 0.900620
0.826348 0.869858 0.900620
0.869858 0.869858 0.900620
0.900620 0.869858 0.900620
0.924435 0.869858 0.900620
0.943870 0.869858 0.900620
0.960289 0.869858 0.900620
0.000000 0.900620 0.900620
0.751288 0.900620 0.900620
0.826348 0.900620 0.900620
0.869858 0.900620 0.900620
0.900620 0.900620 0.900620
0.924435 0.900620 0.900620
0.943870 0.900620 0.900620
0.960289 0.900620 0.900620
0.000000 0.924435 0.900620
0.751288 0.924435 0.900620
0.826348 0.924435 0.900620
0.869858 0.924435 0.900620
0.900620 0.924435 0.900620
0.924435 0.924435 0.900620
0.943870 0.924435 0.900620
0.960289 0.924435 0.900620
0.000000 0.943870 0.900620
0.751288 0.943870 0.900620
0.826348 0.943870 0.900620
0.869858 0.943870 0.900620
0.900620 0.943870 0.900620
0.924435 0.943870 0.900620
0.943870 0.943870 0.900620
0.960289 0.943870 0.900620
0.000000 0.960289 0.900620
0.751288 0.960289 0.900620
0.826348 0.960289 0.900620
0.869858 0.960289 0.900620
0.900620 0.960289 0.900620
0.924435 0.960289 0.900620
0.943870 0.960289 0.900620
0.960289 0.960289 0.900620
0.000000 0.000000 0.924435
0.751288 0.000000 0.924435
0.826348 0.000000 0.924435
0.869858 0.000000 0.924435
0.900620 0.000000 0.924435
0.924435 0.000000 0.924435
0.943870 0.000000 0.924435
0.960289 0.000000 0.924435
0.000000 0.751288 0.924435
0.751288 0.751288 0.924435
0.826348 0.751288 0.924435
0.869858 0.751288 0.924435
0.900620 0.751288 0.924435
0.924435 0.751288 0.924435
0.943870 0.751288 0.924435
0.960289 0.751288 0.924435
0.000000 0.826348 0.924435
0.751288 0.826348 0.924435
0.826348 0.826348 0.924435
0.869858 0.826348 0.924435
0.900620 0.826348 0.924435
0.924435 0.826348 0.924435
0.943870 0.826348 0.924435
0.960289 0.826348 0.924435
0.000000 0.869858 0.924435
0.751288 0.869858 0.924435
0.826348 0.869858 0.924435
0.869858 0.869858 0.924435
0.900620 0.869858 0.924435
0.924435 0.869858 0.924435
0.943870 0.869858 0.924435
0.960289 0.869858 0.924435
0.000000 0.900620 0.924435
0.751288 0.900620 0.924435
0.826348 0.900620 0.924435
0.869858 0.900620 0.924435
0.900620 0.900620 0.924435
0.924435 0.900620 0.924435
0.943870 0.900620 0.924435
0.960289 0.900620 0.924435
0.000000 0.924435 0.924435
0.751288 0.924435 0.924435
0.826348 0.924435 0.924435
0.869858 0.924435 0.924435
0.900620 0.924435 0.924435
0.924435 0.924435 0.924435
0.943870 0.924435 0.924435
0.960289 0.924435 0.924435
0.000000 0.943870 0.924435
0.751288 0.943870 0.924435
0.826348 0.943870 0.924435
0.869858 0.943870 0.924435
0.900620 0.943870 0.924435
0.924435 0.943870 0.924435
0.943870 0.943870 0.924435
0.960289 0.943870 0.924435
0.000000 0.960289 0.924435
0.751288 0.960289 0.924435
0.826348 0.960289 0.924435
0.869858 0.960289 0.924435
0.900620 0.960289 0.924435
0.924435 0.960289 0.924435
0.943870 0.960289 0.924435
0.960289 0.960289 0.924435
0.000000 0.000000 0.943870
0.751288 0.000000 0.943870
0.826348 0.000000 0.943870
0.869858 0.000000 0.943870
0.900620 0.000000 0.943870
0.924435 0.000000 0.943870
0.943870 0.000000 0.943870
0.960289 0.000000 0.943870
0.000000 0.751288 0.943870
0.751288 0.751288 0.943870
0.826348 0.751288 0.943870
0.869858 0.751288 0.943870
0.900620 0.751288 0.943870
0.924435 0.751288 0.943870
0.943870 0.751288 0.943870
0.960289 0.751288 0.943870
0.000000 0.826348 0.943870
0.751288 0.826348 0.943870
0.826348 0.826348 0.943870
0.869858 0.826348 0.943870
0.900620 0.826348 0.943870
0.924435 0.826348 0.943870
0.943870 0.826348 0.943870
0.960289 0.826348 0.943870
0.000000 0.869858 0.943870
0.751288 0.869858 0.943870
0.826348 0.869858 0.943870
0.869858 0.869858 0.943870
0.900620 0.869858 0.943870
0.924435 0.869858 0.943870
0.943870 0.869858 0.943870
0.960289 0.869858 0.943870
0.000000 0.900620 0.943870
0.751288 0.900620 0.943870
0.826348 0.900620 0.943870
0.869858 0.900620 0.943870
0.900620 0.900620 0.943870
0.924435 0.900620 0.943870
0.943870 0.900620 0.943870
0.960289 0.900620 0.943870
0.000000 0.924435 0.943870
0.751288 0.924435 0.943870
0.826348 0.924435 0.943870
0.869858 0.924435 0.943870
0.900620 0.924435 0.943870
0.924435 0.924435 0.943870
0.943870 0.924435 0.943870
0.960289 0.924435 0.943870
0.000000 0.943870 0.943870
0.751288 0.943870 0.943870
0.826348 0.943870 0.943870
0.869858 0.943870 0.943870
0.900620 0.943870 0.943870
0.924435 0.943870 0.943870
0.943870 0.943870 0.943870
0.960289 0.943870 0.943870
0.000000 0.960289 0.943870
0.751288 0.960289 0.943870
0.826348 0.960289 0.943870
0.869858 0.960289 0.943870
0.900620 0.960289 0.943870
0.924435 0.960289 0.943870
0.943870 0.960289 0.943870
0.960289 0.960289 0.943870
0.000000 0.000000 0.960289
0.751288 0.000000 0.960289
0.826348 0.000000 0.960289
0.869858 0.000000 0.960289
0.900620 0.000000 0.960289
0.924435 0.000000 0.960289
0.943870 0.000000 0.960289
0.960289 0.000000 0.960289
0.000000 0.751288 0.960289
0.751288 0.751288 0.960289
0.826348 0.751288 0.960289
0.869858 0.751288 0.960289
0.900620 0.751288 0.960289
0.924435 0.751288 0.960289
0.943870 0.751288 0.960289
0.960289 0.751288 0.960289
0.000000 0.826348 0.960289
0.751288 0.826348 0.960289
0.826348 0.826348 0.960289
0.869858 0.826348 0.960289
0.900620 0.826348 0.960289
0.924435 0.826348 0.960289
0.943870 0.826348 0.960289
0.960289 0.826348 0.960289
0.000000 0.869858 0.960289
0.751288 0.869858 0.960289
0.826348 0.869858 0.960289
0.869858 0.869858 0.960289
0.900620 0.869858 0.960289
0.924435 0.869858 0.960289
0.943870 0.869858 0.960289
0.960289 0.869858 0.960289
0.000000 0.900620 0.960289
0.751288 0.900620 0.960289
0.826348 0.900620 0.960289
0.869858 0.900620 0.960289
0.900620 0.900620 0.960289
0.924435 0.900620 0.960289
0.943870 0.900620 0.960289
0.960289 0.900620 0.960289
0.000000 0.924435 0.960289
0.751288 0.924435 0.960289
0.826348 0.924435 0.960289
0.869858 0.924435 0.960289
0.900620 0.924435 0.960289
0.924435 0.924435 0.960289
0.943870 0.924435 0.960289
0.960289 0.924435 0.960289
0.000000 0.943870 0.960289
0.751288 0.943870 0.960289
0.826348 0.943870 0.960289
0.869858 0.943870 0.960289
0.900620 0.943870 0.960289
0.924435 0.943870 0.960289
0.943870 0.943870 0.960289
0.960289 0.943870 0.960289
0.000000 0.960289 0.960289
0.751288 0.960289 0.960289
0.826348 0.960289 0.960289
0.869858 0.960289 0.960289
0.900620 0.960289 0.960289
0.924435 0.960289 0.960289
0.943870 0.960289 0.960289
0.960289 0.960289 0.960289
