.nuke/nuke.LUT/linear-2-logC_exteded/AlexaV3_EI1280_Linear2LogC_EE_nuke3d.cube
# Alexa conversion LUT, lin2logc. Full in/full out.
# created by alexalutconv (2.07)
LUT_3D_SIZE 8
DOMAIN_MIN 0.000000 0.000000 0.000000
DOMAIN_MAX 0.903226 0.903226 0.903226
0.000000 0.000000 0.000000
0.772600 0.000000 0.000000
0.846654 0.000000 0.000000
0.889574 0.000000 0.000000
0.919918 0.000000 0.000000
0.943408 0.000000 0.000000
0.962578 0.000000 0.000000
0.978773 0.000000 0.000000
0.000000 0.772600 0.000000
0.772600 0.772600 0.000000
0.846654 0.772600 0.000000
0.889574 0.772600 0.000000
0.919918 0.772600 0.000000
0.943408 0.772600 0.000000
0.962578 0.772600 0.000000
0.978773 0.772600 0.000000
0.000000 0.846654 0.000000
0.772600 0.846654 0.000000
0.846654 0.846654 0.000000
0.889574 0.846654 0.000000
0.919918 0.846654 0.000000
0.943408 0.846654 0.000000
0.962578 0.846654 0.000000
0.978773 0.846654 0.000000
0.000000 0.889574 0.000000
0.772600 0.889574 0.000000
0.846654 0.889574 0.000000
0.889574 0.889574 0.000000
0.919918 0.889574 0.000000
0.943408 0.889574 0.000000
0.962578 0.889574 0.000000
0.978773 0.889574 0.000000
0.000000 0.919918 0.000000
0.772600 0.919918 0.000000
0.846654 0.919918 0.000000
0.889574 0.919918 0.000000
0.919918 0.919918 0.000000
0.943408 0.919918 0.000000
0.962578 0.919918 0.000000
0.978773 0.919918 0.000000
0.000000 0.943408 0.000000
0.772600 0.943408 0.000000
0.846654 0.943408 0.000000
0.889574 0.943408 0.000000
0.919918 0.943408 0.000000
0.943408 0.943408 0.000000
0.962578 0.943408 0.000000
0.978773 0.943408 0.000000
0.000000 0.962578 0.000000
0.772600 0.962578 0.000000
0.846654 0.962578 0.000000
0.889574 0.962578 0.000000
0.919918 0.962578 0.000000
0.943408 0.962578 0.000000
0.962578 0.962578 0.000000
0.978773 0.962578 0.000000
0.000000 0.978773 0.000000
0.772600 0.978773 0.000000
0.846654 0.978773 0.000000
0.889574 0.978773 0.000000
0.919918 0.978773 0.000000
0.943408 0.978773 0.000000
0.962578 0.978773 0.000000
0.978773 0.978773 0.000000
0.000000 0.000000 0.772600
0.772600 0.000000 0.772600
0.846654 0.000000 0.772600
0.889574 0.000000 0.772600
0.919918 0.000000 0.772600
0.943408 0.000000 0.772600
0.962578 0.000000 0.772600
0.978773 0.000000 0.772600
0.000000 0.772600 0.772600
0.772600 0.772600 0.772600
0.846654 0.772600 0.772600
0.889574 0.772600 0.772600
0.919918 0.772600 0.772600
0.943408 0.772600 0.772600
0.962578 0.772600 0.772600
0.978773 0.772600 0.772600
0.000000 0.846654 0.772600
0.772600 0.846654 0.772600
0.846654 0.846654 0.772600
0.889574 0.846654 0.772600
0.919918 0.846654 0.772600
0.943408 0.846654 0.772600
0.962578 0.846654 0.772600
0.978773 0.846654 0.772600
0.000000 0.889574 0.772600
0.772600 0.889574 0.772600
0.846654 0.889574 0.772600
0.889574 0.889574 0.772600
0.919918 0.889574 0.772600
0.943408 0.889574 0.772600
0.962578 0.889574 0.772600
0.978773 0.889574 0.772600
0.000000 0.919918 0.772600
0.772600 0.919918 0.772600
0.846654 0.919918 0.772600
0.889574 0.919918 0.772600
0.919918 0.919918 0.772600
0.943408 0.919918 0.772600
0.962578 0.919918 0.772600
0.978773 0.919918 0.772600
0.000000 0.943408 0.772600
0.772600 0.943408 0.772600
0.846654 0.943408 0.772600
0.889574 0.943408 0.772600
0.919918 0.943408 0.772600
0.943408 0.943408 0.772600
0.962578 0.943408 0.772600
0.978773 0.943408 0.772600
0.000000 0.962578 0.772600
0.772600 0.962578 0.772600
0.846654 0.962578 0.772600
0.889574 0.962578 0.772600
0.919918 0.962578 0.772600
0.943408 0.962578 0.772600
0.962578 0.962578 0.772600
0.978773 0.962578 0.772600
0.000000 0.978773 0.772600
0.772600 0.978773 0.772600
0.846654 0.978773 0.772600
0.889574 0.978773 0.772600
0.919918 0.978773 0.772600
0.943408 0.978773 0.772600
0.962578 0.978773 0.772600
0.978773 0.978773 0.772600
0.000000 0.000000 0.846654
0.772600 0.000000 0.846654
0.846654 0.000000 0.846654
0.889574 0.000000 0.846654
0.919918 0.000000 0.846654
0.943408 0.000000 0.846654
0.962578 0.000000 0.846654
0.978773 0.000000 0.846654
0.000000 0.772600 0.846654
0.772600 0.772600 0.846654
0.846654 0.772600 0.846654
0.889574 0.772600 0.846654
0.919918 0.772600 0.846654
0.943408 0.772600 0.846654
0.962578 0.772600 0.846654
0.978773 0.772600 0.846654
0.000000 0.846654 0.846654
0.772600 0.846654 0.846654
0.846654 0.846654 0.846654
0.889574 0.846654 0.846654
0.919918 0.846654 0.846654
0.943408 0.846654 0.846654
0.962578 0.846654 0.846654
0.978773 0.846654 0.846654
0.000000 0.889574 0.846654
0.772600 0.889574 0.846654
0.846654 0.889574 0.846654
0.889574 0.889574 0.846654
0.919918 0.889574 0.846654
0.943408 0.889574 0.846654
0.962578 0.889574 0.846654
0.978773 0.889574 0.846654
0.000000 0.919918 0.846654
0.772600 0.919918 0.846654
0.846654 0.919918 0.846654
0.889574 0.919918 0.846654
0.919918 0.919918 0.846654
0.943408 0.919918 0.846654
0.962578 0.919918 0.846654
0.978773 0.919918 0.846654
0.000000 0.943408 0.846654
0.772600 0.943408 0.846654
0.846654 0.943408 0.846654
0.889574 0.943408 0.846654
0.919918 0.943408 0.846654
0.943408 0.943408 0.846654
0.962578 0.943408 0.846654
0.978773 0.943408 0.846654
0.000000 0.962578 0.846654
0.772600 0.962578 0.846654
0.846654 0.962578 0.846654
0.889574 0.962578 0.846654
0.919918 0.962578 0.846654
0.943408 0.962578 0.846654
0.962578 0.962578 0.846654
0.978773 0.962578 0.846654
0.000000 0.978773 0.846654
0.772600 0.978773 0.846654
0.846654 0.978773 0.846654
0.889574 0.978773 0.846654
0.919918 0.978773 0.846654
0.943408 0.978773 0.846654
0.962578 0.978773 0.846654
0.978773 0.978773 0.846654
0.000000 0.000000 0.889574
0.772600 0.000000 0.889574
0.846654 0.000000 0.889574
0.889574 0.000000 0.889574
0.919918 0.000000 0.889574
0.943408 0.000000 0.889574
0.962578 0.000000 0.889574
0.978773 0.000000 0.889574
0.000000 0.772600 0.889574
0.772600 0.772600 0.889574
0.846654 0.772600 0.889574
0.889574 0.772600 0.889574
0.919918 0.772600 0.889574
0.943408 0.772600 0.889574
0.962578 0.772600 0.889574
0.978773 0.772600 0.889574
0.000000 0.846654 0.889574
0.772600 0.846654 0.889574
0.846654 0.846654 0.889574
0.889574 0.846654 0.889574
0.919918 0.846654 0.889574
0.943408 0.846654 0.889574
0.962578 0.846654 0.889574
0.978773 0.846654 0.889574
0.000000 0.889574 0.889574
0.772600 0.889574 0.889574
0.846654 0.889574 0.889574
0.889574 0.889574 0.889574
0.919918 0.889574 0.889574
0.943408 0.889574 0.889574
0.962578 0.889574 0.889574
0.978773 0.889574 0.889574
0.000000 0.919918 0.889574
0.772600 0.919918 0.889574
0.846654 0.919918 0.889574
0.889574 0.919918 0.889574
0.919918 0.919918 0.889574
0.943408 0.919918 0.889574
0.962578 0.919918 0.889574
0.978773 0.919918 0.889574
0.000000 0.943408 0.889574
0.772600 0.943408 0.889574
0.846654 0.943408 0.889574
0.889574 0.943408 0.889574
0.919918 0.943408 0.889574
0.943408 0.943408 0.889574
0.962578 0.943408 0.889574
0.978773 0.943408 0.889574
0.000000 0.962578 0.889574
0.772600 0.962578 0.889574
0.846654 0.962578 0.889574
0.889574 0.962578 0.889574
0.919918 0.962578 0.889574
0.943408 0.962578 0.889574
0.962578 0.962578 0.889574
0.978773 0.962578 0.889574
0.000000 0.978773 0.889574
0.772600 0.978773 0.889574
0.846654 0.978773 0.889574
0.889574 0.978773 0.889574
0.919918 0.978773 0.889574
0.943408 0.978773 0.889574
0.962578 0.978773 0.889574
0.978773 0.978773 0.889574
0.000000 0.000000 0.919918
0.772600 0.000000 0.919918
0.846654 0.000000 0.919918
0.889574 0.000000 0.919918
0.919918 0.000000 0.919918
0.943408 0.000000 0.919918
0.962578 0.000000 0.919918
0.978773 0.000000 0.919918
0.000000 0.772600 0.919918
0.772600 0.772600 0.919918
0.846654 0.772600 0.919918
0.889574 0.772600 0.919918
0.919918 0.772600 0.919918
0.943408 0.772600 0.919918
0.962578 0.772600 0.919918
0.978773 0.772600 0.919918
0.000000 0.846654 0.919918
0.772600 0.846654 0.919918
0.846654 0.846654 0.919918
0.889574 0.846654 0.919918
0.919918 0.846654 0.919918
0.943408 0.846654 0.919918
0.962578 0.846654 0.919918
0.978773 0.846654 0.919918
0.000000 0.889574 0.919918
0.772600 0.889574 0.919918
0.846654 0.889574 0.919918
0.889574 0.889574 0.919918
0.919918 0.889574 0.919918
0.943408 0.889574 0.919918
0.962578 0.889574 0.919918
0.978773 0.889574 0.919918
0.000000 0.919918 0.919918
0.772600 0.919918 0.919918
0.846654 0.919918 0.919918
0.889574 0.919918 0.919918
0.919918 0.919918 0.919918
0.943408 0.919918 0.919918
0.962578 0.919918 0.919918
0.978773 0.919918 0.919918
0.000000 0.943408 0.919918
0.772600 0.943408 0.919918
0.846654 0.943408 0.919918
0.889574 0.943408 0.919918
0.919918 0.943408 0.919918
0.943408 0.943408 0.919918
0.962578 0.943408 0.919918
0.978773 0.943408 0.919918
0.000000 0.962578 0.919918
0.772600 0.962578 0.919918
0.846654 0.962578 0.919918
0.889574 0.962578 0.919918
0.919918 0.962578 0.919918
0.943408 0.962578 0.919918
0.962578 0.962578 0.919918
0.978773 0.962578 0.919918
0.000000 0.978773 0.919918
0.772600 0.978773 0.919918
0.846654 0.978773 0.919918
0.889574 0.978773 0.919918
0.919918 0.978773 0.919918
0.943408 0.978773 0.919918
0.962578 0.978773 0.919918
0.978773 0.978773 0.919918
0.000000 0.000000 0.943408
0.772600 0.000000 0.943408
0.846654 0.000000 0.943408
0.889574 0.000000 0.943408
0.919918 0.000000 0.943408
0.943408 0.000000 0.943408
0.962578 0.000000 0.943408
0.978773 0.000000 0.943408
0.000000 0.772600 0.943408
0.772600 0.772600 0.943408
0.846654 0.772600 0.943408
0.889574 0.772600 0.943408
0.919918 0.772600 0.943408
0.943408 0.772600 0.943408
0.962578 0.772600 0.943408
0.978773 0.772600 0.943408
0.000000 0.846654 0.943408
0.772600 0.846654 0.943408
0.846654 0.846654 0.943408
0.889574 0.846654 0.943408
0.919918 0.846654 0.943408
0.943408 0.846654 0.943408
0.962578 0.846654 0.943408
0.978773 0.846654 0.943408
0.000000 0.889574 0.943408
0.772600 0.889574 0.943408
0.846654 0.889574 0.943408
0.889574 0.889574 0.943408
0.919918 0.889574 0.943408
0.943408 0.889574 0.943408
0.962578 0.889574 0.943408
0.978773 0.889574 0.943408
0.000000 0.919918 0.943408
0.772600 0.919918 0.943408
0.846654 0.919918 0.943408
0.889574 0.919918 0.943408
0.919918 0.919918 0.943408
0.943408 0.919918 0.943408
0.962578 0.919918 0.943408
0.978773 0.919918 0.943408
0.000000 0.943408 0.943408
0.772600 0.943408 0.943408
0.846654 0.943408 0.943408
0.889574 0.943408 0.943408
0.919918 0.943408 0.943408
0.943408 0.943408 0.943408
0.962578 0.943408 0.943408
0.978773 0.943408 0.943408
0.000000 0.962578 0.943408
0.772600 0.962578 0.943408
0.846654 0.962578 0.943408
0.889574 0.962578 0.943408
0.919918 0.962578 0.943408
0.943408 0.962578 0.943408
0.962578 0.962578 0.943408
0.978773 0.962578 0.943408
0.000000 0.978773 0.943408
0.772600 0.978773 0.943408
0.846654 0.978773 0.943408
0.889574 0.978773 0.943408
0.919918 0.978773 0.943408
0.943408 0.978773 0.943408
0.962578 0.978773 0.943408
0.978773 0.978773 0.943408
0.000000 0.000000 0.962578
0.772600 0.000000 0.962578
0.846654 0.000000 0.962578
0.889574 0.000000 0.962578
0.919918 0.000000 0.962578
0.943408 0.000000 0.962578
0.962578 0.000000 0.962578
0.978773 0.000000 0.962578
0.000000 0.772600 0.962578
0.772600 0.772600 0.962578
0.846654 0.772600 0.962578
0.889574 0.772600 0.962578
0.919918 0.772600 0.962578
0.943408 0.772600 0.962578
0.962578 0.772600 0.962578
0.978773 0.772600 0.962578
0.000000 0.846654 0.962578
0.772600 0.846654 0.962578
0.846654 0.846654 0.962578
0.889574 0.846654 0.962578
0.919918 0.846654 0.962578
0.943408 0.846654 0.962578
0.962578 0.846654 0.962578
0.978773 0.846654 0.962578
0.000000 0.889574 0.962578
0.772600 0.889574 0.962578
0.846654 0.889574 0.962578
0.889574 0.889574 0.962578
0.919918 0.889574 0.962578
0.943408 0.889574 0.962578
0.962578 0.889574 0.962578
0.978773 0.889574 0.962578
0.000000 0.919918 0.962578
0.772600 0.919918 0.962578
0.846654 0.919918 0.962578
0.889574 0.919918 0.962578
0.919918 0.919918 0.962578
0.943408 0.919918 0.962578
0.962578 0.919918 0.962578
0.978773 0.919918 0.962578
0.000000 0.943408 0.962578
0.772600 0.943408 0.962578
0.846654 0.943408 0.962578
0.889574 0.943408 0.962578
0.919918 0.943408 0.962578
0.943408 0.943408 0.962578
0.962578 0.943408 0.962578
0.978773 0.943408 0.962578
0.000000 0.962578 0.962578
0.772600 0.962578 0.962578
0.846654 0.962578 0.962578
0.889574 0.962578 0.962578
0.919918 0.962578 0.962578
0.943408 0.962578 0.962578
0.962578 0.962578 0.962578
0.978773 0.962578 0.962578
0.000000 0.978773 0.962578
0.772600 0.978773 0.962578
0.846654 0.978773 0.962578
0.889574 0.978773 0.962578
0.919918 0.978773 0.962578
0.943408 0.978773 0.962578
0.962578 0.978773 0.962578
0.978773 0.978773 0.962578
0.000000 0.000000 0.978773
0.772600 0.000000 0.978773
0.846654 0.000000 0.978773
0.889574 0.000000 0.978773
0.919918 0.000000 0.978773
0.943408 0.000000 0.978773
0.962578 0.000000 0.978773
0.978773 0.000000 0.978773
0.000000 0.772600 0.978773
0.772600 0.772600 0.978773
0.846654 0.772600 0.978773
0.889574 0.772600 0.978773
0.919918 0.772600 0.978773
0.943408 0.772600 0.978773
0.962578 0.772600 0.978773
0.978773 0.772600 0.978773
0.000000 0.846654 0.978773
0.772600 0.846654 0.978773
0.846654 0.846654 0.978773
0.889574 0.846654 0.978773
0.919918 0.846654 0.978773
0.943408 0.846654 0.978773
0.962578 0.846654 0.978773
0.978773 0.846654 0.978773
0.000000 0.889574 0.978773
0.772600 0.889574 0.978773
0.846654 0.889574 0.978773
0.889574 0.889574 0.978773
0.919918 0.889574 0.978773
0.943408 0.889574 0.978773
0.962578 0.889574 0.978773
0.978773 0.889574 0.978773
0.000000 0.919918 0.978773
0.772600 0.919918 0.978773
0.846654 0.919918 0.978773
0.889574 0.919918 0.978773
0.919918 0.919918 0.978773
0.943408 0.919918 0.978773
0.962578 0.919918 0.978773
0.978773 0.919918 0.978773
0.000000 0.943408 0.978773
0.772600 0.943408 0.978773
0.846654 0.943408 0.978773
0.889574 0.943408 0.978773
0.919918 0.943408 0.978773
0.943408 0.943408 0.978773
0.962578 0.943408 0.978773
0.978773 0.943408 0.978773
0.000000 0.962578 0.978773
0.772600 0.962578 0.978773
0.846654 0.962578 0.978773
0.889574 0.962578 0.978773
0.919918 0.962578 0.978773
0.943408 0.962578 0.978773
0.962578 0.962578 0.978773
0.978773 0.962578 0.978773
0.000000 0.978773 0.978773
0.772600 0.978773 0.978773
0.846654 0.978773 0.978773
0.889574 0.978773 0.978773
0.919918 0.978773 0.978773
0.943408 0.978773 0.978773
0.962578 0.978773 0.978773
0.978773 0.978773 0.978773
