.nuke/nuke.LUT/linear-2-logC_exteded/AlexaV3_EI0200_Linear2LogC_EE_nuke3d.cube
# Alexa conversion LUT, lin2logc. Full in/full out.
# created by alexalutconv (2.07)
LUT_3D_SIZE 32
0.000000 0.000000 0.000000
0.428869 0.000000 0.000000
0.513447 0.000000 0.000000
0.561751 0.000000 0.000000
0.595709 0.000000 0.000000
0.621921 0.000000 0.000000
0.643271 0.000000 0.000000
0.661284 0.000000 0.000000
0.676863 0.000000 0.000000
0.690590 0.000000 0.000000
0.702857 0.000000 0.000000
0.713945 0.000000 0.000000
0.724062 0.000000 0.000000
0.733364 0.000000 0.000000
0.741972 0.000000 0.000000
0.749983 0.000000 0.000000
0.757475 0.000000 0.000000
0.764510 0.000000 0.000000
0.771141 0.000000 0.000000
0.777412 0.000000 0.000000
0.783360 0.000000 0.000000
0.789017 0.000000 0.000000
0.794409 0.000000 0.000000
0.799561 0.000000 0.000000
0.804494 0.000000 0.000000
0.809224 0.000000 0.000000
0.813769 0.000000 0.000000
0.818141 0.000000 0.000000
0.822353 0.000000 0.000000
0.826418 0.000000 0.000000
0.830344 0.000000 0.000000
0.834141 0.000000 0.000000
0.000000 0.428869 0.000000
0.428869 0.428869 0.000000
0.513447 0.428869 0.000000
0.561751 0.428869 0.000000
0.595709 0.428869 0.000000
0.621921 0.428869 0.000000
0.643271 0.428869 0.000000
0.661284 0.428869 0.000000
0.676863 0.428869 0.000000
0.690590 0.428869 0.000000
0.702857 0.428869 0.000000
0.713945 0.428869 0.000000
0.724062 0.428869 0.000000
0.733364 0.428869 0.000000
0.741972 0.428869 0.000000
0.749983 0.428869 0.000000
0.757475 0.428869 0.000000
0.764510 0.428869 0.000000
0.771141 0.428869 0.000000
0.777412 0.428869 0.000000
0.783360 0.428869 0.000000
0.789017 0.428869 0.000000
0.794409 0.428869 0.000000
0.799561 0.428869 0.000000
0.804494 0.428869 0.000000
0.809224 0.428869 0.000000
0.813769 0.428869 0.000000
0.818141 0.428869 0.000000
0.822353 0.428869 0.000000
0.826418 0.428869 0.000000
0.830344 0.428869 0.000000
0.834141 0.428869 0.000000
0.000000 0.513447 0.000000
0.428869 0.513447 0.000000
0.513447 0.513447 0.000000
0.561751 0.513447 0.000000
0.595709 0.513447 0.000000
0.621921 0.513447 0.000000
0.643271 0.513447 0.000000
0.661284 0.513447 0.000000
0.676863 0.513447 0.000000
0.690590 0.513447 0.000000
0.702857 0.513447 0.000000
0.713945 0.513447 0.000000
0.724062 0.513447 0.000000
0.733364 0.513447 0.000000
0.741972 0.513447 0.000000
0.749983 0.513447 0.000000
0.757475 0.513447 0.000000
0.764510 0.513447 0.000000
0.771141 0.513447 0.000000
0.777412 0.513447 0.000000
0.783360 0.513447 0.000000
0.789017 0.513447 0.000000
0.794409 0.513447 0.000000
0.799561 0.513447 0.000000
0.804494 0.513447 0.000000
0.809224 0.513447 0.000000
0.813769 0.513447 0.000000
0.818141 0.513447 0.000000
0.822353 0.513447 0.000000
0.826418 0.513447 0.000000
0.830344 0.513447 0.000000
0.834141 0.513447 0.000000
0.000000 0.561751 0.000000
0.428869 0.561751 0.000000
0.513447 0.561751 0.000000
0.561751 0.561751 0.000000
0.595709 0.561751 0.000000
0.621921 0.561751 0.000000
0.643271 0.561751 0.000000
0.661284 0.561751 0.000000
0.676863 0.561751 0.000000
0.690590 0.561751 0.000000
0.702857 0.561751 0.000000
0.713945 0.561751 0.000000
0.724062 0.561751 0.000000
0.733364 0.561751 0.000000
0.741972 0.561751 0.000000
0.749983 0.561751 0.000000
0.757475 0.561751 0.000000
0.764510 0.561751 0.000000
0.771141 0.561751 0.000000
0.777412 0.561751 0.000000
0.783360 0.561751 0.000000
0.789017 0.561751 0.000000
0.794409 0.561751 0.000000
0.799561 0.561751 0.000000
0.804494 0.561751 0.000000
0.809224 0.561751 0.000000
0.813769 0.561751 0.000000
0.818141 0.561751 0.000000
0.822353 0.561751 0.000000
0.826418 0.561751 0.000000
0.830344 0.561751 0.000000
0.834141 0.561751 0.000000
0.000000 0.595709 0.000000
0.428869 0.595709 0.000000
0.513447 0.595709 0.000000
0.561751 0.595709 0.000000
0.595709 0.595709 0.000000
0.621921 0.595709 0.000000
0.643271 0.595709 0.000000
0.661284 0.595709 0.000000
0.676863 0.595709 0.000000
0.690590 0.595709 0.000000
0.702857 0.595709 0.000000
0.713945 0.595709 0.000000
0.724062 0.595709 0.000000
0.733364 0.595709 0.000000
0.741972 0.595709 0.000000
0.749983 0.595709 0.000000
0.757475 0.595709 0.000000
0.764510 0.595709 0.000000
0.771141 0.595709 0.000000
0.777412 0.595709 0.000000
0.783360 0.595709 0.000000
0.789017 0.595709 0.000000
0.794409 0.595709 0.000000
0.799561 0.595709 0.000000
0.804494 0.595709 0.000000
0.809224 0.595709 0.000000
0.813769 0.595709 0.000000
0.818141 0.595709 0.000000
0.822353 0.595709 0.000000
0.826418 0.595709 0.000000
0.830344 0.595709 0.000000
0.834141 0.595709 0.000000
0.000000 0.621921 0.000000
0.428869 0.621921 0.000000
0.513447 0.621921 0.000000
0.561751 0.621921 0.000000
0.595709 0.621921 0.000000
0.621921 0.621921 0.000000
0.643271 0.621921 0.000000
0.661284 0.621921 0.000000
0.676863 0.621921 0.000000
0.690590 0.621921 0.000000
0.702857 0.621921 0.000000
0.713945 0.621921 0.000000
0.724062 0.621921 0.000000
0.733364 0.621921 0.000000
0.741972 0.621921 0.000000
0.749983 0.621921 0.000000
0.757475 0.621921 0.000000
0.764510 0.621921 0.000000
0.771141 0.621921 0.000000
0.777412 0.621921 0.000000
0.783360 0.621921 0.000000
0.789017 0.621921 0.000000
0.794409 0.621921 0.000000
0.799561 0.621921 0.000000
0.804494 0.621921 0.000000
0.809224 0.621921 0.000000
0.813769 0.621921 0.000000
0.818141 0.621921 0.000000
0.822353 0.621921 0.000000
0.826418 0.621921 0.000000
0.830344 0.621921 0.000000
0.834141 0.621921 0.000000
0.000000 0.643271 0.000000
0.428869 0.643271 0.000000
0.513447 0.643271 0.000000
0.561751 0.643271 0.000000
0.595709 0.643271 0.000000
0.621921 0.643271 0.000000
0.643271 0.643271 0.000000
0.661284 0.643271 0.000000
0.676863 0.643271 0.000000
0.690590 0.643271 0.000000
0.702857 0.643271 0.000000
0.713945 0.643271 0.000000
0.724062 0.643271 0.000000
0.733364 0.643271 0.000000
0.741972 0.643271 0.000000
0.749983 0.643271 0.000000
0.757475 0.643271 0.000000
0.764510 0.643271 0.000000
0.771141 0.643271 0.000000
0.777412 0.643271 0.000000
0.783360 0.643271 0.000000
0.789017 0.643271 0.000000
0.794409 0.643271 0.000000
0.799561 0.643271 0.000000
0.804494 0.643271 0.000000
0.809224 0.643271 0.000000
0.813769 0.643271 0.000000
0.818141 0.643271 0.000000
0.822353 0.643271 0.000000
0.826418 0.643271 0.000000
0.830344 0.643271 0.000000
0.834141 0.643271 0.000000
0.000000 0.661284 0.000000
0.428869 0.661284 0.000000
0.513447 0.661284 0.000000
0.561751 0.661284 0.000000
0.595709 0.661284 0.000000
0.621921 0.661284 0.000000
0.643271 0.661284 0.000000
0.661284 0.661284 0.000000
0.676863 0.661284 0.000000
0.690590 0.661284 0.000000
0.702857 0.661284 0.000000
0.713945 0.661284 0.000000
0.724062 0.661284 0.000000
0.733364 0.661284 0.000000
0.741972 0.661284 0.000000
0.749983 0.661284 0.000000
0.757475 0.661284 0.000000
0.764510 0.661284 0.000000
0.771141 0.661284 0.000000
0.777412 0.661284 0.000000
0.783360 0.661284 0.000000
0.789017 0.661284 0.000000
0.794409 0.661284 0.000000
0.799561 0.661284 0.000000
0.804494 0.661284 0.000000
0.809224 0.661284 0.000000
0.813769 0.661284 0.000000
0.818141 0.661284 0.000000
0.822353 0.661284 0.000000
0.826418 0.661284 0.000000
0.830344 0.661284 0.000000
0.834141 0.661284 0.000000
0.000000 0.676863 0.000000
0.428869 0.676863 0.000000
0.513447 0.676863 0.000000
0.561751 0.676863 0.000000
0.595709 0.676863 0.000000
0.621921 0.676863 0.000000
0.643271 0.676863 0.000000
0.661284 0.676863 0.000000
0.676863 0.676863 0.000000
0.690590 0.676863 0.000000
0.702857 0.676863 0.000000
0.713945 0.676863 0.000000
0.724062 0.676863 0.000000
0.733364 0.676863 0.000000
0.741972 0.676863 0.000000
0.749983 0.676863 0.000000
0.757475 0.676863 0.000000
0.764510 0.676863 0.000000
0.771141 0.676863 0.000000
0.777412 0.676863 0.000000
0.783360 0.676863 0.000000
0.789017 0.676863 0.000000
0.794409 0.676863 0.000000
0.799561 0.676863 0.000000
0.804494 0.676863 0.000000
0.809224 0.676863 0.000000
0.813769 0.676863 0.000000
0.818141 0.676863 0.000000
0.822353 0.676863 0.000000
0.826418 0.676863 0.000000
0.830344 0.676863 0.000000
0.834141 0.676863 0.000000
0.000000 0.690590 0.000000
0.428869 0.690590 0.000000
0.513447 0.690590 0.000000
0.561751 0.690590 0.000000
0.595709 0.690590 0.000000
0.621921 0.690590 0.000000
0.643271 0.690590 0.000000
0.661284 0.690590 0.000000
0.676863 0.690590 0.000000
0.690590 0.690590 0.000000
0.702857 0.690590 0.000000
0.713945 0.690590 0.000000
0.724062 0.690590 0.000000
0.733364 0.690590 0.000000
0.741972 0.690590 0.000000
0.749983 0.690590 0.000000
0.757475 0.690590 0.000000
0.764510 0.690590 0.000000
0.771141 0.690590 0.000000
0.777412 0.690590 0.000000
0.783360 0.690590 0.000000
0.789017 0.690590 0.000000
0.794409 0.690590 0.000000
0.799561 0.690590 0.000000
0.804494 0.690590 0.000000
0.809224 0.690590 0.000000
0.813769 0.690590 0.000000
0.818141 0.690590 0.000000
0.822353 0.690590 0.000000
0.826418 0.690590 0.000000
0.830344 0.690590 0.000000
0.834141 0.690590 0.000000
0.000000 0.702857 0.000000
0.428869 0.702857 0.000000
0.513447 0.702857 0.000000
0.561751 0.702857 0.000000
0.595709 0.702857 0.000000
0.621921 0.702857 0.000000
0.643271 0.702857 0.000000
0.661284 0.702857 0.000000
0.676863 0.702857 0.000000
0.690590 0.702857 0.000000
0.702857 0.702857 0.000000
0.713945 0.702857 0.000000
0.724062 0.702857 0.000000
0.733364 0.702857 0.000000
0.741972 0.702857 0.000000
0.749983 0.702857 0.000000
0.757475 0.702857 0.000000
0.764510 0.702857 0.000000
0.771141 0.702857 0.000000
0.777412 0.702857 0.000000
0.783360 0.702857 0.000000
0.789017 0.702857 0.000000
0.794409 0.702857 0.000000
0.799561 0.702857 0.000000
0.804494 0.702857 0.000000
0.809224 0.702857 0.000000
0.813769 0.702857 0.000000
0.818141 0.702857 0.000000
0.822353 0.702857 0.000000
0.826418 0.702857 0.000000
0.830344 0.702857 0.000000
0.834141 0.702857 0.000000
0.000000 0.713945 0.000000
0.428869 0.713945 0.000000
0.513447 0.713945 0.000000
0.561751 0.713945 0.000000
0.595709 0.713945 0.000000
0.621921 0.713945 0.000000
0.643271 0.713945 0.000000
0.661284 0.713945 0.000000
0.676863 0.713945 0.000000
0.690590 0.713945 0.000000
0.702857 0.713945 0.000000
0.713945 0.713945 0.000000
0.724062 0.713945 0.000000
0.733364 0.713945 0.000000
0.741972 0.713945 0.000000
0.749983 0.713945 0.000000
0.757475 0.713945 0.000000
0.764510 0.713945 0.000000
0.771141 0.713945 0.000000
0.777412 0.713945 0.000000
0.783360 0.713945 0.000000
0.789017 0.713945 0.000000
0.794409 0.713945 0.000000
0.799561 0.713945 0.000000
0.804494 0.713945 0.000000
0.809224 0.713945 0.000000
0.813769 0.713945 0.000000
0.818141 0.713945 0.000000
0.822353 0.713945 0.000000
0.826418 0.713945 0.000000
0.830344 0.713945 0.000000
0.834141 0.713945 0.000000
0.000000 0.724062 0.000000
0.428869 0.724062 0.000000
0.513447 0.724062 0.000000
0.561751 0.724062 0.000000
0.595709 0.724062 0.000000
0.621921 0.724062 0.000000
0.643271 0.724062 0.000000
0.661284 0.724062 0.000000
0.676863 0.724062 0.000000
0.690590 0.724062 0.000000
0.702857 0.724062 0.000000
0.713945 0.724062 0.000000
0.724062 0.724062 0.000000
0.733364 0.724062 0.000000
0.741972 0.724062 0.000000
0.749983 0.724062 0.000000
0.757475 0.724062 0.000000
0.764510 0.724062 0.000000
0.771141 0.724062 0.000000
0.777412 0.724062 0.000000
0.783360 0.724062 0.000000
0.789017 0.724062 0.000000
0.794409 0.724062 0.000000
0.799561 0.724062 0.000000
0.804494 0.724062 0.000000
0.809224 0.724062 0.000000
0.813769 0.724062 0.000000
0.818141 0.724062 0.000000
0.822353 0.724062 0.000000
0.826418 0.724062 0.000000
0.830344 0.724062 0.000000
0.834141 0.724062 0.000000
0.000000 0.733364 0.000000
0.428869 0.733364 0.000000
0.513447 0.733364 0.000000
0.561751 0.733364 0.000000
0.595709 0.733364 0.000000
0.621921 0.733364 0.000000
0.643271 0.733364 0.000000
0.661284 0.733364 0.000000
0.676863 0.733364 0.000000
0.690590 0.733364 0.000000
0.702857 0.733364 0.000000
0.713945 0.733364 0.000000
0.724062 0.733364 0.000000
0.733364 0.733364 0.000000
0.741972 0.733364 0.000000
0.749983 0.733364 0.000000
0.757475 0.733364 0.000000
0.764510 0.733364 0.000000
0.771141 0.733364 0.000000
0.777412 0.733364 0.000000
0.783360 0.733364 0.000000
0.789017 0.733364 0.000000
0.794409 0.733364 0.000000
0.799561 0.733364 0.000000
0.804494 0.733364 0.000000
0.809224 0.733364 0.000000
0.813769 0.733364 0.000000
0.818141 0.733364 0.000000
0.822353 0.733364 0.000000
0.826418 0.733364 0.000000
0.830344 0.733364 0.000000
0.834141 0.733364 0.000000
0.000000 0.741972 0.000000
0.428869 0.741972 0.000000
0.513447 0.741972 0.000000
0.561751 0.741972 0.000000
0.595709 0.741972 0.000000
0.621921 0.741972 0.000000
0.643271 0.741972 0.000000
0.661284 0.741972 0.000000
0.676863 0.741972 0.000000
0.690590 0.741972 0.000000
0.702857 0.741972 0.000000
0.713945 0.741972 0.000000
0.724062 0.741972 0.000000
0.733364 0.741972 0.000000
0.741972 0.741972 0.000000
0.749983 0.741972 0.000000
0.757475 0.741972 0.000000
0.764510 0.741972 0.000000
0.771141 0.741972 0.000000
0.777412 0.741972 0.000000
0.783360 0.741972 0.000000
0.789017 0.741972 0.000000
0.794409 0.741972 0.000000
0.799561 0.741972 0.000000
0.804494 0.741972 0.000000
0.809224 0.741972 0.000000
0.813769 0.741972 0.000000
0.818141 0.741972 0.000000
0.822353 0.741972 0.000000
0.826418 0.741972 0.000000
0.830344 0.741972 0.000000
0.834141 0.741972 0.000000
0.000000 0.749983 0.000000
0.428869 0.749983 0.000000
0.513447 0.749983 0.000000
0.561751 0.749983 0.000000
0.595709 0.749983 0.000000
0.621921 0.749983 0.000000
0.643271 0.749983 0.000000
0.661284 0.749983 0.000000
0.676863 0.749983 0.000000
0.690590 0.749983 0.000000
0.702857 0.749983 0.000000
0.713945 0.749983 0.000000
0.724062 0.749983 0.000000
0.733364 0.749983 0.000000
0.741972 0.749983 0.000000
0.749983 0.749983 0.000000
0.757475 0.749983 0.000000
0.764510 0.749983 0.000000
0.771141 0.749983 0.000000
0.777412 0.749983 0.000000
0.783360 0.749983 0.000000
0.789017 0.749983 0.000000
0.794409 0.749983 0.000000
0.799561 0.749983 0.000000
0.804494 0.749983 0.000000
0.809224 0.749983 0.000000
0.813769 0.749983 0.000000
0.818141 0.749983 0.000000
0.822353 0.749983 0.000000
0.826418 0.749983 0.000000
0.830344 0.749983 0.000000
0.834141 0.749983 0.000000
0.000000 0.757475 0.000000
0.428869 0.757475 0.000000
0.513447 0.757475 0.000000
0.561751 0.757475 0.000000
0.595709 0.757475 0.000000
0.621921 0.757475 0.000000
0.643271 0.757475 0.000000
0.661284 0.757475 0.000000
0.676863 0.757475 0.000000
0.690590 0.757475 0.000000
0.702857 0.757475 0.000000
0.713945 0.757475 0.000000
0.724062 0.757475 0.000000
0.733364 0.757475 0.000000
0.741972 0.757475 0.000000
0.749983 0.757475 0.000000
0.757475 0.757475 0.000000
0.764510 0.757475 0.000000
0.771141 0.757475 0.000000
0.777412 0.757475 0.000000
0.783360 0.757475 0.000000
0.789017 0.757475 0.000000
0.794409 0.757475 0.000000
0.799561 0.757475 0.000000
0.804494 0.757475 0.000000
0.809224 0.757475 0.000000
0.813769 0.757475 0.000000
0.818141 0.757475 0.000000
0.822353 0.757475 0.000000
0.826418 0.757475 0.000000
0.830344 0.757475 0.000000
0.834141 0.757475 0.000000
0.000000 0.764510 0.000000
0.428869 0.764510 0.000000
0.513447 0.764510 0.000000
0.561751 0.764510 0.000000
0.595709 0.764510 0.000000
0.621921 0.764510 0.000000
0.643271 0.764510 0.000000
0.661284 0.764510 0.000000
0.676863 0.764510 0.000000
0.690590 0.764510 0.000000
0.702857 0.764510 0.000000
0.713945 0.764510 0.000000
0.724062 0.764510 0.000000
0.733364 0.764510 0.000000
0.741972 0.764510 0.000000
0.749983 0.764510 0.000000
0.757475 0.764510 0.000000
0.764510 0.764510 0.000000
0.771141 0.764510 0.000000
0.777412 0.764510 0.000000
0.783360 0.764510 0.000000
0.789017 0.764510 0.000000
0.794409 0.764510 0.000000
0.799561 0.764510 0.000000
0.804494 0.764510 0.000000
0.809224 0.764510 0.000000
0.813769 0.764510 0.000000
0.818141 0.764510 0.000000
0.822353 0.764510 0.000000
0.826418 0.764510 0.000000
0.830344 0.764510 0.000000
0.834141 0.764510 0.000000
0.000000 0.771141 0.000000
0.428869 0.771141 0.000000
0.513447 0.771141 0.000000
0.561751 0.771141 0.000000
0.595709 0.771141 0.000000
0.621921 0.771141 0.000000
0.643271 0.771141 0.000000
0.661284 0.771141 0.000000
0.676863 0.771141 0.000000
0.690590 0.771141 0.000000
0.702857 0.771141 0.000000
0.713945 0.771141 0.000000
0.724062 0.771141 0.000000
0.733364 0.771141 0.000000
0.741972 0.771141 0.000000
0.749983 0.771141 0.000000
0.757475 0.771141 0.000000
0.764510 0.771141 0.000000
0.771141 0.771141 0.000000
0.777412 0.771141 0.000000
0.783360 0.771141 0.000000
0.789017 0.771141 0.000000
0.794409 0.771141 0.000000
0.799561 0.771141 0.000000
0.804494 0.771141 0.000000
0.809224 0.771141 0.000000
0.813769 0.771141 0.000000
0.818141 0.771141 0.000000
0.822353 0.771141 0.000000
0.826418 0.771141 0.000000
0.830344 0.771141 0.000000
0.834141 0.771141 0.000000
0.000000 0.777412 0.000000
0.428869 0.777412 0.000000
0.513447 0.777412 0.000000
0.561751 0.777412 0.000000
0.595709 0.777412 0.000000
0.621921 0.777412 0.000000
0.643271 0.777412 0.000000
0.661284 0.777412 0.000000
0.676863 0.777412 0.000000
0.690590 0.777412 0.000000
0.702857 0.777412 0.000000
0.713945 0.777412 0.000000
0.724062 0.777412 0.000000
0.733364 0.777412 0.000000
0.741972 0.777412 0.000000
0.749983 0.777412 0.000000
0.757475 0.777412 0.000000
0.764510 0.777412 0.000000
0.771141 0.777412 0.000000
0.777412 0.777412 0.000000
0.783360 0.777412 0.000000
0.789017 0.777412 0.000000
0.794409 0.777412 0.000000
0.799561 0.777412 0.000000
0.804494 0.777412 0.000000
0.809224 0.777412 0.000000
0.813769 0.777412 0.000000
0.818141 0.777412 0.000000
0.822353 0.777412 0.000000
0.826418 0.777412 0.000000
0.830344 0.777412 0.000000
0.834141 0.777412 0.000000
0.000000 0.783360 0.000000
0.428869 0.783360 0.000000
0.513447 0.783360 0.000000
0.561751 0.783360 0.000000
0.595709 0.783360 0.000000
0.621921 0.783360 0.000000
0.643271 0.783360 0.000000
0.661284 0.783360 0.000000
0.676863 0.783360 0.000000
0.690590 0.783360 0.000000
0.702857 0.783360 0.000000
0.713945 0.783360 0.000000
0.724062 0.783360 0.000000
0.733364 0.783360 0.000000
0.741972 0.783360 0.000000
0.749983 0.783360 0.000000
0.757475 0.783360 0.000000
0.764510 0.783360 0.000000
0.771141 0.783360 0.000000
0.777412 0.783360 0.000000
0.783360 0.783360 0.000000
0.789017 0.783360 0.000000
0.794409 0.783360 0.000000
0.799561 0.783360 0.000000
0.804494 0.783360 0.000000
0.809224 0.783360 0.000000
0.813769 0.783360 0.000000
0.818141 0.783360 0.000000
0.822353 0.783360 0.000000
0.826418 0.783360 0.000000
0.830344 0.783360 0.000000
0.834141 0.783360 0.000000
0.000000 0.789017 0.000000
0.428869 0.789017 0.000000
0.513447 0.789017 0.000000
0.561751 0.789017 0.000000
0.595709 0.789017 0.000000
0.621921 0.789017 0.000000
0.643271 0.789017 0.000000
0.661284 0.789017 0.000000
0.676863 0.789017 0.000000
0.690590 0.789017 0.000000
0.702857 0.789017 0.000000
0.713945 0.789017 0.000000
0.724062 0.789017 0.000000
0.733364 0.789017 0.000000
0.741972 0.789017 0.000000
0.749983 0.789017 0.000000
0.757475 0.789017 0.000000
0.764510 0.789017 0.000000
0.771141 0.789017 0.000000
0.777412 0.789017 0.000000
0.783360 0.789017 0.000000
0.789017 0.789017 0.000000
0.794409 0.789017 0.000000
0.799561 0.789017 0.000000
0.804494 0.789017 0.000000
0.809224 0.789017 0.000000
0.813769 0.789017 0.000000
0.818141 0.789017 0.000000
0.822353 0.789017 0.000000
0.826418 0.789017 0.000000
0.830344 0.789017 0.000000
0.834141 0.789017 0.000000
0.000000 0.794409 0.000000
0.428869 0.794409 0.000000
0.513447 0.794409 0.000000
0.561751 0.794409 0.000000
0.595709 0.794409 0.000000
0.621921 0.794409 0.000000
0.643271 0.794409 0.000000
0.661284 0.794409 0.000000
0.676863 0.794409 0.000000
0.690590 0.794409 0.000000
0.702857 0.794409 0.000000
0.713945 0.794409 0.000000
0.724062 0.794409 0.000000
0.733364 0.794409 0.000000
0.741972 0.794409 0.000000
0.749983 0.794409 0.000000
0.757475 0.794409 0.000000
0.764510 0.794409 0.000000
0.771141 0.794409 0.000000
0.777412 0.794409 0.000000
0.783360 0.794409 0.000000
0.789017 0.794409 0.000000
0.794409 0.794409 0.000000
0.799561 0.794409 0.000000
0.804494 0.794409 0.000000
0.809224 0.794409 0.000000
0.813769 0.794409 0.000000
0.818141 0.794409 0.000000
0.822353 0.794409 0.000000
0.826418 0.794409 0.000000
0.830344 0.794409 0.000000
0.834141 0.794409 0.000000
0.000000 0.799561 0.000000
0.428869 0.799561 0.000000
0.513447 0.799561 0.000000
0.561751 0.799561 0.000000
0.595709 0.799561 0.000000
0.621921 0.799561 0.000000
0.643271 0.799561 0.000000
0.661284 0.799561 0.000000
0.676863 0.799561 0.000000
0.690590 0.799561 0.000000
0.702857 0.799561 0.000000
0.713945 0.799561 0.000000
0.724062 0.799561 0.000000
0.733364 0.799561 0.000000
0.741972 0.799561 0.000000
0.749983 0.799561 0.000000
0.757475 0.799561 0.000000
0.764510 0.799561 0.000000
0.771141 0.799561 0.000000
0.777412 0.799561 0.000000
0.783360 0.799561 0.000000
0.789017 0.799561 0.000000
0.794409 0.799561 0.000000
0.799561 0.799561 0.000000
0.804494 0.799561 0.000000
0.809224 0.799561 0.000000
0.813769 0.799561 0.000000
0.818141 0.799561 0.000000
0.822353 0.799561 0.000000
0.826418 0.799561 0.000000
0.830344 0.799561 0.000000
0.834141 0.799561 0.000000
0.000000 0.804494 0.000000
0.428869 0.804494 0.000000
0.513447 0.804494 0.000000
0.561751 0.804494 0.000000
0.595709 0.804494 0.000000
0.621921 0.804494 0.000000
0.643271 0.804494 0.000000
0.661284 0.804494 0.000000
0.676863 0.804494 0.000000
0.690590 0.804494 0.000000
0.702857 0.804494 0.000000
0.713945 0.804494 0.000000
0.724062 0.804494 0.000000
0.733364 0.804494 0.000000
0.741972 0.804494 0.000000
0.749983 0.804494 0.000000
0.757475 0.804494 0.000000
0.764510 0.804494 0.000000
0.771141 0.804494 0.000000
0.777412 0.804494 0.000000
0.783360 0.804494 0.000000
0.789017 0.804494 0.000000
0.794409 0.804494 0.000000
0.799561 0.804494 0.000000
0.804494 0.804494 0.000000
0.809224 0.804494 0.000000
0.813769 0.804494 0.000000
0.818141 0.804494 0.000000
0.822353 0.804494 0.000000
0.826418 0.804494 0.000000
0.830344 0.804494 0.000000
0.834141 0.804494 0.000000
0.000000 0.809224 0.000000
0.428869 0.809224 0.000000
0.513447 0.809224 0.000000
0.561751 0.809224 0.000000
0.595709 0.809224 0.000000
0.621921 0.809224 0.000000
0.643271 0.809224 0.000000
0.661284 0.809224 0.000000
0.676863 0.809224 0.000000
0.690590 0.809224 0.000000
0.702857 0.809224 0.000000
0.713945 0.809224 0.000000
0.724062 0.809224 0.000000
0.733364 0.809224 0.000000
0.741972 0.809224 0.000000
0.749983 0.809224 0.000000
0.757475 0.809224 0.000000
0.764510 0.809224 0.000000
0.771141 0.809224 0.000000
0.777412 0.809224 0.000000
0.783360 0.809224 0.000000
0.789017 0.809224 0.000000
0.794409 0.809224 0.000000
0.799561 0.809224 0.000000
0.804494 0.809224 0.000000
0.809224 0.809224 0.000000
0.813769 0.809224 0.000000
0.818141 0.809224 0.000000
0.822353 0.809224 0.000000
0.826418 0.809224 0.000000
0.830344 0.809224 0.000000
0.834141 0.809224 0.000000
0.000000 0.813769 0.000000
0.428869 0.813769 0.000000
0.513447 0.813769 0.000000
0.561751 0.813769 0.000000
0.595709 0.813769 0.000000
0.621921 0.813769 0.000000
0.643271 0.813769 0.000000
0.661284 0.813769 0.000000
0.676863 0.813769 0.000000
0.690590 0.813769 0.000000
0.702857 0.813769 0.000000
0.713945 0.813769 0.000000
0.724062 0.813769 0.000000
0.733364 0.813769 0.000000
0.741972 0.813769 0.000000
0.749983 0.813769 0.000000
0.757475 0.813769 0.000000
0.764510 0.813769 0.000000
0.771141 0.813769 0.000000
0.777412 0.813769 0.000000
0.783360 0.813769 0.000000
0.789017 0.813769 0.000000
0.794409 0.813769 0.000000
0.799561 0.813769 0.000000
0.804494 0.813769 0.000000
0.809224 0.813769 0.000000
0.813769 0.813769 0.000000
0.818141 0.813769 0.000000
0.822353 0.813769 0.000000
0.826418 0.813769 0.000000
0.830344 0.813769 0.000000
0.834141 0.813769 0.000000
0.000000 0.818141 0.000000
0.428869 0.818141 0.000000
0.513447 0.818141 0.000000
0.561751 0.818141 0.000000
0.595709 0.818141 0.000000
0.621921 0.818141 0.000000
0.643271 0.818141 0.000000
0.661284 0.818141 0.000000
0.676863 0.818141 0.000000
0.690590 0.818141 0.000000
0.702857 0.818141 0.000000
0.713945 0.818141 0.000000
0.724062 0.818141 0.000000
0.733364 0.818141 0.000000
0.741972 0.818141 0.000000
0.749983 0.818141 0.000000
0.757475 0.818141 0.000000
0.764510 0.818141 0.000000
0.771141 0.818141 0.000000
0.777412 0.818141 0.000000
0.783360 0.818141 0.000000
