.nuke/nuke.LUT/linear-2-logC_exteded/AlexaV3_EI0250_Linear2LogC_EE_nuke3d.cube
# Alexa conversion LUT, lin2logc. Full in/full out.
# created by alexalutconv (2.07)
LUT_3D_SIZE 32
0.000000 0.000000 0.000000
0.452909 0.000000 0.000000
0.537255 0.000000 0.000000
0.585240 0.000000 0.000000
0.618925 0.000000 0.000000
0.644905 0.000000 0.000000
0.666056 0.000000 0.000000
0.683896 0.000000 0.000000
0.699322 0.000000 0.000000
0.712910 0.000000 0.000000
0.725052 0.000000 0.000000
0.736026 0.000000 0.000000
0.746037 0.000000 0.000000
0.755242 0.000000 0.000000
0.763759 0.000000 0.000000
0.771685 0.000000 0.000000
0.779097 0.000000 0.000000
0.786057 0.000000 0.000000
0.792617 0.000000 0.000000
0.798820 0.000000 0.000000
0.804704 0.000000 0.000000
0.810299 0.000000 0.000000
0.815633 0.000000 0.000000
0.820729 0.000000 0.000000
0.825608 0.000000 0.000000
0.830287 0.000000 0.000000
0.834781 0.000000 0.000000
0.839105 0.000000 0.000000
0.843272 0.000000 0.000000
0.847291 0.000000 0.000000
0.851174 0.000000 0.000000
0.854930 0.000000 0.000000
0.000000 0.452909 0.000000
0.452909 0.452909 0.000000
0.537255 0.452909 0.000000
0.585240 0.452909 0.000000
0.618925 0.452909 0.000000
0.644905 0.452909 0.000000
0.666056 0.452909 0.000000
0.683896 0.452909 0.000000
0.699322 0.452909 0.000000
0.712910 0.452909 0.000000
0.725052 0.452909 0.000000
0.736026 0.452909 0.000000
0.746037 0.452909 0.000000
0.755242 0.452909 0.000000
0.763759 0.452909 0.000000
0.771685 0.452909 0.000000
0.779097 0.452909 0.000000
0.786057 0.452909 0.000000
0.792617 0.452909 0.000000
0.798820 0.452909 0.000000
0.804704 0.452909 0.000000
0.810299 0.452909 0.000000
0.815633 0.452909 0.000000
0.820729 0.452909 0.000000
0.825608 0.452909 0.000000
0.830287 0.452909 0.000000
0.834781 0.452909 0.000000
0.839105 0.452909 0.000000
0.843272 0.452909 0.000000
0.847291 0.452909 0.000000
0.851174 0.452909 0.000000
0.854930 0.452909 0.000000
0.000000 0.537255 0.000000
0.452909 0.537255 0.000000
0.537255 0.537255 0.000000
0.585240 0.537255 0.000000
0.618925 0.537255 0.000000
0.644905 0.537255 0.000000
0.666056 0.537255 0.000000
0.683896 0.537255 0.000000
0.699322 0.537255 0.000000
0.712910 0.537255 0.000000
0.725052 0.537255 0.000000
0.736026 0.537255 0.000000
0.746037 0.537255 0.000000
0.755242 0.537255 0.000000
0.763759 0.537255 0.000000
0.771685 0.537255 0.000000
0.779097 0.537255 0.000000
0.786057 0.537255 0.000000
0.792617 0.537255 0.000000
0.798820 0.537255 0.000000
0.804704 0.537255 0.000000
0.810299 0.537255 0.000000
0.815633 0.537255 0.000000
0.820729 0.537255 0.000000
0.825608 0.537255 0.000000
0.830287 0.537255 0.000000
0.834781 0.537255 0.000000
0.839105 0.537255 0.000000
0.843272 0.537255 0.000000
0.847291 0.537255 0.000000
0.851174 0.537255 0.000000
0.854930 0.537255 0.000000
0.000000 0.585240 0.000000
0.452909 0.585240 0.000000
0.537255 0.585240 0.000000
0.585240 0.585240 0.000000
0.618925 0.585240 0.000000
0.644905 0.585240 0.000000
0.666056 0.585240 0.000000
0.683896 0.585240 0.000000
0.699322 0.585240 0.000000
0.712910 0.585240 0.000000
0.725052 0.585240 0.000000
0.736026 0.585240 0.000000
0.746037 0.585240 0.000000
0.755242 0.585240 0.000000
0.763759 0.585240 0.000000
0.771685 0.585240 0.000000
0.779097 0.585240 0.000000
0.786057 0.585240 0.000000
0.792617 0.585240 0.000000
0.798820 0.585240 0.000000
0.804704 0.585240 0.000000
0.810299 0.585240 0.000000
0.815633 0.585240 0.000000
0.820729 0.585240 0.000000
0.825608 0.585240 0.000000
0.830287 0.585240 0.000000
0.834781 0.585240 0.000000
0.839105 0.585240 0.000000
0.843272 0.585240 0.000000
0.847291 0.585240 0.000000
0.851174 0.585240 0.000000
0.854930 0.585240 0.000000
0.000000 0.618925 0.000000
0.452909 0.618925 0.000000
0.537255 0.618925 0.000000
0.585240 0.618925 0.000000
0.618925 0.618925 0.000000
0.644905 0.618925 0.000000
0.666056 0.618925 0.000000
0.683896 0.618925 0.000000
0.699322 0.618925 0.000000
0.712910 0.618925 0.000000
0.725052 0.618925 0.000000
0.736026 0.618925 0.000000
0.746037 0.618925 0.000000
0.755242 0.618925 0.000000
0.763759 0.618925 0.000000
0.771685 0.618925 0.000000
0.779097 0.618925 0.000000
0.786057 0.618925 0.000000
0.792617 0.618925 0.000000
0.798820 0.618925 0.000000
0.804704 0.618925 0.000000
0.810299 0.618925 0.000000
0.815633 0.618925 0.000000
0.820729 0.618925 0.000000
0.825608 0.618925 0.000000
0.830287 0.618925 0.000000
0.834781 0.618925 0.000000
0.839105 0.618925 0.000000
0.843272 0.618925 0.000000
0.847291 0.618925 0.000000
0.851174 0.618925 0.000000
0.854930 0.618925 0.000000
0.000000 0.644905 0.000000
0.452909 0.644905 0.000000
0.537255 0.644905 0.000000
0.585240 0.644905 0.000000
0.618925 0.644905 0.000000
0.644905 0.644905 0.000000
0.666056 0.644905 0.000000
0.683896 0.644905 0.000000
0.699322 0.644905 0.000000
0.712910 0.644905 0.000000
0.725052 0.644905 0.000000
0.736026 0.644905 0.000000
0.746037 0.644905 0.000000
0.755242 0.644905 0.000000
0.763759 0.644905 0.000000
0.771685 0.644905 0.000000
0.779097 0.644905 0.000000
0.786057 0.644905 0.000000
0.792617 0.644905 0.000000
0.798820 0.644905 0.000000
0.804704 0.644905 0.000000
0.810299 0.644905 0.000000
0.815633 0.644905 0.000000
0.820729 0.644905 0.000000
0.825608 0.644905 0.000000
0.830287 0.644905 0.000000
0.834781 0.644905 0.000000
0.839105 0.644905 0.000000
0.843272 0.644905 0.000000
0.847291 0.644905 0.000000
0.851174 0.644905 0.000000
0.854930 0.644905 0.000000
0.000000 0.666056 0.000000
0.452909 0.666056 0.000000
0.537255 0.666056 0.000000
0.585240 0.666056 0.000000
0.618925 0.666056 0.000000
0.644905 0.666056 0.000000
0.666056 0.666056 0.000000
0.683896 0.666056 0.000000
0.699322 0.666056 0.000000
0.712910 0.666056 0.000000
0.725052 0.666056 0.000000
0.736026 0.666056 0.000000
0.746037 0.666056 0.000000
0.755242 0.666056 0.000000
0.763759 0.666056 0.000000
0.771685 0.666056 0.000000
0.779097 0.666056 0.000000
0.786057 0.666056 0.000000
0.792617 0.666056 0.000000
0.798820 0.666056 0.000000
0.804704 0.666056 0.000000
0.810299 0.666056 0.000000
0.815633 0.666056 0.000000
0.820729 0.666056 0.000000
0.825608 0.666056 0.000000
0.830287 0.666056 0.000000
0.834781 0.666056 0.000000
0.839105 0.666056 0.000000
0.843272 0.666056 0.000000
0.847291 0.666056 0.000000
0.851174 0.666056 0.000000
0.854930 0.666056 0.000000
0.000000 0.683896 0.000000
0.452909 0.683896 0.000000
0.537255 0.683896 0.000000
0.585240 0.683896 0.000000
0.618925 0.683896 0.000000
0.644905 0.683896 0.000000
0.666056 0.683896 0.000000
0.683896 0.683896 0.000000
0.699322 0.683896 0.000000
0.712910 0.683896 0.000000
0.725052 0.683896 0.000000
0.736026 0.683896 0.000000
0.746037 0.683896 0.000000
0.755242 0.683896 0.000000
0.763759 0.683896 0.000000
0.771685 0.683896 0.000000
0.779097 0.683896 0.000000
0.786057 0.683896 0.000000
0.792617 0.683896 0.000000
0.798820 0.683896 0.000000
0.804704 0.683896 0.000000
0.810299 0.683896 0.000000
0.815633 0.683896 0.000000
0.820729 0.683896 0.000000
0.825608 0.683896 0.000000
0.830287 0.683896 0.000000
0.834781 0.683896 0.000000
0.839105 0.683896 0.000000
0.843272 0.683896 0.000000
0.847291 0.683896 0.000000
0.851174 0.683896 0.000000
0.854930 0.683896 0.000000
0.000000 0.699322 0.000000
0.452909 0.699322 0.000000
0.537255 0.699322 0.000000
0.585240 0.699322 0.000000
0.618925 0.699322 0.000000
0.644905 0.699322 0.000000
0.666056 0.699322 0.000000
0.683896 0.699322 0.000000
0.699322 0.699322 0.000000
0.712910 0.699322 0.000000
0.725052 0.699322 0.000000
0.736026 0.699322 0.000000
0.746037 0.699322 0.000000
0.755242 0.699322 0.000000
0.763759 0.699322 0.000000
0.771685 0.699322 0.000000
0.779097 0.699322 0.000000
0.786057 0.699322 0.000000
0.792617 0.699322 0.000000
0.798820 0.699322 0.000000
0.804704 0.699322 0.000000
0.810299 0.699322 0.000000
0.815633 0.699322 0.000000
0.820729 0.699322 0.000000
0.825608 0.699322 0.000000
0.830287 0.699322 0.000000
0.834781 0.699322 0.000000
0.839105 0.699322 0.000000
0.843272 0.699322 0.000000
0.847291 0.699322 0.000000
0.851174 0.699322 0.000000
0.854930 0.699322 0.000000
0.000000 0.712910 0.000000
0.452909 0.712910 0.000000
0.537255 0.712910 0.000000
0.585240 0.712910 0.000000
0.618925 0.712910 0.000000
0.644905 0.712910 0.000000
0.666056 0.712910 0.000000
0.683896 0.712910 0.000000
0.699322 0.712910 0.000000
0.712910 0.712910 0.000000
0.725052 0.712910 0.000000
0.736026 0.712910 0.000000
0.746037 0.712910 0.000000
0.755242 0.712910 0.000000
0.763759 0.712910 0.000000
0.771685 0.712910 0.000000
0.779097 0.712910 0.000000
0.786057 0.712910 0.000000
0.792617 0.712910 0.000000
0.798820 0.712910 0.000000
0.804704 0.712910 0.000000
0.810299 0.712910 0.000000
0.815633 0.712910 0.000000
0.820729 0.712910 0.000000
0.825608 0.712910 0.000000
0.830287 0.712910 0.000000
0.834781 0.712910 0.000000
0.839105 0.712910 0.000000
0.843272 0.712910 0.000000
0.847291 0.712910 0.000000
0.851174 0.712910 0.000000
0.854930 0.712910 0.000000
0.000000 0.725052 0.000000
0.452909 0.725052 0.000000
0.537255 0.725052 0.000000
0.585240 0.725052 0.000000
0.618925 0.725052 0.000000
0.644905 0.725052 0.000000
0.666056 0.725052 0.000000
0.683896 0.725052 0.000000
0.699322 0.725052 0.000000
0.712910 0.725052 0.000000
0.725052 0.725052 0.000000
0.736026 0.725052 0.000000
0.746037 0.725052 0.000000
0.755242 0.725052 0.000000
0.763759 0.725052 0.000000
0.771685 0.725052 0.000000
0.779097 0.725052 0.000000
0.786057 0.725052 0.000000
0.792617 0.725052 0.000000
0.798820 0.725052 0.000000
0.804704 0.725052 0.000000
0.810299 0.725052 0.000000
0.815633 0.725052 0.000000
0.820729 0.725052 0.000000
0.825608 0.725052 0.000000
0.830287 0.725052 0.000000
0.834781 0.725052 0.000000
0.839105 0.725052 0.000000
0.843272 0.725052 0.000000
0.847291 0.725052 0.000000
0.851174 0.725052 0.000000
0.854930 0.725052 0.000000
0.000000 0.736026 0.000000
0.452909 0.736026 0.000000
0.537255 0.736026 0.000000
0.585240 0.736026 0.000000
0.618925 0.736026 0.000000
0.644905 0.736026 0.000000
0.666056 0.736026 0.000000
0.683896 0.736026 0.000000
0.699322 0.736026 0.000000
0.712910 0.736026 0.000000
0.725052 0.736026 0.000000
0.736026 0.736026 0.000000
0.746037 0.736026 0.000000
0.755242 0.736026 0.000000
0.763759 0.736026 0.000000
0.771685 0.736026 0.000000
0.779097 0.736026 0.000000
0.786057 0.736026 0.000000
0.792617 0.736026 0.000000
0.798820 0.736026 0.000000
0.804704 0.736026 0.000000
0.810299 0.736026 0.000000
0.815633 0.736026 0.000000
0.820729 0.736026 0.000000
0.825608 0.736026 0.000000
0.830287 0.736026 0.000000
0.834781 0.736026 0.000000
0.839105 0.736026 0.000000
0.843272 0.736026 0.000000
0.847291 0.736026 0.000000
0.851174 0.736026 0.000000
0.854930 0.736026 0.000000
0.000000 0.746037 0.000000
0.452909 0.746037 0.000000
0.537255 0.746037 0.000000
0.585240 0.746037 0.000000
0.618925 0.746037 0.000000
0.644905 0.746037 0.000000
0.666056 0.746037 0.000000
0.683896 0.746037 0.000000
0.699322 0.746037 0.000000
0.712910 0.746037 0.000000
0.725052 0.746037 0.000000
0.736026 0.746037 0.000000
0.746037 0.746037 0.000000
0.755242 0.746037 0.000000
0.763759 0.746037 0.000000
0.771685 0.746037 0.000000
0.779097 0.746037 0.000000
0.786057 0.746037 0.000000
0.792617 0.746037 0.000000
0.798820 0.746037 0.000000
0.804704 0.746037 0.000000
0.810299 0.746037 0.000000
0.815633 0.746037 0.000000
0.820729 0.746037 0.000000
0.825608 0.746037 0.000000
0.830287 0.746037 0.000000
0.834781 0.746037 0.000000
0.839105 0.746037 0.000000
0.843272 0.746037 0.000000
0.847291 0.746037 0.000000
0.851174 0.746037 0.000000
0.854930 0.746037 0.000000
0.000000 0.755242 0.000000
0.452909 0.755242 0.000000
0.537255 0.755242 0.000000
0.585240 0.755242 0.000000
0.618925 0.755242 0.000000
0.644905 0.755242 0.000000
0.666056 0.755242 0.000000
0.683896 0.755242 0.000000
0.699322 0.755242 0.000000
0.712910 0.755242 0.000000
0.725052 0.755242 0.000000
0.736026 0.755242 0.000000
0.746037 0.755242 0.000000
0.755242 0.755242 0.000000
0.763759 0.755242 0.000000
0.771685 0.755242 0.000000
0.779097 0.755242 0.000000
0.786057 0.755242 0.000000
0.792617 0.755242 0.000000
0.798820 0.755242 0.000000
0.804704 0.755242 0.000000
0.810299 0.755242 0.000000
0.815633 0.755242 0.000000
0.820729 0.755242 0.000000
0.825608 0.755242 0.000000
0.830287 0.755242 0.000000
0.834781 0.755242 0.000000
0.839105 0.755242 0.000000
0.843272 0.755242 0.000000
0.847291 0.755242 0.000000
0.851174 0.755242 0.000000
0.854930 0.755242 0.000000
0.000000 0.763759 0.000000
0.452909 0.763759 0.000000
0.537255 0.763759 0.000000
0.585240 0.763759 0.000000
0.618925 0.763759 0.000000
0.644905 0.763759 0.000000
0.666056 0.763759 0.000000
0.683896 0.763759 0.000000
0.699322 0.763759 0.000000
0.712910 0.763759 0.000000
0.725052 0.763759 0.000000
0.736026 0.763759 0.000000
0.746037 0.763759 0.000000
0.755242 0.763759 0.000000
0.763759 0.763759 0.000000
0.771685 0.763759 0.000000
0.779097 0.763759 0.000000
0.786057 0.763759 0.000000
0.792617 0.763759 0.000000
0.798820 0.763759 0.000000
0.804704 0.763759 0.000000
0.810299 0.763759 0.000000
0.815633 0.763759 0.000000
0.820729 0.763759 0.000000
0.825608 0.763759 0.000000
0.830287 0.763759 0.000000
0.834781 0.763759 0.000000
0.839105 0.763759 0.000000
0.843272 0.763759 0.000000
0.847291 0.763759 0.000000
0.851174 0.763759 0.000000
0.854930 0.763759 0.000000
0.000000 0.771685 0.000000
0.452909 0.771685 0.000000
0.537255 0.771685 0.000000
0.585240 0.771685 0.000000
0.618925 0.771685 0.000000
0.644905 0.771685 0.000000
0.666056 0.771685 0.000000
0.683896 0.771685 0.000000
0.699322 0.771685 0.000000
0.712910 0.771685 0.000000
0.725052 0.771685 0.000000
0.736026 0.771685 0.000000
0.746037 0.771685 0.000000
0.755242 0.771685 0.000000
0.763759 0.771685 0.000000
0.771685 0.771685 0.000000
0.779097 0.771685 0.000000
0.786057 0.771685 0.000000
0.792617 0.771685 0.000000
0.798820 0.771685 0.000000
0.804704 0.771685 0.000000
0.810299 0.771685 0.000000
0.815633 0.771685 0.000000
0.820729 0.771685 0.000000
0.825608 0.771685 0.000000
0.830287 0.771685 0.000000
0.834781 0.771685 0.000000
0.839105 0.771685 0.000000
0.843272 0.771685 0.000000
0.847291 0.771685 0.000000
0.851174 0.771685 0.000000
0.854930 0.771685 0.000000
0.000000 0.779097 0.000000
0.452909 0.779097 0.000000
0.537255 0.779097 0.000000
0.585240 0.779097 0.000000
0.618925 0.779097 0.000000
0.644905 0.779097 0.000000
0.666056 0.779097 0.000000
0.683896 0.779097 0.000000
0.699322 0.779097 0.000000
0.712910 0.779097 0.000000
0.725052 0.779097 0.000000
0.736026 0.779097 0.000000
0.746037 0.779097 0.000000
0.755242 0.779097 0.000000
0.763759 0.779097 0.000000
0.771685 0.779097 0.000000
0.779097 0.779097 0.000000
0.786057 0.779097 0.000000
0.792617 0.779097 0.000000
0.798820 0.779097 0.000000
0.804704 0.779097 0.000000
0.810299 0.779097 0.000000
0.815633 0.779097 0.000000
0.820729 0.779097 0.000000
0.825608 0.779097 0.000000
0.830287 0.779097 0.000000
0.834781 0.779097 0.000000
0.839105 0.779097 0.000000
0.843272 0.779097 0.000000
0.847291 0.779097 0.000000
0.851174 0.779097 0.000000
0.854930 0.779097 0.000000
0.000000 0.786057 0.000000
0.452909 0.786057 0.000000
0.537255 0.786057 0.000000
0.585240 0.786057 0.000000
0.618925 0.786057 0.000000
0.644905 0.786057 0.000000
0.666056 0.786057 0.000000
0.683896 0.786057 0.000000
0.699322 0.786057 0.000000
0.712910 0.786057 0.000000
0.725052 0.786057 0.000000
0.736026 0.786057 0.000000
0.746037 0.786057 0.000000
0.755242 0.786057 0.000000
0.763759 0.786057 0.000000
0.771685 0.786057 0.000000
0.779097 0.786057 0.000000
0.786057 0.786057 0.000000
0.792617 0.786057 0.000000
0.798820 0.786057 0.000000
0.804704 0.786057 0.000000
0.810299 0.786057 0.000000
0.815633 0.786057 0.000000
0.820729 0.786057 0.000000
0.825608 0.786057 0.000000
0.830287 0.786057 0.000000
0.834781 0.786057 0.000000
0.839105 0.786057 0.000000
0.843272 0.786057 0.000000
0.847291 0.786057 0.000000
0.851174 0.786057 0.000000
0.854930 0.786057 0.000000
0.000000 0.792617 0.000000
0.452909 0.792617 0.000000
0.537255 0.792617 0.000000
0.585240 0.792617 0.000000
0.618925 0.792617 0.000000
0.644905 0.792617 0.000000
0.666056 0.792617 0.000000
0.683896 0.792617 0.000000
0.699322 0.792617 0.000000
0.712910 0.792617 0.000000
0.725052 0.792617 0.000000
0.736026 0.792617 0.000000
0.746037 0.792617 0.000000
0.755242 0.792617 0.000000
0.763759 0.792617 0.000000
0.771685 0.792617 0.000000
0.779097 0.792617 0.000000
0.786057 0.792617 0.000000
0.792617 0.792617 0.000000
0.798820 0.792617 0.000000
0.804704 0.792617 0.000000
0.810299 0.792617 0.000000
0.815633 0.792617 0.000000
0.820729 0.792617 0.000000
0.825608 0.792617 0.000000
0.830287 0.792617 0.000000
0.834781 0.792617 0.000000
0.839105 0.792617 0.000000
0.843272 0.792617 0.000000
0.847291 0.792617 0.000000
0.851174 0.792617 0.000000
0.854930 0.792617 0.000000
0.000000 0.798820 0.000000
0.452909 0.798820 0.000000
0.537255 0.798820 0.000000
0.585240 0.798820 0.000000
0.618925 0.798820 0.000000
0.644905 0.798820 0.000000
0.666056 0.798820 0.000000
0.683896 0.798820 0.000000
0.699322 0.798820 0.000000
0.712910 0.798820 0.000000
0.725052 0.798820 0.000000
0.736026 0.798820 0.000000
0.746037 0.798820 0.000000
0.755242 0.798820 0.000000
0.763759 0.798820 0.000000
0.771685 0.798820 0.000000
0.779097 0.798820 0.000000
0.786057 0.798820 0.000000
0.792617 0.798820 0.000000
0.798820 0.798820 0.000000
0.804704 0.798820 0.000000
0.810299 0.798820 0.000000
0.815633 0.798820 0.000000
0.820729 0.798820 0.000000
0.825608 0.798820 0.000000
0.830287 0.798820 0.000000
0.834781 0.798820 0.000000
0.839105 0.798820 0.000000
0.843272 0.798820 0.000000
0.847291 0.798820 0.000000
0.851174 0.798820 0.000000
0.854930 0.798820 0.000000
0.000000 0.804704 0.000000
0.452909 0.804704 0.000000
0.537255 0.804704 0.000000
0.585240 0.804704 0.000000
0.618925 0.804704 0.000000
0.644905 0.804704 0.000000
0.666056 0.804704 0.000000
0.683896 0.804704 0.000000
0.699322 0.804704 0.000000
0.712910 0.804704 0.000000
0.725052 0.804704 0.000000
0.736026 0.804704 0.000000
0.746037 0.804704 0.000000
0.755242 0.804704 0.000000
0.763759 0.804704 0.000000
0.771685 0.804704 0.000000
0.779097 0.804704 0.000000
0.786057 0.804704 0.000000
0.792617 0.804704 0.000000
0.798820 0.804704 0.000000
0.804704 0.804704 0.000000
0.810299 0.804704 0.000000
0.815633 0.804704 0.000000
0.820729 0.804704 0.000000
0.825608 0.804704 0.000000
0.830287 0.804704 0.000000
0.834781 0.804704 0.000000
0.839105 0.804704 0.000000
0.843272 0.804704 0.000000
0.847291 0.804704 0.000000
0.851174 0.804704 0.000000
0.854930 0.804704 0.000000
0.000000 0.810299 0.000000
0.452909 0.810299 0.000000
0.537255 0.810299 0.000000
0.585240 0.810299 0.000000
0.618925 0.810299 0.000000
0.644905 0.810299 0.000000
0.666056 0.810299 0.000000
0.683896 0.810299 0.000000
0.699322 0.810299 0.000000
0.712910 0.810299 0.000000
0.725052 0.810299 0.000000
0.736026 0.810299 0.000000
0.746037 0.810299 0.000000
0.755242 0.810299 0.000000
0.763759 0.810299 0.000000
0.771685 0.810299 0.000000
0.779097 0.810299 0.000000
0.786057 0.810299 0.000000
0.792617 0.810299 0.000000
0.798820 0.810299 0.000000
0.804704 0.810299 0.000000
0.810299 0.810299 0.000000
0.815633 0.810299 0.000000
0.820729 0.810299 0.000000
0.825608 0.810299 0.000000
0.830287 0.810299 0.000000
0.834781 0.810299 0.000000
0.839105 0.810299 0.000000
0.843272 0.810299 0.000000
0.847291 0.810299 0.000000
0.851174 0.810299 0.000000
0.854930 0.810299 0.000000
0.000000 0.815633 0.000000
0.452909 0.815633 0.000000
0.537255 0.815633 0.000000
0.585240 0.815633 0.000000
0.618925 0.815633 0.000000
0.644905 0.815633 0.000000
0.666056 0.815633 0.000000
0.683896 0.815633 0.000000
0.699322 0.815633 0.000000
0.712910 0.815633 0.000000
0.725052 0.815633 0.000000
0.736026 0.815633 0.000000
0.746037 0.815633 0.000000
0.755242 0.815633 0.000000
0.763759 0.815633 0.000000
0.771685 0.815633 0.000000
0.779097 0.815633 0.000000
0.786057 0.815633 0.000000
0.792617 0.815633 0.000000
0.798820 0.815633 0.000000
0.804704 0.815633 0.000000
0.810299 0.815633 0.000000
0.815633 0.815633 0.000000
0.820729 0.815633 0.000000
0.825608 0.815633 0.000000
0.830287 0.815633 0.000000
0.834781 0.815633 0.000000
0.839105 0.815633 0.000000
0.843272 0.815633 0.000000
0.847291 0.815633 0.000000
0.851174 0.815633 0.000000
0.854930 0.815633 0.000000
0.000000 0.820729 0.000000
0.452909 0.820729 0.000000
0.537255 0.820729 0.000000
0.585240 0.820729 0.000000
0.618925 0.820729 0.000000
0.644905 0.820729 0.000000
0.666056 0.820729 0.000000
0.683896 0.820729 0.000000
0.699322 0.820729 0.000000
0.712910 0.820729 0.000000
0.725052 0.820729 0.000000
0.736026 0.820729 0.000000
0.746037 0.820729 0.000000
0.755242 0.820729 0.000000
0.763759 0.820729 0.000000
0.771685 0.820729 0.000000
0.779097 0.820729 0.000000
0.786057 0.820729 0.000000
0.792617 0.820729 0.000000
0.798820 0.820729 0.000000
0.804704 0.820729 0.000000
0.810299 0.820729 0.000000
0.815633 0.820729 0.000000
0.820729 0.820729 0.000000
0.825608 0.820729 0.000000
0.830287 0.820729 0.000000
0.834781 0.820729 0.000000
0.839105 0.820729 0.000000
0.843272 0.820729 0.000000
0.847291 0.820729 0.000000
0.851174 0.820729 0.000000
0.854930 0.820729 0.000000
0.000000 0.825608 0.000000
0.452909 0.825608 0.000000
0.537255 0.825608 0.000000
0.585240 0.825608 0.000000
0.618925 0.825608 0.000000
0.644905 0.825608 0.000000
0.666056 0.825608 0.000000
0.683896 0.825608 0.000000
0.699322 0.825608 0.000000
0.712910 0.825608 0.000000
0.725052 0.825608 0.000000
0.736026 0.825608 0.000000
0.746037 0.825608 0.000000
0.755242 0.825608 0.000000
0.763759 0.825608 0.000000
0.771685 0.825608 0.000000
0.779097 0.825608 0.000000
0.786057 0.825608 0.000000
0.792617 0.825608 0.000000
0.798820 0.825608 0.000000
0.804704 0.825608 0.000000
0.810299 0.825608 0.000000
0.815633 0.825608 0.000000
0.820729 0.825608 0.000000
0.825608 0.825608 0.000000
0.830287 0.825608 0.000000
0.834781 0.825608 0.000000
0.839105 0.825608 0.000000
0.843272 0.825608 0.000000
0.847291 0.825608 0.000000
0.851174 0.825608 0.000000
0.854930 0.825608 0.000000
0.000000 0.830287 0.000000
0.452909 0.830287 0.000000
0.537255 0.830287 0.000000
0.585240 0.830287 0.000000
0.618925 0.830287 0.000000
0.644905 0.830287 0.000000
0.666056 0.830287 0.000000
0.683896 0.830287 0.000000
0.699322 0.830287 0.000000
0.712910 0.830287 0.000000
0.725052 0.830287 0.000000
0.736026 0.830287 0.000000
0.746037 0.830287 0.000000
0.755242 0.830287 0.000000
0.763759 0.830287 0.000000
0.771685 0.830287 0.000000
0.779097 0.830287 0.000000
0.786057 0.830287 0.000000
0.792617 0.830287 0.000000
0.798820 0.830287 0.000000
0.804704 0.830287 0.000000
0.810299 0.830287 0.000000
0.815633 0.830287 0.000000
0.820729 0.830287 0.000000
0.825608 0.830287 0.000000
0.830287 0.830287 0.000000
0.834781 0.830287 0.000000
0.839105 0.830287 0.000000
0.843272 0.830287 0.000000
0.847291 0.830287 0.000000
0.851174 0.830287 0.000000
0.854930 0.830287 0.000000
0.000000 0.834781 0.000000
0.452909 0.834781 0.000000
0.537255 0.834781 0.000000
0.585240 0.834781 0.000000
0.618925 0.834781 0.000000
0.644905 0.834781 0.000000
0.666056 0.834781 0.000000
0.683896 0.834781 0.000000
0.699322 0.834781 0.000000
0.712910 0.834781 0.000000
0.725052 0.834781 0.000000
0.736026 0.834781 0.000000
0.746037 0.834781 0.000000
0.755242 0.834781 0.000000
0.763759 0.834781 0.000000
0.771685 0.834781 0.000000
0.779097 0.834781 0.000000
0.786057 0.834781 0.000000
0.792617 0.834781 0.000000
0.798820 0.834781 0.000000
0.804704 0.834781 0.000000
0.810299 0.834781 0.000000
0.815633 0.834781 0.000000
0.820729 0.834781 0.000000
0.825608 0.834781 0.000000
0.830287 0.834781 0.000000
0.834781 0.834781 0.000000
0.839105 0.834781 0.000000
0.843272 0.834781 0.000000
0.847291 0.834781 0.000000
0.851174 0.834781 0.000000
0.854930 0.834781 0.000000
0.000000 0.839105 0.000000
0.452909 0.839105 0.000000
0.537255 0.839105 0.000000
0.585240 0.839105 0.000000
0.618925 0.839105 0.000000
0.644905 0.839105 0.000000
0.666056 0.839105 0.000000
0.683896 0.839105 0.000000
0.699322 0.839105 0.000000
0.712910 0.839105 0.000000
0.725052 0.839105 0.000000
0.736026 0.839105 0.000000
0.746037 0.839105 0.000000
0.755242 0.839105 0.000000
0.763759 0.839105 0.000000
0.771685 0.839105 0.000000
0.779097 0.839105 0.000000
0.786057 0.839105 0.000000
0.792617 0.839105 0.000000
0.798820 0.839105 0.000000
0.804704 0.839105 0.000000
