.nuke/nuke.LUT/linear-2-logC_exteded/AlexaV3_EI0640_Linear2LogC_EE_nuke3d.cube
# Alexa conversion LUT, lin2logc. Full in/full out.
# created by alexalutconv (2.07)
LUT_3D_SIZE 8
DOMAIN_MIN 0.000000 0.000000 0.000000
DOMAIN_MAX 0.903226 0.903226 0.903226
0.000000 0.000000 0.000000
0.710997 0.000000 0.000000
0.787848 0.000000 0.000000
0.832414 0.000000 0.000000
0.863928 0.000000 0.000000
0.888327 0.000000 0.000000
0.908240 0.000000 0.000000
0.925063 0.000000 0.000000
0.000000 0.710997 0.000000
0.710997 0.710997 0.000000
0.787848 0.710997 0.000000
0.832414 0.710997 0.000000
0.863928 0.710997 0.000000
0.888327 0.710997 0.000000
0.908240 0.710997 0.000000
0.925063 0.710997 0.000000
0.000000 0.787848 0.000000
0.710997 0.787848 0.000000
0.787848 0.787848 0.000000
0.832414 0.787848 0.000000
0.863928 0.787848 0.000000
0.888327 0.787848 0.000000
0.908240 0.787848 0.000000
0.925063 0.787848 0.000000
0.000000 0.832414 0.000000
0.710997 0.832414 0.000000
0.787848 0.832414 0.000000
0.832414 0.832414 0.000000
0.863928 0.832414 0.000000
0.888327 0.832414 0.000000
0.908240 0.832414 0.000000
0.925063 0.832414 0.000000
0.000000 0.863928 0.000000
0.710997 0.863928 0.000000
0.787848 0.863928 0.000000
0.832414 0.863928 0.000000
0.863928 0.863928 0.000000
0.888327 0.863928 0.000000
0.908240 0.863928 0.000000
0.925063 0.863928 0.000000
0.000000 0.888327 0.000000
0.710997 0.888327 0.000000
0.787848 0.888327 0.000000
0.832414 0.888327 0.000000
0.863928 0.888327 0.000000
0.888327 0.888327 0.000000
0.908240 0.888327 0.000000
0.925063 0.888327 0.000000
0.000000 0.908240 0.000000
0.710997 0.908240 0.000000
0.787848 0.908240 0.000000
0.832414 0.908240 0.000000
0.863928 0.908240 0.000000
0.888327 0.908240 0.000000
0.908240 0.908240 0.000000
0.925063 0.908240 0.000000
0.000000 0.925063 0.000000
0.710997 0.925063 0.000000
0.787848 0.925063 0.000000
0.832414 0.925063 0.000000
0.863928 0.925063 0.000000
0.888327 0.925063 0.000000
0.908240 0.925063 0.000000
0.925063 0.925063 0.000000
0.000000 0.000000 0.710997
0.710997 0.000000 0.710997
0.787848 0.000000 0.710997
0.832414 0.000000 0.710997
0.863928 0.000000 0.710997
0.888327 0.000000 0.710997
0.908240 0.000000 0.710997
0.925063 0.000000 0.710997
0.000000 0.710997 0.710997
0.710997 0.710997 0.710997
0.787848 0.710997 0.710997
0.832414 0.710997 0.710997
0.863928 0.710997 0.710997
0.888327 0.710997 0.710997
0.908240 0.710997 0.710997
0.925063 0.710997 0.710997
0.000000 0.787848 0.710997
0.710997 0.787848 0.710997
0.787848 0.787848 0.710997
0.832414 0.787848 0.710997
0.863928 0.787848 0.710997
0.888327 0.787848 0.710997
0.908240 0.787848 0.710997
0.925063 0.787848 0.710997
0.000000 0.832414 0.710997
0.710997 0.832414 0.710997
0.787848 0.832414 0.710997
0.832414 0.832414 0.710997
0.863928 0.832414 0.710997
0.888327 0.832414 0.710997
0.908240 0.832414 0.710997
0.925063 0.832414 0.710997
0.000000 0.863928 0.710997
0.710997 0.863928 0.710997
0.787848 0.863928 0.710997
0.832414 0.863928 0.710997
0.863928 0.863928 0.710997
0.888327 0.863928 0.710997
0.908240 0.863928 0.710997
0.925063 0.863928 0.710997
0.000000 0.888327 0.710997
0.710997 0.888327 0.710997
0.787848 0.888327 0.710997
0.832414 0.888327 0.710997
0.863928 0.888327 0.710997
0.888327 0.888327 0.710997
0.908240 0.888327 0.710997
0.925063 0.888327 0.710997
0.000000 0.908240 0.710997
0.710997 0.908240 0.710997
0.787848 0.908240 0.710997
0.832414 0.908240 0.710997
0.863928 0.908240 0.710997
0.888327 0.908240 0.710997
0.908240 0.908240 0.710997
0.925063 0.908240 0.710997
0.000000 0.925063 0.710997
0.710997 0.925063 0.710997
0.787848 0.925063 0.710997
0.832414 0.925063 0.710997
0.863928 0.925063 0.710997
0.888327 0.925063 0.710997
0.908240 0.925063 0.710997
0.925063 0.925063 0.710997
0.000000 0.000000 0.787848
0.710997 0.000000 0.787848
0.787848 0.000000 0.787848
0.832414 0.000000 0.787848
0.863928 0.000000 0.787848
0.888327 0.000000 0.787848
0.908240 0.000000 0.787848
0.925063 0.000000 0.787848
0.000000 0.710997 0.787848
0.710997 0.710997 0.787848
0.787848 0.710997 0.787848
0.832414 0.710997 0.787848
0.863928 0.710997 0.787848
0.888327 0.710997 0.787848
0.908240 0.710997 0.787848
0.925063 0.710997 0.787848
0.000000 0.787848 0.787848
0.710997 0.787848 0.787848
0.787848 0.787848 0.787848
0.832414 0.787848 0.787848
0.863928 0.787848 0.787848
0.888327 0.787848 0.787848
0.908240 0.787848 0.787848
0.925063 0.787848 0.787848
0.000000 0.832414 0.787848
0.710997 0.832414 0.787848
0.787848 0.832414 0.787848
0.832414 0.832414 0.787848
0.863928 0.832414 0.787848
0.888327 0.832414 0.787848
0.908240 0.832414 0.787848
0.925063 0.832414 0.787848
0.000000 0.863928 0.787848
0.710997 0.863928 0.787848
0.787848 0.863928 0.787848
0.832414 0.863928 0.787848
0.863928 0.863928 0.787848
0.888327 0.863928 0.787848
0.908240 0.863928 0.787848
0.925063 0.863928 0.787848
0.000000 0.888327 0.787848
0.710997 0.888327 0.787848
0.787848 0.888327 0.787848
0.832414 0.888327 0.787848
0.863928 0.888327 0.787848
0.888327 0.888327 0.787848
0.908240 0.888327 0.787848
0.925063 0.888327 0.787848
0.000000 0.908240 0.787848
0.710997 0.908240 0.787848
0.787848 0.908240 0.787848
0.832414 0.908240 0.787848
0.863928 0.908240 0.787848
0.888327 0.908240 0.787848
0.908240 0.908240 0.787848
0.925063 0.908240 0.787848
0.000000 0.925063 0.787848
0.710997 0.925063 0.787848
0.787848 0.925063 0.787848
0.832414 0.925063 0.787848
0.863928 0.925063 0.787848
0.888327 0.925063 0.787848
0.908240 0.925063 0.787848
0.925063 0.925063 0.787848
0.000000 0.000000 0.832414
0.710997 0.000000 0.832414
0.787848 0.000000 0.832414
0.832414 0.000000 0.832414
0.863928 0.000000 0.832414
0.888327 0.000000 0.832414
0.908240 0.000000 0.832414
0.925063 0.000000 0.832414
0.000000 0.710997 0.832414
0.710997 0.710997 0.832414
0.787848 0.710997 0.832414
0.832414 0.710997 0.832414
0.863928 0.710997 0.832414
0.888327 0.710997 0.832414
0.908240 0.710997 0.832414
0.925063 0.710997 0.832414
0.000000 0.787848 0.832414
0.710997 0.787848 0.832414
0.787848 0.787848 0.832414
0.832414 0.787848 0.832414
0.863928 0.787848 0.832414
0.888327 0.787848 0.832414
0.908240 0.787848 0.832414
0.925063 0.787848 0.832414
0.000000 0.832414 0.832414
0.710997 0.832414 0.832414
0.787848 0.832414 0.832414
0.832414 0.832414 0.832414
0.863928 0.832414 0.832414
0.888327 0.832414 0.832414
0.908240 0.832414 0.832414
0.925063 0.832414 0.832414
0.000000 0.863928 0.832414
0.710997 0.863928 0.832414
0.787848 0.863928 0.832414
0.832414 0.863928 0.832414
0.863928 0.863928 0.832414
0.888327 0.863928 0.832414
0.908240 0.863928 0.832414
0.925063 0.863928 0.832414
0.000000 0.888327 0.832414
0.710997 0.888327 0.832414
0.787848 0.888327 0.832414
0.832414 0.888327 0.832414
0.863928 0.888327 0.832414
0.888327 0.888327 0.832414
0.908240 0.888327 0.832414
0.925063 0.888327 0.832414
0.000000 0.908240 0.832414
0.710997 0.908240 0.832414
0.787848 0.908240 0.832414
0.832414 0.908240 0.832414
0.863928 0.908240 0.832414
0.888327 0.908240 0.832414
0.908240 0.908240 0.832414
0.925063 0.908240 0.832414
0.000000 0.925063 0.832414
0.710997 0.925063 0.832414
0.787848 0.925063 0.832414
0.832414 0.925063 0.832414
0.863928 0.925063 0.832414
0.888327 0.925063 0.832414
0.908240 0.925063 0.832414
0.925063 0.925063 0.832414
0.000000 0.000000 0.863928
0.710997 0.000000 0.863928
0.787848 0.000000 0.863928
0.832414 0.000000 0.863928
0.863928 0.000000 0.863928
0.888327 0.000000 0.863928
0.908240 0.000000 0.863928
0.925063 0.000000 0.863928
0.000000 0.710997 0.863928
0.710997 0.710997 0.863928
0.787848 0.710997 0.863928
0.832414 0.710997 0.863928
0.863928 0.710997 0.863928
0.888327 0.710997 0.863928
0.908240 0.710997 0.863928
0.925063 0.710997 0.863928
0.000000 0.787848 0.863928
0.710997 0.787848 0.863928
0.787848 0.787848 0.863928
0.832414 0.787848 0.863928
0.863928 0.787848 0.863928
0.888327 0.787848 0.863928
0.908240 0.787848 0.863928
0.925063 0.787848 0.863928
0.000000 0.832414 0.863928
0.710997 0.832414 0.863928
0.787848 0.832414 0.863928
0.832414 0.832414 0.863928
0.863928 0.832414 0.863928
0.888327 0.832414 0.863928
0.908240 0.832414 0.863928
0.925063 0.832414 0.863928
0.000000 0.863928 0.863928
0.710997 0.863928 0.863928
0.787848 0.863928 0.863928
0.832414 0.863928 0.863928
0.863928 0.863928 0.863928
0.888327 0.863928 0.863928
0.908240 0.863928 0.863928
0.925063 0.863928 0.863928
0.000000 0.888327 0.863928
0.710997 0.888327 0.863928
0.787848 0.888327 0.863928
0.832414 0.888327 0.863928
0.863928 0.888327 0.863928
0.888327 0.888327 0.863928
0.908240 0.888327 0.863928
0.925063 0.888327 0.863928
0.000000 0.908240 0.863928
0.710997 0.908240 0.863928
0.787848 0.908240 0.863928
0.832414 0.908240 0.863928
0.863928 0.908240 0.863928
0.888327 0.908240 0.863928
0.908240 0.908240 0.863928
0.925063 0.908240 0.863928
0.000000 0.925063 0.863928
0.710997 0.925063 0.863928
0.787848 0.925063 0.863928
0.832414 0.925063 0.863928
0.863928 0.925063 0.863928
0.888327 0.925063 0.863928
0.908240 0.925063 0.863928
0.925063 0.925063 0.863928
0.000000 0.000000 0.888327
0.710997 0.000000 0.888327
0.787848 0.000000 0.888327
0.832414 0.000000 0.888327
0.863928 0.000000 0.888327
0.888327 0.000000 0.888327
0.908240 0.000000 0.888327
0.925063 0.000000 0.888327
0.000000 0.710997 0.888327
0.710997 0.710997 0.888327
0.787848 0.710997 0.888327
0.832414 0.710997 0.888327
0.863928 0.710997 0.888327
0.888327 0.710997 0.888327
0.908240 0.710997 0.888327
0.925063 0.710997 0.888327
0.000000 0.787848 0.888327
0.710997 0.787848 0.888327
0.787848 0.787848 0.888327
0.832414 0.787848 0.888327
0.863928 0.787848 0.888327
0.888327 0.787848 0.888327
0.908240 0.787848 0.888327
0.925063 0.787848 0.888327
0.000000 0.832414 0.888327
0.710997 0.832414 0.888327
0.787848 0.832414 0.888327
0.832414 0.832414 0.888327
0.863928 0.832414 0.888327
0.888327 0.832414 0.888327
0.908240 0.832414 0.888327
0.925063 0.832414 0.888327
0.000000 0.863928 0.888327
0.710997 0.863928 0.888327
0.787848 0.863928 0.888327
0.832414 0.863928 0.888327
0.863928 0.863928 0.888327
0.888327 0.863928 0.888327
0.908240 0.863928 0.888327
0.925063 0.863928 0.888327
0.000000 0.888327 0.888327
0.710997 0.888327 0.888327
0.787848 0.888327 0.888327
0.832414 0.888327 0.888327
0.863928 0.888327 0.888327
0.888327 0.888327 0.888327
0.908240 0.888327 0.888327
0.925063 0.888327 0.888327
0.000000 0.908240 0.888327
0.710997 0.908240 0.888327
0.787848 0.908240 0.888327
0.832414 0.908240 0.888327
0.863928 0.908240 0.888327
0.888327 0.908240 0.888327
0.908240 0.908240 0.888327
0.925063 0.908240 0.888327
0.000000 0.925063 0.888327
0.710997 0.925063 0.888327
0.787848 0.925063 0.888327
0.832414 0.925063 0.888327
0.863928 0.925063 0.888327
0.888327 0.925063 0.888327
0.908240 0.925063 0.888327
0.925063 0.925063 0.888327
0.000000 0.000000 0.908240
0.710997 0.000000 0.908240
0.787848 0.000000 0.908240
0.832414 0.000000 0.908240
0.863928 0.000000 0.908240
0.888327 0.000000 0.908240
0.908240 0.000000 0.908240
0.925063 0.000000 0.908240
0.000000 0.710997 0.908240
0.710997 0.710997 0.908240
0.787848 0.710997 0.908240
0.832414 0.710997 0.908240
0.863928 0.710997 0.908240
0.888327 0.710997 0.908240
0.908240 0.710997 0.908240
0.925063 0.710997 0.908240
0.000000 0.787848 0.908240
0.710997 0.787848 0.908240
0.787848 0.787848 0.908240
0.832414 0.787848 0.908240
0.863928 0.787848 0.908240
0.888327 0.787848 0.908240
0.908240 0.787848 0.908240
0.925063 0.787848 0.908240
0.000000 0.832414 0.908240
0.710997 0.832414 0.908240
0.787848 0.832414 0.908240
0.832414 0.832414 0.908240
0.863928 0.832414 0.908240
0.888327 0.832414 0.908240
0.908240 0.832414 0.908240
0.925063 0.832414 0.908240
0.000000 0.863928 0.908240
0.710997 0.863928 0.908240
0.787848 0.863928 0.908240
0.832414 0.863928 0.908240
0.863928 0.863928 0.908240
0.888327 0.863928 0.908240
0.908240 0.863928 0.908240
0.925063 0.863928 0.908240
0.000000 0.888327 0.908240
0.710997 0.888327 0.908240
0.787848 0.888327 0.908240
0.832414 0.888327 0.908240
0.863928 0.888327 0.908240
0.888327 0.888327 0.908240
0.908240 0.888327 0.908240
0.925063 0.888327 0.908240
0.000000 0.908240 0.908240
0.710997 0.908240 0.908240
0.787848 0.908240 0.908240
0.832414 0.908240 0.908240
0.863928 0.908240 0.908240
0.888327 0.908240 0.908240
0.908240 0.908240 0.908240
0.925063 0.908240 0.908240
0.000000 0.925063 0.908240
0.710997 0.925063 0.908240
0.787848 0.925063 0.908240
0.832414 0.925063 0.908240
0.863928 0.925063 0.908240
0.888327 0.925063 0.908240
0.908240 0.925063 0.908240
0.925063 0.925063 0.908240
0.000000 0.000000 0.925063
0.710997 0.000000 0.925063
0.787848 0.000000 0.925063
0.832414 0.000000 0.925063
0.863928 0.000000 0.925063
0.888327 0.000000 0.925063
0.908240 0.000000 0.925063
0.925063 0.000000 0.925063
0.000000 0.710997 0.925063
0.710997 0.710997 0.925063
0.787848 0.710997 0.925063
0.832414 0.710997 0.925063
0.863928 0.710997 0.925063
0.888327 0.710997 0.925063
0.908240 0.710997 0.925063
0.925063 0.710997 0.925063
0.000000 0.787848 0.925063
0.710997 0.787848 0.925063
0.787848 0.787848 0.925063
0.832414 0.787848 0.925063
0.863928 0.787848 0.925063
0.888327 0.787848 0.925063
0.908240 0.787848 0.925063
0.925063 0.787848 0.925063
0.000000 0.832414 0.925063
0.710997 0.832414 0.925063
0.787848 0.832414 0.925063
0.832414 0.832414 0.925063
0.863928 0.832414 0.925063
0.888327 0.832414 0.925063
0.908240 0.832414 0.925063
0.925063 0.832414 0.925063
0.000000 0.863928 0.925063
0.710997 0.863928 0.925063
0.787848 0.863928 0.925063
0.832414 0.863928 0.925063
0.863928 0.863928 0.925063
0.888327 0.863928 0.925063
0.908240 0.863928 0.925063
0.925063 0.863928 0.925063
0.000000 0.888327 0.925063
0.710997 0.888327 0.925063
0.787848 0.888327 0.925063
0.832414 0.888327 0.925063
0.863928 0.888327 0.925063
0.888327 0.888327 0.925063
0.908240 0.888327 0.925063
0.925063 0.888327 0.925063
0.000000 0.908240 0.925063
0.710997 0.908240 0.925063
0.787848 0.908240 0.925063
0.832414 0.908240 0.925063
0.863928 0.908240 0.925063
0.888327 0.908240 0.925063
0.908240 0.908240 0.925063
0.925063 0.908240 0.925063
0.000000 0.925063 0.925063
0.710997 0.925063 0.925063
0.787848 0.925063 0.925063
0.832414 0.925063 0.925063
0.863928 0.925063 0.925063
0.888327 0.925063 0.925063
0.908240 0.925063 0.925063
0.925063 0.925063 0.925063
