.nuke/nuke.LUT/linear-2-logC_exteded/AlexaV3_EI3200_Linear2LogC_EE_nuke3d.cube
# Alexa conversion LUT, lin2logc. Full in/full out.
# created by alexalutconv (2.07)
LUT_3D_SIZE 8
DOMAIN_MIN 0.000000 0.000000 0.000000
DOMAIN_MAX 0.903226 0.903226 0.903226
0.000000 0.000000 0.000000
0.843573 0.000000 0.000000
0.903720 0.000000 0.000000
0.935100 0.000000 0.000000
0.955931 0.000000 0.000000
0.971356 0.000000 0.000000
0.983524 0.000000 0.000000
0.993528 0.000000 0.000000
0.000000 0.843573 0.000000
0.843573 0.843573 0.000000
0.903720 0.843573 0.000000
0.935100 0.843573 0.000000
0.955931 0.843573 0.000000
0.971356 0.843573 0.000000
0.983524 0.843573 0.000000
0.993528 0.843573 0.000000
0.000000 0.903720 0.000000
0.843573 0.903720 0.000000
0.903720 0.903720 0.000000
0.935100 0.903720 0.000000
0.955931 0.903720 0.000000
0.971356 0.903720 0.000000
0.983524 0.903720 0.000000
0.993528 0.903720 0.000000
0.000000 0.935100 0.000000
0.843573 0.935100 0.000000
0.903720 0.935100 0.000000
0.935100 0.935100 0.000000
0.955931 0.935100 0.000000
0.971356 0.935100 0.000000
0.983524 0.935100 0.000000
0.993528 0.935100 0.000000
0.000000 0.955931 0.000000
0.843573 0.955931 0.000000
0.903720 0.955931 0.000000
0.935100 0.955931 0.000000
0.955931 0.955931 0.000000
0.971356 0.955931 0.000000
0.983524 0.955931 0.000000
0.993528 0.955931 0.000000
0.000000 0.971356 0.000000
0.843573 0.971356 0.000000
0.903720 0.971356 0.000000
0.935100 0.971356 0.000000
0.955931 0.971356 0.000000
0.971356 0.971356 0.000000
0.983524 0.971356 0.000000
0.993528 0.971356 0.000000
0.000000 0.983524 0.000000
0.843573 0.983524 0.000000
0.903720 0.983524 0.000000
0.935100 0.983524 0.000000
0.955931 0.983524 0.000000
0.971356 0.983524 0.000000
0.983524 0.983524 0.000000
0.993528 0.983524 0.000000
0.000000 0.993528 0.000000
0.843573 0.993528 0.000000
0.903720 0.993528 0.000000
0.935100 0.993528 0.000000
0.955931 0.993528 0.000000
0.971356 0.993528 0.000000
0.983524 0.993528 0.000000
0.993528 0.993528 0.000000
0.000000 0.000000 0.843573
0.843573 0.000000 0.843573
0.903720 0.000000 0.843573
0.935100 0.000000 0.843573
0.955931 0.000000 0.843573
0.971356 0.000000 0.843573
0.983524 0.000000 0.843573
0.993528 0.000000 0.843573
0.000000 0.843573 0.843573
0.843573 0.843573 0.843573
0.903720 0.843573 0.843573
0.935100 0.843573 0.843573
0.955931 0.843573 0.843573
0.971356 0.843573 0.843573
0.983524 0.843573 0.843573
0.993528 0.843573 0.843573
0.000000 0.903720 0.843573
0.843573 0.903720 0.843573
0.903720 0.903720 0.843573
0.935100 0.903720 0.843573
0.955931 0.903720 0.843573
0.971356 0.903720 0.843573
0.983524 0.903720 0.843573
0.993528 0.903720 0.843573
0.000000 0.935100 0.843573
0.843573 0.935100 0.843573
0.903720 0.935100 0.843573
0.935100 0.935100 0.843573
0.955931 0.935100 0.843573
0.971356 0.935100 0.843573
0.983524 0.935100 0.843573
0.993528 0.935100 0.843573
0.000000 0.955931 0.843573
0.843573 0.955931 0.843573
0.903720 0.955931 0.843573
0.935100 0.955931 0.843573
0.955931 0.955931 0.843573
0.971356 0.955931 0.843573
0.983524 0.955931 0.843573
0.993528 0.955931 0.843573
0.000000 0.971356 0.843573
0.843573 0.971356 0.843573
0.903720 0.971356 0.843573
0.935100 0.971356 0.843573
0.955931 0.971356 0.843573
0.971356 0.971356 0.843573
0.983524 0.971356 0.843573
0.993528 0.971356 0.843573
0.000000 0.983524 0.843573
0.843573 0.983524 0.843573
0.903720 0.983524 0.843573
0.935100 0.983524 0.843573
0.955931 0.983524 0.843573
0.971356 0.983524 0.843573
0.983524 0.983524 0.843573
0.993528 0.983524 0.843573
0.000000 0.993528 0.843573
0.843573 0.993528 0.843573
0.903720 0.993528 0.843573
0.935100 0.993528 0.843573
0.955931 0.993528 0.843573
0.971356 0.993528 0.843573
0.983524 0.993528 0.843573
0.993528 0.993528 0.843573
0.000000 0.000000 0.903720
0.843573 0.000000 0.903720
0.903720 0.000000 0.903720
0.935100 0.000000 0.903720
0.955931 0.000000 0.903720
0.971356 0.000000 0.903720
0.983524 0.000000 0.903720
0.993528 0.000000 0.903720
0.000000 0.843573 0.903720
0.843573 0.843573 0.903720
0.903720 0.843573 0.903720
0.935100 0.843573 0.903720
0.955931 0.843573 0.903720
0.971356 0.843573 0.903720
0.983524 0.843573 0.903720
0.993528 0.843573 0.903720
0.000000 0.903720 0.903720
0.843573 0.903720 0.903720
0.903720 0.903720 0.903720
0.935100 0.903720 0.903720
0.955931 0.903720 0.903720
0.971356 0.903720 0.903720
0.983524 0.903720 0.903720
0.993528 0.903720 0.903720
0.000000 0.935100 0.903720
0.843573 0.935100 0.903720
0.903720 0.935100 0.903720
0.935100 0.935100 0.903720
0.955931 0.935100 0.903720
0.971356 0.935100 0.903720
0.983524 0.935100 0.903720
0.993528 0.935100 0.903720
0.000000 0.955931 0.903720
0.843573 0.955931 0.903720
0.903720 0.955931 0.903720
0.935100 0.955931 0.903720
0.955931 0.955931 0.903720
0.971356 0.955931 0.903720
0.983524 0.955931 0.903720
0.993528 0.955931 0.903720
0.000000 0.971356 0.903720
0.843573 0.971356 0.903720
0.903720 0.971356 0.903720
0.935100 0.971356 0.903720
0.955931 0.971356 0.903720
0.971356 0.971356 0.903720
0.983524 0.971356 0.903720
0.993528 0.971356 0.903720
0.000000 0.983524 0.903720
0.843573 0.983524 0.903720
0.903720 0.983524 0.903720
0.935100 0.983524 0.903720
0.955931 0.983524 0.903720
0.971356 0.983524 0.903720
0.983524 0.983524 0.903720
0.993528 0.983524 0.903720
0.000000 0.993528 0.903720
0.843573 0.993528 0.903720
0.903720 0.993528 0.903720
0.935100 0.993528 0.903720
0.955931 0.993528 0.903720
0.971356 0.993528 0.903720
0.983524 0.993528 0.903720
0.993528 0.993528 0.903720
0.000000 0.000000 0.935100
0.843573 0.000000 0.935100
0.903720 0.000000 0.935100
0.935100 0.000000 0.935100
0.955931 0.000000 0.935100
0.971356 0.000000 0.935100
0.983524 0.000000 0.935100
0.993528 0.000000 0.935100
0.000000 0.843573 0.935100
0.843573 0.843573 0.935100
0.903720 0.843573 0.935100
0.935100 0.843573 0.935100
0.955931 0.843573 0.935100
0.971356 0.843573 0.935100
0.983524 0.843573 0.935100
0.993528 0.843573 0.935100
0.000000 0.903720 0.935100
0.843573 0.903720 0.935100
0.903720 0.903720 0.935100
0.935100 0.903720 0.935100
0.955931 0.903720 0.935100
0.971356 0.903720 0.935100
0.983524 0.903720 0.935100
0.993528 0.903720 0.935100
0.000000 0.935100 0.935100
0.843573 0.935100 0.935100
0.903720 0.935100 0.935100
0.935100 0.935100 0.935100
0.955931 0.935100 0.935100
0.971356 0.935100 0.935100
0.983524 0.935100 0.935100
0.993528 0.935100 0.935100
0.000000 0.955931 0.935100
0.843573 0.955931 0.935100
0.903720 0.955931 0.935100
0.935100 0.955931 0.935100
0.955931 0.955931 0.935100
0.971356 0.955931 0.935100
0.983524 0.955931 0.935100
0.993528 0.955931 0.935100
0.000000 0.971356 0.935100
0.843573 0.971356 0.935100
0.903720 0.971356 0.935100
0.935100 0.971356 0.935100
0.955931 0.971356 0.935100
0.971356 0.971356 0.935100
0.983524 0.971356 0.935100
0.993528 0.971356 0.935100
0.000000 0.983524 0.935100
0.843573 0.983524 0.935100
0.903720 0.983524 0.935100
0.935100 0.983524 0.935100
0.955931 0.983524 0.935100
0.971356 0.983524 0.935100
0.983524 0.983524 0.935100
0.993528 0.983524 0.935100
0.000000 0.993528 0.935100
0.843573 0.993528 0.935100
0.903720 0.993528 0.935100
0.935100 0.993528 0.935100
0.955931 0.993528 0.935100
0.971356 0.993528 0.935100
0.983524 0.993528 0.935100
0.993528 0.993528 0.935100
0.000000 0.000000 0.955931
0.843573 0.000000 0.955931
0.903720 0.000000 0.955931
0.935100 0.000000 0.955931
0.955931 0.000000 0.955931
0.971356 0.000000 0.955931
0.983524 0.000000 0.955931
0.993528 0.000000 0.955931
0.000000 0.843573 0.955931
0.843573 0.843573 0.955931
0.903720 0.843573 0.955931
0.935100 0.843573 0.955931
0.955931 0.843573 0.955931
0.971356 0.843573 0.955931
0.983524 0.843573 0.955931
0.993528 0.843573 0.955931
0.000000 0.903720 0.955931
0.843573 0.903720 0.955931
0.903720 0.903720 0.955931
0.935100 0.903720 0.955931
0.955931 0.903720 0.955931
0.971356 0.903720 0.955931
0.983524 0.903720 0.955931
0.993528 0.903720 0.955931
0.000000 0.935100 0.955931
0.843573 0.935100 0.955931
0.903720 0.935100 0.955931
0.935100 0.935100 0.955931
0.955931 0.935100 0.955931
0.971356 0.935100 0.955931
0.983524 0.935100 0.955931
0.993528 0.935100 0.955931
0.000000 0.955931 0.955931
0.843573 0.955931 0.955931
0.903720 0.955931 0.955931
0.935100 0.955931 0.955931
0.955931 0.955931 0.955931
0.971356 0.955931 0.955931
0.983524 0.955931 0.955931
0.993528 0.955931 0.955931
0.000000 0.971356 0.955931
0.843573 0.971356 0.955931
0.903720 0.971356 0.955931
0.935100 0.971356 0.955931
0.955931 0.971356 0.955931
0.971356 0.971356 0.955931
0.983524 0.971356 0.955931
0.993528 0.971356 0.955931
0.000000 0.983524 0.955931
0.843573 0.983524 0.955931
0.903720 0.983524 0.955931
0.935100 0.983524 0.955931
0.955931 0.983524 0.955931
0.971356 0.983524 0.955931
0.983524 0.983524 0.955931
0.993528 0.983524 0.955931
0.000000 0.993528 0.955931
0.843573 0.993528 0.955931
0.903720 0.993528 0.955931
0.935100 0.993528 0.955931
0.955931 0.993528 0.955931
0.971356 0.993528 0.955931
0.983524 0.993528 0.955931
0.993528 0.993528 0.955931
0.000000 0.000000 0.971356
0.843573 0.000000 0.971356
0.903720 0.000000 0.971356
0.935100 0.000000 0.971356
0.955931 0.000000 0.971356
0.971356 0.000000 0.971356
0.983524 0.000000 0.971356
0.993528 0.000000 0.971356
0.000000 0.843573 0.971356
0.843573 0.843573 0.971356
0.903720 0.843573 0.971356
0.935100 0.843573 0.971356
0.955931 0.843573 0.971356
0.971356 0.843573 0.971356
0.983524 0.843573 0.971356
0.993528 0.843573 0.971356
0.000000 0.903720 0.971356
0.843573 0.903720 0.971356
0.903720 0.903720 0.971356
0.935100 0.903720 0.971356
0.955931 0.903720 0.971356
0.971356 0.903720 0.971356
0.983524 0.903720 0.971356
0.993528 0.903720 0.971356
0.000000 0.935100 0.971356
0.843573 0.935100 0.971356
0.903720 0.935100 0.971356
0.935100 0.935100 0.971356
0.955931 0.935100 0.971356
0.971356 0.935100 0.971356
0.983524 0.935100 0.971356
0.993528 0.935100 0.971356
0.000000 0.955931 0.971356
0.843573 0.955931 0.971356
0.903720 0.955931 0.971356
0.935100 0.955931 0.971356
0.955931 0.955931 0.971356
0.971356 0.955931 0.971356
0.983524 0.955931 0.971356
0.993528 0.955931 0.971356
0.000000 0.971356 0.971356
0.843573 0.971356 0.971356
0.903720 0.971356 0.971356
0.935100 0.971356 0.971356
0.955931 0.971356 0.971356
0.971356 0.971356 0.971356
0.983524 0.971356 0.971356
0.993528 0.971356 0.971356
0.000000 0.983524 0.971356
0.843573 0.983524 0.971356
0.903720 0.983524 0.971356
0.935100 0.983524 0.971356
0.955931 0.983524 0.971356
0.971356 0.983524 0.971356
0.983524 0.983524 0.971356
0.993528 0.983524 0.971356
0.000000 0.993528 0.971356
0.843573 0.993528 0.971356
0.903720 0.993528 0.971356
0.935100 0.993528 0.971356
0.955931 0.993528 0.971356
0.971356 0.993528 0.971356
0.983524 0.993528 0.971356
0.993528 0.993528 0.971356
0.000000 0.000000 0.983524
0.843573 0.000000 0.983524
0.903720 0.000000 0.983524
0.935100 0.000000 0.983524
0.955931 0.000000 0.983524
0.971356 0.000000 0.983524
0.983524 0.000000 0.983524
0.993528 0.000000 0.983524
0.000000 0.843573 0.983524
0.843573 0.843573 0.983524
0.903720 0.843573 0.983524
0.935100 0.843573 0.983524
0.955931 0.843573 0.983524
0.971356 0.843573 0.983524
0.983524 0.843573 0.983524
0.993528 0.843573 0.983524
0.000000 0.903720 0.983524
0.843573 0.903720 0.983524
0.903720 0.903720 0.983524
0.935100 0.903720 0.983524
0.955931 0.903720 0.983524
0.971356 0.903720 0.983524
0.983524 0.903720 0.983524
0.993528 0.903720 0.983524
0.000000 0.935100 0.983524
0.843573 0.935100 0.983524
0.903720 0.935100 0.983524
0.935100 0.935100 0.983524
0.955931 0.935100 0.983524
0.971356 0.935100 0.983524
0.983524 0.935100 0.983524
0.993528 0.935100 0.983524
0.000000 0.955931 0.983524
0.843573 0.955931 0.983524
0.903720 0.955931 0.983524
0.935100 0.955931 0.983524
0.955931 0.955931 0.983524
0.971356 0.955931 0.983524
0.983524 0.955931 0.983524
0.993528 0.955931 0.983524
0.000000 0.971356 0.983524
0.843573 0.971356 0.983524
0.903720 0.971356 0.983524
0.935100 0.971356 0.983524
0.955931 0.971356 0.983524
0.971356 0.971356 0.983524
0.983524 0.971356 0.983524
0.993528 0.971356 0.983524
0.000000 0.983524 0.983524
0.843573 0.983524 0.983524
0.903720 0.983524 0.983524
0.935100 0.983524 0.983524
0.955931 0.983524 0.983524
0.971356 0.983524 0.983524
0.983524 0.983524 0.983524
0.993528 0.983524 0.983524
0.000000 0.993528 0.983524
0.843573 0.993528 0.983524
0.903720 0.993528 0.983524
0.935100 0.993528 0.983524
0.955931 0.993528 0.983524
0.971356 0.993528 0.983524
0.983524 0.993528 0.983524
0.993528 0.993528 0.983524
0.000000 0.000000 0.993528
0.843573 0.000000 0.993528
0.903720 0.000000 0.993528
0.935100 0.000000 0.993528
0.955931 0.000000 0.993528
0.971356 0.000000 0.993528
0.983524 0.000000 0.993528
0.993528 0.000000 0.993528
0.000000 0.843573 0.993528
0.843573 0.843573 0.993528
0.903720 0.843573 0.993528
0.935100 0.843573 0.993528
0.955931 0.843573 0.993528
0.971356 0.843573 0.993528
0.983524 0.843573 0.993528
0.993528 0.843573 0.993528
0.000000 0.903720 0.993528
0.843573 0.903720 0.993528
0.903720 0.903720 0.993528
0.935100 0.903720 0.993528
0.955931 0.903720 0.993528
0.971356 0.903720 0.993528
0.983524 0.903720 0.993528
0.993528 0.903720 0.993528
0.000000 0.935100 0.993528
0.843573 0.935100 0.993528
0.903720 0.935100 0.993528
0.935100 0.935100 0.993528
0.955931 0.935100 0.993528
0.971356 0.935100 0.993528
0.983524 0.935100 0.993528
0.993528 0.935100 0.993528
0.000000 0.955931 0.993528
0.843573 0.955931 0.993528
0.903720 0.955931 0.993528
0.935100 0.955931 0.993528
0.955931 0.955931 0.993528
0.971356 0.955931 0.993528
0.983524 0.955931 0.993528
0.993528 0.955931 0.993528
0.000000 0.971356 0.993528
0.843573 0.971356 0.993528
0.903720 0.971356 0.993528
0.935100 0.971356 0.993528
0.955931 0.971356 0.993528
0.971356 0.971356 0.993528
0.983524 0.971356 0.993528
0.993528 0.971356 0.993528
0.000000 0.983524 0.993528
0.843573 0.983524 0.993528
0.903720 0.983524 0.993528
0.935100 0.983524 0.993528
0.955931 0.983524 0.993528
0.971356 0.983524 0.993528
0.983524 0.983524 0.993528
0.993528 0.983524 0.993528
0.000000 0.993528 0.993528
0.843573 0.993528 0.993528
0.903720 0.993528 0.993528
0.935100 0.993528 0.993528
0.955931 0.993528 0.993528
0.971356 0.993528 0.993528
0.983524 0.993528 0.993528
0.993528 0.993528 0.993528
