.nuke/nuke.LUT/linear-2-logC_exteded/AlexaV3_EI0320_Linear2LogC_EE_nuke3d.cube
# Alexa conversion LUT, lin2logc. Full in/full out.
# created by alexalutconv (2.07)
LUT_3D_SIZE 32
0.000000 0.000000 0.000000
0.479214 0.000000 0.000000
0.563103 0.000000 0.000000
0.610670 0.000000 0.000000
0.644020 0.000000 0.000000
0.669725 0.000000 0.000000
0.690644 0.000000 0.000000
0.708282 0.000000 0.000000
0.723531 0.000000 0.000000
0.736961 0.000000 0.000000
0.748961 0.000000 0.000000
0.759805 0.000000 0.000000
0.769698 0.000000 0.000000
0.778792 0.000000 0.000000
0.787206 0.000000 0.000000
0.795036 0.000000 0.000000
0.802358 0.000000 0.000000
0.809234 0.000000 0.000000
0.815713 0.000000 0.000000
0.821841 0.000000 0.000000
0.827653 0.000000 0.000000
0.833179 0.000000 0.000000
0.838448 0.000000 0.000000
0.843481 0.000000 0.000000
0.848300 0.000000 0.000000
0.852920 0.000000 0.000000
0.857359 0.000000 0.000000
0.861630 0.000000 0.000000
0.865744 0.000000 0.000000
0.869714 0.000000 0.000000
0.873549 0.000000 0.000000
0.877258 0.000000 0.000000
0.000000 0.479214 0.000000
0.479214 0.479214 0.000000
0.563103 0.479214 0.000000
0.610670 0.479214 0.000000
0.644020 0.479214 0.000000
0.669725 0.479214 0.000000
0.690644 0.479214 0.000000
0.708282 0.479214 0.000000
0.723531 0.479214 0.000000
0.736961 0.479214 0.000000
0.748961 0.479214 0.000000
0.759805 0.479214 0.000000
0.769698 0.479214 0.000000
0.778792 0.479214 0.000000
0.787206 0.479214 0.000000
0.795036 0.479214 0.000000
0.802358 0.479214 0.000000
0.809234 0.479214 0.000000
0.815713 0.479214 0.000000
0.821841 0.479214 0.000000
0.827653 0.479214 0.000000
0.833179 0.479214 0.000000
0.838448 0.479214 0.000000
0.843481 0.479214 0.000000
0.848300 0.479214 0.000000
0.852920 0.479214 0.000000
0.857359 0.479214 0.000000
0.861630 0.479214 0.000000
0.865744 0.479214 0.000000
0.869714 0.479214 0.000000
0.873549 0.479214 0.000000
0.877258 0.479214 0.000000
0.000000 0.563103 0.000000
0.479214 0.563103 0.000000
0.563103 0.563103 0.000000
0.610670 0.563103 0.000000
0.644020 0.563103 0.000000
0.669725 0.563103 0.000000
0.690644 0.563103 0.000000
0.708282 0.563103 0.000000
0.723531 0.563103 0.000000
0.736961 0.563103 0.000000
0.748961 0.563103 0.000000
0.759805 0.563103 0.000000
0.769698 0.563103 0.000000
0.778792 0.563103 0.000000
0.787206 0.563103 0.000000
0.795036 0.563103 0.000000
0.802358 0.563103 0.000000
0.809234 0.563103 0.000000
0.815713 0.563103 0.000000
0.821841 0.563103 0.000000
0.827653 0.563103 0.000000
0.833179 0.563103 0.000000
0.838448 0.563103 0.000000
0.843481 0.563103 0.000000
0.848300 0.563103 0.000000
0.852920 0.563103 0.000000
0.857359 0.563103 0.000000
0.861630 0.563103 0.000000
0.865744 0.563103 0.000000
0.869714 0.563103 0.000000
0.873549 0.563103 0.000000
0.877258 0.563103 0.000000
0.000000 0.610670 0.000000
0.479214 0.610670 0.000000
0.563103 0.610670 0.000000
0.610670 0.610670 0.000000
0.644020 0.610670 0.000000
0.669725 0.610670 0.000000
0.690644 0.610670 0.000000
0.708282 0.610670 0.000000
0.723531 0.610670 0.000000
0.736961 0.610670 0.000000
0.748961 0.610670 0.000000
0.759805 0.610670 0.000000
0.769698 0.610670 0.000000
0.778792 0.610670 0.000000
0.787206 0.610670 0.000000
0.795036 0.610670 0.000000
0.802358 0.610670 0.000000
0.809234 0.610670 0.000000
0.815713 0.610670 0.000000
0.821841 0.610670 0.000000
0.827653 0.610670 0.000000
0.833179 0.610670 0.000000
0.838448 0.610670 0.000000
0.843481 0.610670 0.000000
0.848300 0.610670 0.000000
0.852920 0.610670 0.000000
0.857359 0.610670 0.000000
0.861630 0.610670 0.000000
0.865744 0.610670 0.000000
0.869714 0.610670 0.000000
0.873549 0.610670 0.000000
0.877258 0.610670 0.000000
0.000000 0.644020 0.000000
0.479214 0.644020 0.000000
0.563103 0.644020 0.000000
0.610670 0.644020 0.000000
0.644020 0.644020 0.000000
0.669725 0.644020 0.000000
0.690644 0.644020 0.000000
0.708282 0.644020 0.000000
0.723531 0.644020 0.000000
0.736961 0.644020 0.000000
0.748961 0.644020 0.000000
0.759805 0.644020 0.000000
0.769698 0.644020 0.000000
0.778792 0.644020 0.000000
0.787206 0.644020 0.000000
0.795036 0.644020 0.000000
0.802358 0.644020 0.000000
0.809234 0.644020 0.000000
0.815713 0.644020 0.000000
0.821841 0.644020 0.000000
0.827653 0.644020 0.000000
0.833179 0.644020 0.000000
0.838448 0.644020 0.000000
0.843481 0.644020 0.000000
0.848300 0.644020 0.000000
0.852920 0.644020 0.000000
0.857359 0.644020 0.000000
0.861630 0.644020 0.000000
0.865744 0.644020 0.000000
0.869714 0.644020 0.000000
0.873549 0.644020 0.000000
0.877258 0.644020 0.000000
0.000000 0.669725 0.000000
0.479214 0.669725 0.000000
0.563103 0.669725 0.000000
0.610670 0.669725 0.000000
0.644020 0.669725 0.000000
0.669725 0.669725 0.000000
0.690644 0.669725 0.000000
0.708282 0.669725 0.000000
0.723531 0.669725 0.000000
0.736961 0.669725 0.000000
0.748961 0.669725 0.000000
0.759805 0.669725 0.000000
0.769698 0.669725 0.000000
0.778792 0.669725 0.000000
0.787206 0.669725 0.000000
0.795036 0.669725 0.000000
0.802358 0.669725 0.000000
0.809234 0.669725 0.000000
0.815713 0.669725 0.000000
0.821841 0.669725 0.000000
0.827653 0.669725 0.000000
0.833179 0.669725 0.000000
0.838448 0.669725 0.000000
0.843481 0.669725 0.000000
0.848300 0.669725 0.000000
0.852920 0.669725 0.000000
0.857359 0.669725 0.000000
0.861630 0.669725 0.000000
0.865744 0.669725 0.000000
0.869714 0.669725 0.000000
0.873549 0.669725 0.000000
0.877258 0.669725 0.000000
0.000000 0.690644 0.000000
0.479214 0.690644 0.000000
0.563103 0.690644 0.000000
0.610670 0.690644 0.000000
0.644020 0.690644 0.000000
0.669725 0.690644 0.000000
0.690644 0.690644 0.000000
0.708282 0.690644 0.000000
0.723531 0.690644 0.000000
0.736961 0.690644 0.000000
0.748961 0.690644 0.000000
0.759805 0.690644 0.000000
0.769698 0.690644 0.000000
0.778792 0.690644 0.000000
0.787206 0.690644 0.000000
0.795036 0.690644 0.000000
0.802358 0.690644 0.000000
0.809234 0.690644 0.000000
0.815713 0.690644 0.000000
0.821841 0.690644 0.000000
0.827653 0.690644 0.000000
0.833179 0.690644 0.000000
0.838448 0.690644 0.000000
0.843481 0.690644 0.000000
0.848300 0.690644 0.000000
0.852920 0.690644 0.000000
0.857359 0.690644 0.000000
0.861630 0.690644 0.000000
0.865744 0.690644 0.000000
0.869714 0.690644 0.000000
0.873549 0.690644 0.000000
0.877258 0.690644 0.000000
0.000000 0.708282 0.000000
0.479214 0.708282 0.000000
0.563103 0.708282 0.000000
0.610670 0.708282 0.000000
0.644020 0.708282 0.000000
0.669725 0.708282 0.000000
0.690644 0.708282 0.000000
0.708282 0.708282 0.000000
0.723531 0.708282 0.000000
0.736961 0.708282 0.000000
0.748961 0.708282 0.000000
0.759805 0.708282 0.000000
0.769698 0.708282 0.000000
0.778792 0.708282 0.000000
0.787206 0.708282 0.000000
0.795036 0.708282 0.000000
0.802358 0.708282 0.000000
0.809234 0.708282 0.000000
0.815713 0.708282 0.000000
0.821841 0.708282 0.000000
0.827653 0.708282 0.000000
0.833179 0.708282 0.000000
0.838448 0.708282 0.000000
0.843481 0.708282 0.000000
0.848300 0.708282 0.000000
0.852920 0.708282 0.000000
0.857359 0.708282 0.000000
0.861630 0.708282 0.000000
0.865744 0.708282 0.000000
0.869714 0.708282 0.000000
0.873549 0.708282 0.000000
0.877258 0.708282 0.000000
0.000000 0.723531 0.000000
0.479214 0.723531 0.000000
0.563103 0.723531 0.000000
0.610670 0.723531 0.000000
0.644020 0.723531 0.000000
0.669725 0.723531 0.000000
0.690644 0.723531 0.000000
0.708282 0.723531 0.000000
0.723531 0.723531 0.000000
0.736961 0.723531 0.000000
0.748961 0.723531 0.000000
0.759805 0.723531 0.000000
0.769698 0.723531 0.000000
0.778792 0.723531 0.000000
0.787206 0.723531 0.000000
0.795036 0.723531 0.000000
0.802358 0.723531 0.000000
0.809234 0.723531 0.000000
0.815713 0.723531 0.000000
0.821841 0.723531 0.000000
0.827653 0.723531 0.000000
0.833179 0.723531 0.000000
0.838448 0.723531 0.000000
0.843481 0.723531 0.000000
0.848300 0.723531 0.000000
0.852920 0.723531 0.000000
0.857359 0.723531 0.000000
0.861630 0.723531 0.000000
0.865744 0.723531 0.000000
0.869714 0.723531 0.000000
0.873549 0.723531 0.000000
0.877258 0.723531 0.000000
0.000000 0.736961 0.000000
0.479214 0.736961 0.000000
0.563103 0.736961 0.000000
0.610670 0.736961 0.000000
0.644020 0.736961 0.000000
0.669725 0.736961 0.000000
0.690644 0.736961 0.000000
0.708282 0.736961 0.000000
0.723531 0.736961 0.000000
0.736961 0.736961 0.000000
0.748961 0.736961 0.000000
0.759805 0.736961 0.000000
0.769698 0.736961 0.000000
0.778792 0.736961 0.000000
0.787206 0.736961 0.000000
0.795036 0.736961 0.000000
0.802358 0.736961 0.000000
0.809234 0.736961 0.000000
0.815713 0.736961 0.000000
0.821841 0.736961 0.000000
0.827653 0.736961 0.000000
0.833179 0.736961 0.000000
0.838448 0.736961 0.000000
0.843481 0.736961 0.000000
0.848300 0.736961 0.000000
0.852920 0.736961 0.000000
0.857359 0.736961 0.000000
0.861630 0.736961 0.000000
0.865744 0.736961 0.000000
0.869714 0.736961 0.000000
0.873549 0.736961 0.000000
0.877258 0.736961 0.000000
0.000000 0.748961 0.000000
0.479214 0.748961 0.000000
0.563103 0.748961 0.000000
0.610670 0.748961 0.000000
0.644020 0.748961 0.000000
0.669725 0.748961 0.000000
0.690644 0.748961 0.000000
0.708282 0.748961 0.000000
0.723531 0.748961 0.000000
0.736961 0.748961 0.000000
0.748961 0.748961 0.000000
0.759805 0.748961 0.000000
0.769698 0.748961 0.000000
0.778792 0.748961 0.000000
0.787206 0.748961 0.000000
0.795036 0.748961 0.000000
0.802358 0.748961 0.000000
0.809234 0.748961 0.000000
0.815713 0.748961 0.000000
0.821841 0.748961 0.000000
0.827653 0.748961 0.000000
0.833179 0.748961 0.000000
0.838448 0.748961 0.000000
0.843481 0.748961 0.000000
0.848300 0.748961 0.000000
0.852920 0.748961 0.000000
0.857359 0.748961 0.000000
0.861630 0.748961 0.000000
0.865744 0.748961 0.000000
0.869714 0.748961 0.000000
0.873549 0.748961 0.000000
0.877258 0.748961 0.000000
0.000000 0.759805 0.000000
0.479214 0.759805 0.000000
0.563103 0.759805 0.000000
0.610670 0.759805 0.000000
0.644020 0.759805 0.000000
0.669725 0.759805 0.000000
0.690644 0.759805 0.000000
0.708282 0.759805 0.000000
0.723531 0.759805 0.000000
0.736961 0.759805 0.000000
0.748961 0.759805 0.000000
0.759805 0.759805 0.000000
0.769698 0.759805 0.000000
0.778792 0.759805 0.000000
0.787206 0.759805 0.000000
0.795036 0.759805 0.000000
0.802358 0.759805 0.000000
0.809234 0.759805 0.000000
0.815713 0.759805 0.000000
0.821841 0.759805 0.000000
0.827653 0.759805 0.000000
0.833179 0.759805 0.000000
0.838448 0.759805 0.000000
0.843481 0.759805 0.000000
0.848300 0.759805 0.000000
0.852920 0.759805 0.000000
0.857359 0.759805 0.000000
0.861630 0.759805 0.000000
0.865744 0.759805 0.000000
0.869714 0.759805 0.000000
0.873549 0.759805 0.000000
0.877258 0.759805 0.000000
0.000000 0.769698 0.000000
0.479214 0.769698 0.000000
0.563103 0.769698 0.000000
0.610670 0.769698 0.000000
0.644020 0.769698 0.000000
0.669725 0.769698 0.000000
0.690644 0.769698 0.000000
0.708282 0.769698 0.000000
0.723531 0.769698 0.000000
0.736961 0.769698 0.000000
0.748961 0.769698 0.000000
0.759805 0.769698 0.000000
0.769698 0.769698 0.000000
0.778792 0.769698 0.000000
0.787206 0.769698 0.000000
0.795036 0.769698 0.000000
0.802358 0.769698 0.000000
0.809234 0.769698 0.000000
0.815713 0.769698 0.000000
0.821841 0.769698 0.000000
0.827653 0.769698 0.000000
0.833179 0.769698 0.000000
0.838448 0.769698 0.000000
0.843481 0.769698 0.000000
0.848300 0.769698 0.000000
0.852920 0.769698 0.000000
0.857359 0.769698 0.000000
0.861630 0.769698 0.000000
0.865744 0.769698 0.000000
0.869714 0.769698 0.000000
0.873549 0.769698 0.000000
0.877258 0.769698 0.000000
0.000000 0.778792 0.000000
0.479214 0.778792 0.000000
0.563103 0.778792 0.000000
0.610670 0.778792 0.000000
0.644020 0.778792 0.000000
0.669725 0.778792 0.000000
0.690644 0.778792 0.000000
0.708282 0.778792 0.000000
0.723531 0.778792 0.000000
0.736961 0.778792 0.000000
0.748961 0.778792 0.000000
0.759805 0.778792 0.000000
0.769698 0.778792 0.000000
0.778792 0.778792 0.000000
0.787206 0.778792 0.000000
0.795036 0.778792 0.000000
0.802358 0.778792 0.000000
0.809234 0.778792 0.000000
0.815713 0.778792 0.000000
0.821841 0.778792 0.000000
0.827653 0.778792 0.000000
0.833179 0.778792 0.000000
0.838448 0.778792 0.000000
0.843481 0.778792 0.000000
0.848300 0.778792 0.000000
0.852920 0.778792 0.000000
0.857359 0.778792 0.000000
0.861630 0.778792 0.000000
0.865744 0.778792 0.000000
0.869714 0.778792 0.000000
0.873549 0.778792 0.000000
0.877258 0.778792 0.000000
0.000000 0.787206 0.000000
0.479214 0.787206 0.000000
0.563103 0.787206 0.000000
0.610670 0.787206 0.000000
0.644020 0.787206 0.000000
0.669725 0.787206 0.000000
0.690644 0.787206 0.000000
0.708282 0.787206 0.000000
0.723531 0.787206 0.000000
0.736961 0.787206 0.000000
0.748961 0.787206 0.000000
0.759805 0.787206 0.000000
0.769698 0.787206 0.000000
0.778792 0.787206 0.000000
0.787206 0.787206 0.000000
0.795036 0.787206 0.000000
0.802358 0.787206 0.000000
0.809234 0.787206 0.000000
0.815713 0.787206 0.000000
0.821841 0.787206 0.000000
0.827653 0.787206 0.000000
0.833179 0.787206 0.000000
0.838448 0.787206 0.000000
0.843481 0.787206 0.000000
0.848300 0.787206 0.000000
0.852920 0.787206 0.000000
0.857359 0.787206 0.000000
0.861630 0.787206 0.000000
0.865744 0.787206 0.000000
0.869714 0.787206 0.000000
0.873549 0.787206 0.000000
0.877258 0.787206 0.000000
0.000000 0.795036 0.000000
0.479214 0.795036 0.000000
0.563103 0.795036 0.000000
0.610670 0.795036 0.000000
0.644020 0.795036 0.000000
0.669725 0.795036 0.000000
0.690644 0.795036 0.000000
0.708282 0.795036 0.000000
0.723531 0.795036 0.000000
0.736961 0.795036 0.000000
0.748961 0.795036 0.000000
0.759805 0.795036 0.000000
0.769698 0.795036 0.000000
0.778792 0.795036 0.000000
0.787206 0.795036 0.000000
0.795036 0.795036 0.000000
0.802358 0.795036 0.000000
0.809234 0.795036 0.000000
0.815713 0.795036 0.000000
0.821841 0.795036 0.000000
0.827653 0.795036 0.000000
0.833179 0.795036 0.000000
0.838448 0.795036 0.000000
0.843481 0.795036 0.000000
0.848300 0.795036 0.000000
0.852920 0.795036 0.000000
0.857359 0.795036 0.000000
0.861630 0.795036 0.000000
0.865744 0.795036 0.000000
0.869714 0.795036 0.000000
0.873549 0.795036 0.000000
0.877258 0.795036 0.000000
0.000000 0.802358 0.000000
0.479214 0.802358 0.000000
0.563103 0.802358 0.000000
0.610670 0.802358 0.000000
0.644020 0.802358 0.000000
0.669725 0.802358 0.000000
0.690644 0.802358 0.000000
0.708282 0.802358 0.000000
0.723531 0.802358 0.000000
0.736961 0.802358 0.000000
0.748961 0.802358 0.000000
0.759805 0.802358 0.000000
0.769698 0.802358 0.000000
0.778792 0.802358 0.000000
0.787206 0.802358 0.000000
0.795036 0.802358 0.000000
0.802358 0.802358 0.000000
0.809234 0.802358 0.000000
0.815713 0.802358 0.000000
0.821841 0.802358 0.000000
0.827653 0.802358 0.000000
0.833179 0.802358 0.000000
0.838448 0.802358 0.000000
0.843481 0.802358 0.000000
0.848300 0.802358 0.000000
0.852920 0.802358 0.000000
0.857359 0.802358 0.000000
0.861630 0.802358 0.000000
0.865744 0.802358 0.000000
0.869714 0.802358 0.000000
0.873549 0.802358 0.000000
0.877258 0.802358 0.000000
0.000000 0.809234 0.000000
0.479214 0.809234 0.000000
0.563103 0.809234 0.000000
0.610670 0.809234 0.000000
0.644020 0.809234 0.000000
0.669725 0.809234 0.000000
0.690644 0.809234 0.000000
0.708282 0.809234 0.000000
0.723531 0.809234 0.000000
0.736961 0.809234 0.000000
0.748961 0.809234 0.000000
0.759805 0.809234 0.000000
0.769698 0.809234 0.000000
0.778792 0.809234 0.000000
0.787206 0.809234 0.000000
0.795036 0.809234 0.000000
0.802358 0.809234 0.000000
0.809234 0.809234 0.000000
0.815713 0.809234 0.000000
0.821841 0.809234 0.000000
0.827653 0.809234 0.000000
0.833179 0.809234 0.000000
0.838448 0.809234 0.000000
0.843481 0.809234 0.000000
0.848300 0.809234 0.000000
0.852920 0.809234 0.000000
0.857359 0.809234 0.000000
0.861630 0.809234 0.000000
0.865744 0.809234 0.000000
0.869714 0.809234 0.000000
0.873549 0.809234 0.000000
0.877258 0.809234 0.000000
0.000000 0.815713 0.000000
0.479214 0.815713 0.000000
0.563103 0.815713 0.000000
0.610670 0.815713 0.000000
0.644020 0.815713 0.000000
0.669725 0.815713 0.000000
0.690644 0.815713 0.000000
0.708282 0.815713 0.000000
0.723531 0.815713 0.000000
0.736961 0.815713 0.000000
0.748961 0.815713 0.000000
0.759805 0.815713 0.000000
0.769698 0.815713 0.000000
0.778792 0.815713 0.000000
0.787206 0.815713 0.000000
0.795036 0.815713 0.000000
0.802358 0.815713 0.000000
0.809234 0.815713 0.000000
0.815713 0.815713 0.000000
0.821841 0.815713 0.000000
0.827653 0.815713 0.000000
0.833179 0.815713 0.000000
0.838448 0.815713 0.000000
0.843481 0.815713 0.000000
0.848300 0.815713 0.000000
0.852920 0.815713 0.000000
0.857359 0.815713 0.000000
0.861630 0.815713 0.000000
0.865744 0.815713 0.000000
0.869714 0.815713 0.000000
0.873549 0.815713 0.000000
0.877258 0.815713 0.000000
0.000000 0.821841 0.000000
0.479214 0.821841 0.000000
0.563103 0.821841 0.000000
0.610670 0.821841 0.000000
0.644020 0.821841 0.000000
0.669725 0.821841 0.000000
0.690644 0.821841 0.000000
0.708282 0.821841 0.000000
0.723531 0.821841 0.000000
0.736961 0.821841 0.000000
0.748961 0.821841 0.000000
0.759805 0.821841 0.000000
0.769698 0.821841 0.000000
0.778792 0.821841 0.000000
0.787206 0.821841 0.000000
0.795036 0.821841 0.000000
0.802358 0.821841 0.000000
0.809234 0.821841 0.000000
0.815713 0.821841 0.000000
0.821841 0.821841 0.000000
0.827653 0.821841 0.000000
0.833179 0.821841 0.000000
0.838448 0.821841 0.000000
0.843481 0.821841 0.000000
0.848300 0.821841 0.000000
0.852920 0.821841 0.000000
0.857359 0.821841 0.000000
0.861630 0.821841 0.000000
0.865744 0.821841 0.000000
0.869714 0.821841 0.000000
0.873549 0.821841 0.000000
0.877258 0.821841 0.000000
0.000000 0.827653 0.000000
0.479214 0.827653 0.000000
0.563103 0.827653 0.000000
0.610670 0.827653 0.000000
0.644020 0.827653 0.000000
0.669725 0.827653 0.000000
0.690644 0.827653 0.000000
0.708282 0.827653 0.000000
0.723531 0.827653 0.000000
0.736961 0.827653 0.000000
0.748961 0.827653 0.000000
0.759805 0.827653 0.000000
0.769698 0.827653 0.000000
0.778792 0.827653 0.000000
0.787206 0.827653 0.000000
0.795036 0.827653 0.000000
0.802358 0.827653 0.000000
0.809234 0.827653 0.000000
0.815713 0.827653 0.000000
0.821841 0.827653 0.000000
0.827653 0.827653 0.000000
0.833179 0.827653 0.000000
0.838448 0.827653 0.000000
0.843481 0.827653 0.000000
0.848300 0.827653 0.000000
0.852920 0.827653 0.000000
0.857359 0.827653 0.000000
0.861630 0.827653 0.000000
0.865744 0.827653 0.000000
0.869714 0.827653 0.000000
0.873549 0.827653 0.000000
0.877258 0.827653 0.000000
0.000000 0.833179 0.000000
0.479214 0.833179 0.000000
0.563103 0.833179 0.000000
0.610670 0.833179 0.000000
0.644020 0.833179 0.000000
0.669725 0.833179 0.000000
0.690644 0.833179 0.000000
0.708282 0.833179 0.000000
0.723531 0.833179 0.000000
0.736961 0.833179 0.000000
0.748961 0.833179 0.000000
0.759805 0.833179 0.000000
0.769698 0.833179 0.000000
0.778792 0.833179 0.000000
0.787206 0.833179 0.000000
0.795036 0.833179 0.000000
0.802358 0.833179 0.000000
0.809234 0.833179 0.000000
0.815713 0.833179 0.000000
0.821841 0.833179 0.000000
0.827653 0.833179 0.000000
0.833179 0.833179 0.000000
0.838448 0.833179 0.000000
0.843481 0.833179 0.000000
0.848300 0.833179 0.000000
0.852920 0.833179 0.000000
0.857359 0.833179 0.000000
0.861630 0.833179 0.000000
0.865744 0.833179 0.000000
0.869714 0.833179 0.000000
0.873549 0.833179 0.000000
0.877258 0.833179 0.000000
0.000000 0.838448 0.000000
0.479214 0.838448 0.000000
0.563103 0.838448 0.000000
0.610670 0.838448 0.000000
0.644020 0.838448 0.000000
0.669725 0.838448 0.000000
0.690644 0.838448 0.000000
0.708282 0.838448 0.000000
0.723531 0.838448 0.000000
0.736961 0.838448 0.000000
0.748961 0.838448 0.000000
0.759805 0.838448 0.000000
0.769698 0.838448 0.000000
0.778792 0.838448 0.000000
0.787206 0.838448 0.000000
0.795036 0.838448 0.000000
0.802358 0.838448 0.000000
0.809234 0.838448 0.000000
0.815713 0.838448 0.000000
0.821841 0.838448 0.000000
0.827653 0.838448 0.000000
0.833179 0.838448 0.000000
0.838448 0.838448 0.000000
0.843481 0.838448 0.000000
0.848300 0.838448 0.000000
0.852920 0.838448 0.000000
0.857359 0.838448 0.000000
0.861630 0.838448 0.000000
0.865744 0.838448 0.000000
0.869714 0.838448 0.000000
0.873549 0.838448 0.000000
0.877258 0.838448 0.000000
0.000000 0.843481 0.000000
0.479214 0.843481 0.000000
0.563103 0.843481 0.000000
0.610670 0.843481 0.000000
0.644020 0.843481 0.000000
0.669725 0.843481 0.000000
0.690644 0.843481 0.000000
0.708282 0.843481 0.000000
0.723531 0.843481 0.000000
0.736961 0.843481 0.000000
0.748961 0.843481 0.000000
0.759805 0.843481 0.000000
0.769698 0.843481 0.000000
0.778792 0.843481 0.000000
0.787206 0.843481 0.000000
0.795036 0.843481 0.000000
0.802358 0.843481 0.000000
0.809234 0.843481 0.000000
0.815713 0.843481 0.000000
0.821841 0.843481 0.000000
0.827653 0.843481 0.000000
0.833179 0.843481 0.000000
0.838448 0.843481 0.000000
0.843481 0.843481 0.000000
0.848300 0.843481 0.000000
0.852920 0.843481 0.000000
0.857359 0.843481 0.000000
0.861630 0.843481 0.000000
0.865744 0.843481 0.000000
0.869714 0.843481 0.000000
0.873549 0.843481 0.000000
0.877258 0.843481 0.000000
0.000000 0.848300 0.000000
0.479214 0.848300 0.000000
0.563103 0.848300 0.000000
0.610670 0.848300 0.000000
0.644020 0.848300 0.000000
0.669725 0.848300 0.000000
0.690644 0.848300 0.000000
0.708282 0.848300 0.000000
0.723531 0.848300 0.000000
0.736961 0.848300 0.000000
0.748961 0.848300 0.000000
0.759805 0.848300 0.000000
0.769698 0.848300 0.000000
0.778792 0.848300 0.000000
0.787206 0.848300 0.000000
0.795036 0.848300 0.000000
0.802358 0.848300 0.000000
0.809234 0.848300 0.000000
0.815713 0.848300 0.000000
0.821841 0.848300 0.000000
0.827653 0.848300 0.000000
0.833179 0.848300 0.000000
0.838448 0.848300 0.000000
0.843481 0.848300 0.000000
0.848300 0.848300 0.000000
0.852920 0.848300 0.000000
0.857359 0.848300 0.000000
0.861630 0.848300 0.000000
0.865744 0.848300 0.000000
0.869714 0.848300 0.000000
0.873549 0.848300 0.000000
0.877258 0.848300 0.000000
0.000000 0.852920 0.000000
0.479214 0.852920 0.000000
0.563103 0.852920 0.000000
0.610670 0.852920 0.000000
0.644020 0.852920 0.000000
0.669725 0.852920 0.000000
0.690644 0.852920 0.000000
0.708282 0.852920 0.000000
0.723531 0.852920 0.000000
0.736961 0.852920 0.000000
0.748961 0.852920 0.000000
0.759805 0.852920 0.000000
0.769698 0.852920 0.000000
0.778792 0.852920 0.000000
0.787206 0.852920 0.000000
0.795036 0.852920 0.000000
0.802358 0.852920 0.000000
0.809234 0.852920 0.000000
0.815713 0.852920 0.000000
0.821841 0.852920 0.000000
0.827653 0.852920 0.000000
0.833179 0.852920 0.000000
0.838448 0.852920 0.000000
0.843481 0.852920 0.000000
0.848300 0.852920 0.000000
0.852920 0.852920 0.000000
0.857359 0.852920 0.000000
0.861630 0.852920 0.000000
0.865744 0.852920 0.000000
0.869714 0.852920 0.000000
0.873549 0.852920 0.000000
0.877258 0.852920 0.000000
0.000000 0.857359 0.000000
0.479214 0.857359 0.000000
0.563103 0.857359 0.000000
0.610670 0.857359 0.000000
0.644020 0.857359 0.000000
0.669725 0.857359 0.000000
0.690644 0.857359 0.000000
0.708282 0.857359 0.000000
0.723531 0.857359 0.000000
0.736961 0.857359 0.000000
0.748961 0.857359 0.000000
0.759805 0.857359 0.000000
0.769698 0.857359 0.000000
0.778792 0.857359 0.000000
0.787206 0.857359 0.000000
0.795036 0.857359 0.000000
0.802358 0.857359 0.000000
0.809234 0.857359 0.000000
0.815713 0.857359 0.000000
0.821841 0.857359 0.000000
0.827653 0.857359 0.000000
0.833179 0.857359 0.000000
0.838448 0.857359 0.000000
0.843481 0.857359 0.000000
0.848300 0.857359 0.000000
0.852920 0.857359 0.000000
0.857359 0.857359 0.000000
0.861630 0.857359 0.000000
0.865744 0.857359 0.000000
0.869714 0.857359 0.000000
0.873549 0.857359 0.000000
0.877258 0.857359 0.000000
0.000000 0.861630 0.000000
0.479214 0.861630 0.000000
0.563103 0.861630 0.000000
0.610670 0.861630 0.000000
0.644020 0.861630 0.000000
0.669725 0.861630 0.000000
0.690644 0.861630 0.000000
0.708282 0.861630 0.000000
0.723531 0.861630 0.000000
0.736961 0.861630 0.000000
0.748961 0.861630 0.000000
0.759805 0.861630 0.000000
0.769698 0.861630 0.000000
0.778792 0.861630 0.000000
0.787206 0.861630 0.000000
0.795036 0.861630 0.000000
0.802358 0.861630 0.000000
0.809234 0.861630 0.000000
0.815713 0.861630 0.000000
0.821841 0.861630 0.000000
0.827653 0.861630 0.000000
