.nuke/nuke.LUT/linear-2-logC_exteded/AlexaV3_EI0400_Linear2LogC_EE_nuke3d.cube
# Alexa conversion LUT, lin2logc. Full in/full out.
# created by alexalutconv (2.07)
LUT_3D_SIZE 8
DOMAIN_MIN 0.000000 0.000000 0.000000
DOMAIN_MAX 0.903226 0.903226 0.903226
0.000000 0.000000 0.000000
0.666153 0.000000 0.000000
0.744831 0.000000 0.000000
0.790489 0.000000 0.000000
0.822785 0.000000 0.000000
0.847793 0.000000 0.000000
0.868205 0.000000 0.000000
0.885451 0.000000 0.000000
0.000000 0.666153 0.000000
0.666153 0.666153 0.000000
0.744831 0.666153 0.000000
0.790489 0.666153 0.000000
0.822785 0.666153 0.000000
0.847793 0.666153 0.000000
0.868205 0.666153 0.000000
0.885451 0.666153 0.000000
0.000000 0.744831 0.000000
0.666153 0.744831 0.000000
0.744831 0.744831 0.000000
0.790489 0.744831 0.000000
0.822785 0.744831 0.000000
0.847793 0.744831 0.000000
0.868205 0.744831 0.000000
0.885451 0.744831 0.000000
0.000000 0.790489 0.000000
0.666153 0.790489 0.000000
0.744831 0.790489 0.000000
0.790489 0.790489 0.000000
0.822785 0.790489 0.000000
0.847793 0.790489 0.000000
0.868205 0.790489 0.000000
0.885451 0.790489 0.000000
0.000000 0.822785 0.000000
0.666153 0.822785 0.000000
0.744831 0.822785 0.000000
0.790489 0.822785 0.000000
0.822785 0.822785 0.000000
0.847793 0.822785 0.000000
0.868205 0.822785 0.000000
0.885451 0.822785 0.000000
0.000000 0.847793 0.000000
0.666153 0.847793 0.000000
0.744831 0.847793 0.000000
0.790489 0.847793 0.000000
0.822785 0.847793 0.000000
0.847793 0.847793 0.000000
0.868205 0.847793 0.000000
0.885451 0.847793 0.000000
0.000000 0.868205 0.000000
0.666153 0.868205 0.000000
0.744831 0.868205 0.000000
0.790489 0.868205 0.000000
0.822785 0.868205 0.000000
0.847793 0.868205 0.000000
0.868205 0.868205 0.000000
0.885451 0.868205 0.000000
0.000000 0.885451 0.000000
0.666153 0.885451 0.000000
0.744831 0.885451 0.000000
0.790489 0.885451 0.000000
0.822785 0.885451 0.000000
0.847793 0.885451 0.000000
0.868205 0.885451 0.000000
0.885451 0.885451 0.000000
0.000000 0.000000 0.666153
0.666153 0.000000 0.666153
0.744831 0.000000 0.666153
0.790489 0.000000 0.666153
0.822785 0.000000 0.666153
0.847793 0.000000 0.666153
0.868205 0.000000 0.666153
0.885451 0.000000 0.666153
0.000000 0.666153 0.666153
0.666153 0.666153 0.666153
0.744831 0.666153 0.666153
0.790489 0.666153 0.666153
0.822785 0.666153 0.666153
0.847793 0.666153 0.666153
0.868205 0.666153 0.666153
0.885451 0.666153 0.666153
0.000000 0.744831 0.666153
0.666153 0.744831 0.666153
0.744831 0.744831 0.666153
0.790489 0.744831 0.666153
0.822785 0.744831 0.666153
0.847793 0.744831 0.666153
0.868205 0.744831 0.666153
0.885451 0.744831 0.666153
0.000000 0.790489 0.666153
0.666153 0.790489 0.666153
0.744831 0.790489 0.666153
0.790489 0.790489 0.666153
0.822785 0.790489 0.666153
0.847793 0.790489 0.666153
0.868205 0.790489 0.666153
0.885451 0.790489 0.666153
0.000000 0.822785 0.666153
0.666153 0.822785 0.666153
0.744831 0.822785 0.666153
0.790489 0.822785 0.666153
0.822785 0.822785 0.666153
0.847793 0.822785 0.666153
0.868205 0.822785 0.666153
0.885451 0.822785 0.666153
0.000000 0.847793 0.666153
0.666153 0.847793 0.666153
0.744831 0.847793 0.666153
0.790489 0.847793 0.666153
0.822785 0.847793 0.666153
0.847793 0.847793 0.666153
0.868205 0.847793 0.666153
0.885451 0.847793 0.666153
0.000000 0.868205 0.666153
0.666153 0.868205 0.666153
0.744831 0.868205 0.666153
0.790489 0.868205 0.666153
0.822785 0.868205 0.666153
0.847793 0.868205 0.666153
0.868205 0.868205 0.666153
0.885451 0.868205 0.666153
0.000000 0.885451 0.666153
0.666153 0.885451 0.666153
0.744831 0.885451 0.666153
0.790489 0.885451 0.666153
0.822785 0.885451 0.666153
0.847793 0.885451 0.666153
0.868205 0.885451 0.666153
0.885451 0.885451 0.666153
0.000000 0.000000 0.744831
0.666153 0.000000 0.744831
0.744831 0.000000 0.744831
0.790489 0.000000 0.744831
0.822785 0.000000 0.744831
0.847793 0.000000 0.744831
0.868205 0.000000 0.744831
0.885451 0.000000 0.744831
0.000000 0.666153 0.744831
0.666153 0.666153 0.744831
0.744831 0.666153 0.744831
0.790489 0.666153 0.744831
0.822785 0.666153 0.744831
0.847793 0.666153 0.744831
0.868205 0.666153 0.744831
0.885451 0.666153 0.744831
0.000000 0.744831 0.744831
0.666153 0.744831 0.744831
0.744831 0.744831 0.744831
0.790489 0.744831 0.744831
0.822785 0.744831 0.744831
0.847793 0.744831 0.744831
0.868205 0.744831 0.744831
0.885451 0.744831 0.744831
0.000000 0.790489 0.744831
0.666153 0.790489 0.744831
0.744831 0.790489 0.744831
0.790489 0.790489 0.744831
0.822785 0.790489 0.744831
0.847793 0.790489 0.744831
0.868205 0.790489 0.744831
0.885451 0.790489 0.744831
0.000000 0.822785 0.744831
0.666153 0.822785 0.744831
0.744831 0.822785 0.744831
0.790489 0.822785 0.744831
0.822785 0.822785 0.744831
0.847793 0.822785 0.744831
0.868205 0.822785 0.744831
0.885451 0.822785 0.744831
0.000000 0.847793 0.744831
0.666153 0.847793 0.744831
0.744831 0.847793 0.744831
0.790489 0.847793 0.744831
0.822785 0.847793 0.744831
0.847793 0.847793 0.744831
0.868205 0.847793 0.744831
0.885451 0.847793 0.744831
0.000000 0.868205 0.744831
0.666153 0.868205 0.744831
0.744831 0.868205 0.744831
0.790489 0.868205 0.744831
0.822785 0.868205 0.744831
0.847793 0.868205 0.744831
0.868205 0.868205 0.744831
0.885451 0.868205 0.744831
0.000000 0.885451 0.744831
0.666153 0.885451 0.744831
0.744831 0.885451 0.744831
0.790489 0.885451 0.744831
0.822785 0.885451 0.744831
0.847793 0.885451 0.744831
0.868205 0.885451 0.744831
0.885451 0.885451 0.744831
0.000000 0.000000 0.790489
0.666153 0.000000 0.790489
0.744831 0.000000 0.790489
0.790489 0.000000 0.790489
0.822785 0.000000 0.790489
0.847793 0.000000 0.790489
0.868205 0.000000 0.790489
0.885451 0.000000 0.790489
0.000000 0.666153 0.790489
0.666153 0.666153 0.790489
0.744831 0.666153 0.790489
0.790489 0.666153 0.790489
0.822785 0.666153 0.790489
0.847793 0.666153 0.790489
0.868205 0.666153 0.790489
0.885451 0.666153 0.790489
0.000000 0.744831 0.790489
0.666153 0.744831 0.790489
0.744831 0.744831 0.790489
0.790489 0.744831 0.790489
0.822785 0.744831 0.790489
0.847793 0.744831 0.790489
0.868205 0.744831 0.790489
0.885451 0.744831 0.790489
0.000000 0.790489 0.790489
0.666153 0.790489 0.790489
0.744831 0.790489 0.790489
0.790489 0.790489 0.790489
0.822785 0.790489 0.790489
0.847793 0.790489 0.790489
0.868205 0.790489 0.790489
0.885451 0.790489 0.790489
0.000000 0.822785 0.790489
0.666153 0.822785 0.790489
0.744831 0.822785 0.790489
0.790489 0.822785 0.790489
0.822785 0.822785 0.790489
0.847793 0.822785 0.790489
0.868205 0.822785 0.790489
0.885451 0.822785 0.790489
0.000000 0.847793 0.790489
0.666153 0.847793 0.790489
0.744831 0.847793 0.790489
0.790489 0.847793 0.790489
0.822785 0.847793 0.790489
0.847793 0.847793 0.790489
0.868205 0.847793 0.790489
0.885451 0.847793 0.790489
0.000000 0.868205 0.790489
0.666153 0.868205 0.790489
0.744831 0.868205 0.790489
0.790489 0.868205 0.790489
0.822785 0.868205 0.790489
0.847793 0.868205 0.790489
0.868205 0.868205 0.790489
0.885451 0.868205 0.790489
0.000000 0.885451 0.790489
0.666153 0.885451 0.790489
0.744831 0.885451 0.790489
0.790489 0.885451 0.790489
0.822785 0.885451 0.790489
0.847793 0.885451 0.790489
0.868205 0.885451 0.790489
0.885451 0.885451 0.790489
0.000000 0.000000 0.822785
0.666153 0.000000 0.822785
0.744831 0.000000 0.822785
0.790489 0.000000 0.822785
0.822785 0.000000 0.822785
0.847793 0.000000 0.822785
0.868205 0.000000 0.822785
0.885451 0.000000 0.822785
0.000000 0.666153 0.822785
0.666153 0.666153 0.822785
0.744831 0.666153 0.822785
0.790489 0.666153 0.822785
0.822785 0.666153 0.822785
0.847793 0.666153 0.822785
0.868205 0.666153 0.822785
0.885451 0.666153 0.822785
0.000000 0.744831 0.822785
0.666153 0.744831 0.822785
0.744831 0.744831 0.822785
0.790489 0.744831 0.822785
0.822785 0.744831 0.822785
0.847793 0.744831 0.822785
0.868205 0.744831 0.822785
0.885451 0.744831 0.822785
0.000000 0.790489 0.822785
0.666153 0.790489 0.822785
0.744831 0.790489 0.822785
0.790489 0.790489 0.822785
0.822785 0.790489 0.822785
0.847793 0.790489 0.822785
0.868205 0.790489 0.822785
0.885451 0.790489 0.822785
0.000000 0.822785 0.822785
0.666153 0.822785 0.822785
0.744831 0.822785 0.822785
0.790489 0.822785 0.822785
0.822785 0.822785 0.822785
0.847793 0.822785 0.822785
0.868205 0.822785 0.822785
0.885451 0.822785 0.822785
0.000000 0.847793 0.822785
0.666153 0.847793 0.822785
0.744831 0.847793 0.822785
0.790489 0.847793 0.822785
0.822785 0.847793 0.822785
0.847793 0.847793 0.822785
0.868205 0.847793 0.822785
0.885451 0.847793 0.822785
0.000000 0.868205 0.822785
0.666153 0.868205 0.822785
0.744831 0.868205 0.822785
0.790489 0.868205 0.822785
0.822785 0.868205 0.822785
0.847793 0.868205 0.822785
0.868205 0.868205 0.822785
0.885451 0.868205 0.822785
0.000000 0.885451 0.822785
0.666153 0.885451 0.822785
0.744831 0.885451 0.822785
0.790489 0.885451 0.822785
0.822785 0.885451 0.822785
0.847793 0.885451 0.822785
0.868205 0.885451 0.822785
0.885451 0.885451 0.822785
0.000000 0.000000 0.847793
0.666153 0.000000 0.847793
0.744831 0.000000 0.847793
0.790489 0.000000 0.847793
0.822785 0.000000 0.847793
0.847793 0.000000 0.847793
0.868205 0.000000 0.847793
0.885451 0.000000 0.847793
0.000000 0.666153 0.847793
0.666153 0.666153 0.847793
0.744831 0.666153 0.847793
0.790489 0.666153 0.847793
0.822785 0.666153 0.847793
0.847793 0.666153 0.847793
0.868205 0.666153 0.847793
0.885451 0.666153 0.847793
0.000000 0.744831 0.847793
0.666153 0.744831 0.847793
0.744831 0.744831 0.847793
0.790489 0.744831 0.847793
0.822785 0.744831 0.847793
0.847793 0.744831 0.847793
0.868205 0.744831 0.847793
0.885451 0.744831 0.847793
0.000000 0.790489 0.847793
0.666153 0.790489 0.847793
0.744831 0.790489 0.847793
0.790489 0.790489 0.847793
0.822785 0.790489 0.847793
0.847793 0.790489 0.847793
0.868205 0.790489 0.847793
0.885451 0.790489 0.847793
0.000000 0.822785 0.847793
0.666153 0.822785 0.847793
0.744831 0.822785 0.847793
0.790489 0.822785 0.847793
0.822785 0.822785 0.847793
0.847793 0.822785 0.847793
0.868205 0.822785 0.847793
0.885451 0.822785 0.847793
0.000000 0.847793 0.847793
0.666153 0.847793 0.847793
0.744831 0.847793 0.847793
0.790489 0.847793 0.847793
0.822785 0.847793 0.847793
0.847793 0.847793 0.847793
0.868205 0.847793 0.847793
0.885451 0.847793 0.847793
0.000000 0.868205 0.847793
0.666153 0.868205 0.847793
0.744831 0.868205 0.847793
0.790489 0.868205 0.847793
0.822785 0.868205 0.847793
0.847793 0.868205 0.847793
0.868205 0.868205 0.847793
0.885451 0.868205 0.847793
0.000000 0.885451 0.847793
0.666153 0.885451 0.847793
0.744831 0.885451 0.847793
0.790489 0.885451 0.847793
0.822785 0.885451 0.847793
0.847793 0.885451 0.847793
0.868205 0.885451 0.847793
0.885451 0.885451 0.847793
0.000000 0.000000 0.868205
0.666153 0.000000 0.868205
0.744831 0.000000 0.868205
0.790489 0.000000 0.868205
0.822785 0.000000 0.868205
0.847793 0.000000 0.868205
0.868205 0.000000 0.868205
0.885451 0.000000 0.868205
0.000000 0.666153 0.868205
0.666153 0.666153 0.868205
0.744831 0.666153 0.868205
0.790489 0.666153 0.868205
0.822785 0.666153 0.868205
0.847793 0.666153 0.868205
0.868205 0.666153 0.868205
0.885451 0.666153 0.868205
0.000000 0.744831 0.868205
0.666153 0.744831 0.868205
0.744831 0.744831 0.868205
0.790489 0.744831 0.868205
0.822785 0.744831 0.868205
0.847793 0.744831 0.868205
0.868205 0.744831 0.868205
0.885451 0.744831 0.868205
0.000000 0.790489 0.868205
0.666153 0.790489 0.868205
0.744831 0.790489 0.868205
0.790489 0.790489 0.868205
0.822785 0.790489 0.868205
0.847793 0.790489 0.868205
0.868205 0.790489 0.868205
0.885451 0.790489 0.868205
0.000000 0.822785 0.868205
0.666153 0.822785 0.868205
0.744831 0.822785 0.868205
0.790489 0.822785 0.868205
0.822785 0.822785 0.868205
0.847793 0.822785 0.868205
0.868205 0.822785 0.868205
0.885451 0.822785 0.868205
0.000000 0.847793 0.868205
0.666153 0.847793 0.868205
0.744831 0.847793 0.868205
0.790489 0.847793 0.868205
0.822785 0.847793 0.868205
0.847793 0.847793 0.868205
0.868205 0.847793 0.868205
0.885451 0.847793 0.868205
0.000000 0.868205 0.868205
0.666153 0.868205 0.868205
0.744831 0.868205 0.868205
0.790489 0.868205 0.868205
0.822785 0.868205 0.868205
0.847793 0.868205 0.868205
0.868205 0.868205 0.868205
0.885451 0.868205 0.868205
0.000000 0.885451 0.868205
0.666153 0.885451 0.868205
0.744831 0.885451 0.868205
0.790489 0.885451 0.868205
0.822785 0.885451 0.868205
0.847793 0.885451 0.868205
0.868205 0.885451 0.868205
0.885451 0.885451 0.868205
0.000000 0.000000 0.885451
0.666153 0.000000 0.885451
0.744831 0.000000 0.885451
0.790489 0.000000 0.885451
0.822785 0.000000 0.885451
0.847793 0.000000 0.885451
0.868205 0.000000 0.885451
0.885451 0.000000 0.885451
0.000000 0.666153 0.885451
0.666153 0.666153 0.885451
0.744831 0.666153 0.885451
0.790489 0.666153 0.885451
0.822785 0.666153 0.885451
0.847793 0.666153 0.885451
0.868205 0.666153 0.885451
0.885451 0.666153 0.885451
0.000000 0.744831 0.885451
0.666153 0.744831 0.885451
0.744831 0.744831 0.885451
0.790489 0.744831 0.885451
0.822785 0.744831 0.885451
0.847793 0.744831 0.885451
0.868205 0.744831 0.885451
0.885451 0.744831 0.885451
0.000000 0.790489 0.885451
0.666153 0.790489 0.885451
0.744831 0.790489 0.885451
0.790489 0.790489 0.885451
0.822785 0.790489 0.885451
0.847793 0.790489 0.885451
0.868205 0.790489 0.885451
0.885451 0.790489 0.885451
0.000000 0.822785 0.885451
0.666153 0.822785 0.885451
0.744831 0.822785 0.885451
0.790489 0.822785 0.885451
0.822785 0.822785 0.885451
0.847793 0.822785 0.885451
0.868205 0.822785 0.885451
0.885451 0.822785 0.885451
0.000000 0.847793 0.885451
0.666153 0.847793 0.885451
0.744831 0.847793 0.885451
0.790489 0.847793 0.885451
0.822785 0.847793 0.885451
0.847793 0.847793 0.885451
0.868205 0.847793 0.885451
0.885451 0.847793 0.885451
0.000000 0.868205 0.885451
0.666153 0.868205 0.885451
0.744831 0.868205 0.885451
0.790489 0.868205 0.885451
0.822785 0.868205 0.885451
0.847793 0.868205 0.885451
0.868205 0.868205 0.885451
0.885451 0.868205 0.885451
0.000000 0.885451 0.885451
0.666153 0.885451 0.885451
0.744831 0.885451 0.885451
0.790489 0.885451 0.885451
0.822785 0.885451 0.885451
0.847793 0.885451 0.885451
0.868205 0.885451 0.885451
0.885451 0.885451 0.885451
