.nuke/nuke.LUT/linear-2-logC_exteded/AlexaV3_EI2000_Linear2LogC_EE_nuke3d.cube
# Alexa conversion LUT, lin2logc. Full in/full out.
# created by alexalutconv (2.07)
LUT_3D_SIZE 5
DOMAIN_MIN 0.000000 0.000000 0.000000
DOMAIN_MAX 0.903226 0.903226 0.903226
0.000000 0.000000 0.000000
0.865643 0.000000 0.000000
0.930711 0.000000 0.000000
0.966704 0.000000 0.000000
0.991414 0.000000 0.000000
0.000000 0.865643 0.000000
0.865643 0.865643 0.000000
0.930711 0.865643 0.000000
0.966704 0.865643 0.000000
0.991414 0.865643 0.000000
0.000000 0.930711 0.000000
0.865643 0.930711 0.000000
0.930711 0.930711 0.000000
0.966704 0.930711 0.000000
0.991414 0.930711 0.000000
0.000000 0.966704 0.000000
0.865643 0.966704 0.000000
0.930711 0.966704 0.000000
0.966704 0.966704 0.000000
0.991414 0.966704 0.000000
0.000000 0.991414 0.000000
0.865643 0.991414 0.000000
0.930711 0.991414 0.000000
0.966704 0.991414 0.000000
0.991414 0.991414 0.000000
0.000000 0.000000 0.865643
0.865643 0.000000 0.865643
0.930711 0.000000 0.865643
0.966704 0.000000 0.865643
0.991414 0.000000 0.865643
0.000000 0.865643 0.865643
0.865643 0.865643 0.865643
0.930711 0.865643 0.865643
0.966704 0.865643 0.865643
0.991414 0.865643 0.865643
0.000000 0.930711 0.865643
0.865643 0.930711 0.865643
0.930711 0.930711 0.865643
0.966704 0.930711 0.865643
0.991414 0.930711 0.865643
0.000000 0.966704 0.865643
0.865643 0.966704 0.865643
0.930711 0.966704 0.865643
0.966704 0.966704 0.865643
0.991414 0.966704 0.865643
0.000000 0.991414 0.865643
0.865643 0.991414 0.865643
0.930711 0.991414 0.865643
0.966704 0.991414 0.865643
0.991414 0.991414 0.865643
0.000000 0.000000 0.930711
0.865643 0.000000 0.930711
0.930711 0.000000 0.930711
0.966704 0.000000 0.930711
0.991414 0.000000 0.930711
0.000000 0.865643 0.930711
0.865643 0.865643 0.930711
0.930711 0.865643 0.930711
0.966704 0.865643 0.930711
0.991414 0.865643 0.930711
0.000000 0.930711 0.930711
0.865643 0.930711 0.930711
0.930711 0.930711 0.930711
0.966704 0.930711 0.930711
0.991414 0.930711 0.930711
0.000000 0.966704 0.930711
0.865643 0.966704 0.930711
0.930711 0.966704 0.930711
0.966704 0.966704 0.930711
0.991414 0.966704 0.930711
0.000000 0.991414 0.930711
0.865643 0.991414 0.930711
0.930711 0.991414 0.930711
0.966704 0.991414 0.930711
0.991414 0.991414 0.930711
0.000000 0.000000 0.966704
0.865643 0.000000 0.966704
0.930711 0.000000 0.966704
0.966704 0.000000 0.966704
0.991414 0.000000 0.966704
0.000000 0.865643 0.966704
0.865643 0.865643 0.966704
0.930711 0.865643 0.966704
0.966704 0.865643 0.966704
0.991414 0.865643 0.966704
0.000000 0.930711 0.966704
0.865643 0.930711 0.966704
0.930711 0.930711 0.966704
0.966704 0.930711 0.966704
0.991414 0.930711 0.966704
0.000000 0.966704 0.966704
0.865643 0.966704 0.966704
0.930711 0.966704 0.966704
0.966704 0.966704 0.966704
0.991414 0.966704 0.966704
0.000000 0.991414 0.966704
0.865643 0.991414 0.966704
0.930711 0.991414 0.966704
0.966704 0.991414 0.966704
0.991414 0.991414 0.966704
0.000000 0.000000 0.991414
0.865643 0.000000 0.991414
0.930711 0.000000 0.991414
0.966704 0.000000 0.991414
0.991414 0.000000 0.991414
0.000000 0.865643 0.991414
0.865643 0.865643 0.991414
0.930711 0.865643 0.991414
0.966704 0.865643 0.991414
0.991414 0.865643 0.991414
0.000000 0.930711 0.991414
0.865643 0.930711 0.991414
0.930711 0.930711 0.991414
0.966704 0.930711 0.991414
0.991414 0.930711 0.991414
0.000000 0.966704 0.991414
0.865643 0.966704 0.991414
0.930711 0.966704 0.991414
0.966704 0.966704 0.991414
0.991414 0.966704 0.991414
0.000000 0.991414 0.991414
0.865643 0.991414 0.991414
0.930711 0.991414 0.991414
0.966704 0.991414 0.991414
0.991414 0.991414 0.991414
