.nuke/nuke.LUT/logC-2-linear_extended/AlexaV3_EI1600_LogC2Linear_EE_nuke3d.cube
# Alexa conversion LUT, logc2lin. Full in/full out.
# created by alexalutconv (2.07)
LUT_3D_SIZE 32
0.003658 0.003658 0.003658
0.003744 0.003658 0.003658
0.003831 0.003658 0.003658
0.003918 0.003658 0.003658
0.004005 0.003658 0.003658
0.004091 0.003658 0.003658
0.004194 0.003658 0.003658
0.004335 0.003658 0.003658
0.004527 0.003658 0.003658
0.004790 0.003658 0.003658
0.005149 0.003658 0.003658
0.005640 0.003658 0.003658
0.006311 0.003658 0.003658
0.007227 0.003658 0.003658
0.008480 0.003658 0.003658
0.010192 0.003658 0.003658
0.012533 0.003658 0.003658
0.015730 0.003658 0.003658
0.020101 0.003658 0.003658
0.026074 0.003658 0.003658
0.034238 0.003658 0.003658
0.045394 0.003658 0.003658
0.060642 0.003658 0.003658
0.081479 0.003658 0.003658
0.109958 0.003658 0.003658
0.148887 0.003658 0.003658
0.202452 0.003658 0.003658
0.276532 0.003658 0.003658
0.379261 0.003658 0.003658
0.522124 0.003658 0.003658
0.721356 0.003658 0.003658
1.000000 0.003658 0.003658
0.003658 0.003744 0.003658
0.003744 0.003744 0.003658
0.003831 0.003744 0.003658
0.003918 0.003744 0.003658
0.004005 0.003744 0.003658
0.004091 0.003744 0.003658
0.004194 0.003744 0.003658
0.004335 0.003744 0.003658
0.004527 0.003744 0.003658
0.004790 0.003744 0.003658
0.005149 0.003744 0.003658
0.005640 0.003744 0.003658
0.006311 0.003744 0.003658
0.007227 0.003744 0.003658
0.008480 0.003744 0.003658
0.010192 0.003744 0.003658
0.012533 0.003744 0.003658
0.015730 0.003744 0.003658
0.020101 0.003744 0.003658
0.026074 0.003744 0.003658
0.034238 0.003744 0.003658
0.045394 0.003744 0.003658
0.060642 0.003744 0.003658
0.081479 0.003744 0.003658
0.109958 0.003744 0.003658
0.148887 0.003744 0.003658
0.202452 0.003744 0.003658
0.276532 0.003744 0.003658
0.379261 0.003744 0.003658
0.522124 0.003744 0.003658
0.721356 0.003744 0.003658
1.000000 0.003744 0.003658
0.003658 0.003831 0.003658
0.003744 0.003831 0.003658
0.003831 0.003831 0.003658
0.003918 0.003831 0.003658
0.004005 0.003831 0.003658
0.004091 0.003831 0.003658
0.004194 0.003831 0.003658
0.004335 0.003831 0.003658
0.004527 0.003831 0.003658
0.004790 0.003831 0.003658
0.005149 0.003831 0.003658
0.005640 0.003831 0.003658
0.006311 0.003831 0.003658
0.007227 0.003831 0.003658
0.008480 0.003831 0.003658
0.010192 0.003831 0.003658
0.012533 0.003831 0.003658
0.015730 0.003831 0.003658
0.020101 0.003831 0.003658
0.026074 0.003831 0.003658
0.034238 0.003831 0.003658
0.045394 0.003831 0.003658
0.060642 0.003831 0.003658
0.081479 0.003831 0.003658
0.109958 0.003831 0.003658
0.148887 0.003831 0.003658
0.202452 0.003831 0.003658
0.276532 0.003831 0.003658
0.379261 0.003831 0.003658
0.522124 0.003831 0.003658
0.721356 0.003831 0.003658
1.000000 0.003831 0.003658
0.003658 0.003918 0.003658
0.003744 0.003918 0.003658
0.003831 0.003918 0.003658
0.003918 0.003918 0.003658
0.004005 0.003918 0.003658
0.004091 0.003918 0.003658
0.004194 0.003918 0.003658
0.004335 0.003918 0.003658
0.004527 0.003918 0.003658
0.004790 0.003918 0.003658
0.005149 0.003918 0.003658
0.005640 0.003918 0.003658
0.006311 0.003918 0.003658
0.007227 0.003918 0.003658
0.008480 0.003918 0.003658
0.010192 0.003918 0.003658
0.012533 0.003918 0.003658
0.015730 0.003918 0.003658
0.020101 0.003918 0.003658
0.026074 0.003918 0.003658
0.034238 0.003918 0.003658
0.045394 0.003918 0.003658
0.060642 0.003918 0.003658
0.081479 0.003918 0.003658
0.109958 0.003918 0.003658
0.148887 0.003918 0.003658
0.202452 0.003918 0.003658
0.276532 0.003918 0.003658
0.379261 0.003918 0.003658
0.522124 0.003918 0.003658
0.721356 0.003918 0.003658
1.000000 0.003918 0.003658
0.003658 0.004005 0.003658
0.003744 0.004005 0.003658
0.003831 0.004005 0.003658
0.003918 0.004005 0.003658
0.004005 0.004005 0.003658
0.004091 0.004005 0.003658
0.004194 0.004005 0.003658
0.004335 0.004005 0.003658
0.004527 0.004005 0.003658
0.004790 0.004005 0.003658
0.005149 0.004005 0.003658
0.005640 0.004005 0.003658
0.006311 0.004005 0.003658
0.007227 0.004005 0.003658
0.008480 0.004005 0.003658
0.010192 0.004005 0.003658
0.012533 0.004005 0.003658
0.015730 0.004005 0.003658
0.020101 0.004005 0.003658
0.026074 0.004005 0.003658
0.034238 0.004005 0.003658
0.045394 0.004005 0.003658
0.060642 0.004005 0.003658
0.081479 0.004005 0.003658
0.109958 0.004005 0.003658
0.148887 0.004005 0.003658
0.202452 0.004005 0.003658
0.276532 0.004005 0.003658
0.379261 0.004005 0.003658
0.522124 0.004005 0.003658
0.721356 0.004005 0.003658
1.000000 0.004005 0.003658
0.003658 0.004091 0.003658
0.003744 0.004091 0.003658
0.003831 0.004091 0.003658
0.003918 0.004091 0.003658
0.004005 0.004091 0.003658
0.004091 0.004091 0.003658
0.004194 0.004091 0.003658
0.004335 0.004091 0.003658
0.004527 0.004091 0.003658
0.004790 0.004091 0.003658
0.005149 0.004091 0.003658
0.005640 0.004091 0.003658
0.006311 0.004091 0.003658
0.007227 0.004091 0.003658
0.008480 0.004091 0.003658
0.010192 0.004091 0.003658
0.012533 0.004091 0.003658
0.015730 0.004091 0.003658
0.020101 0.004091 0.003658
0.026074 0.004091 0.003658
0.034238 0.004091 0.003658
0.045394 0.004091 0.003658
0.060642 0.004091 0.003658
0.081479 0.004091 0.003658
0.109958 0.004091 0.003658
0.148887 0.004091 0.003658
0.202452 0.004091 0.003658
0.276532 0.004091 0.003658
0.379261 0.004091 0.003658
0.522124 0.004091 0.003658
0.721356 0.004091 0.003658
1.000000 0.004091 0.003658
0.003658 0.004194 0.003658
0.003744 0.004194 0.003658
0.003831 0.004194 0.003658
0.003918 0.004194 0.003658
0.004005 0.004194 0.003658
0.004091 0.004194 0.003658
0.004194 0.004194 0.003658
0.004335 0.004194 0.003658
0.004527 0.004194 0.003658
0.004790 0.004194 0.003658
0.005149 0.004194 0.003658
0.005640 0.004194 0.003658
0.006311 0.004194 0.003658
0.007227 0.004194 0.003658
0.008480 0.004194 0.003658
0.010192 0.004194 0.003658
0.012533 0.004194 0.003658
0.015730 0.004194 0.003658
0.020101 0.004194 0.003658
0.026074 0.004194 0.003658
0.034238 0.004194 0.003658
0.045394 0.004194 0.003658
0.060642 0.004194 0.003658
0.081479 0.004194 0.003658
0.109958 0.004194 0.003658
0.148887 0.004194 0.003658
0.202452 0.004194 0.003658
0.276532 0.004194 0.003658
0.379261 0.004194 0.003658
0.522124 0.004194 0.003658
0.721356 0.004194 0.003658
1.000000 0.004194 0.003658
0.003658 0.004335 0.003658
0.003744 0.004335 0.003658
0.003831 0.004335 0.003658
0.003918 0.004335 0.003658
0.004005 0.004335 0.003658
0.004091 0.004335 0.003658
0.004194 0.004335 0.003658
0.004335 0.004335 0.003658
0.004527 0.004335 0.003658
0.004790 0.004335 0.003658
0.005149 0.004335 0.003658
0.005640 0.004335 0.003658
0.006311 0.004335 0.003658
0.007227 0.004335 0.003658
0.008480 0.004335 0.003658
0.010192 0.004335 0.003658
0.012533 0.004335 0.003658
0.015730 0.004335 0.003658
0.020101 0.004335 0.003658
0.026074 0.004335 0.003658
0.034238 0.004335 0.003658
0.045394 0.004335 0.003658
0.060642 0.004335 0.003658
0.081479 0.004335 0.003658
0.109958 0.004335 0.003658
0.148887 0.004335 0.003658
0.202452 0.004335 0.003658
0.276532 0.004335 0.003658
0.379261 0.004335 0.003658
0.522124 0.004335 0.003658
0.721356 0.004335 0.003658
1.000000 0.004335 0.003658
0.003658 0.004527 0.003658
0.003744 0.004527 0.003658
0.003831 0.004527 0.003658
0.003918 0.004527 0.003658
0.004005 0.004527 0.003658
0.004091 0.004527 0.003658
0.004194 0.004527 0.003658
0.004335 0.004527 0.003658
0.004527 0.004527 0.003658
0.004790 0.004527 0.003658
0.005149 0.004527 0.003658
0.005640 0.004527 0.003658
0.006311 0.004527 0.003658
0.007227 0.004527 0.003658
0.008480 0.004527 0.003658
0.010192 0.004527 0.003658
0.012533 0.004527 0.003658
0.015730 0.004527 0.003658
0.020101 0.004527 0.003658
0.026074 0.004527 0.003658
0.034238 0.004527 0.003658
0.045394 0.004527 0.003658
0.060642 0.004527 0.003658
0.081479 0.004527 0.003658
0.109958 0.004527 0.003658
0.148887 0.004527 0.003658
0.202452 0.004527 0.003658
0.276532 0.004527 0.003658
0.379261 0.004527 0.003658
0.522124 0.004527 0.003658
0.721356 0.004527 0.003658
1.000000 0.004527 0.003658
0.003658 0.004790 0.003658
0.003744 0.004790 0.003658
0.003831 0.004790 0.003658
0.003918 0.004790 0.003658
0.004005 0.004790 0.003658
0.004091 0.004790 0.003658
0.004194 0.004790 0.003658
0.004335 0.004790 0.003658
0.004527 0.004790 0.003658
0.004790 0.004790 0.003658
0.005149 0.004790 0.003658
0.005640 0.004790 0.003658
0.006311 0.004790 0.003658
0.007227 0.004790 0.003658
0.008480 0.004790 0.003658
0.010192 0.004790 0.003658
0.012533 0.004790 0.003658
0.015730 0.004790 0.003658
0.020101 0.004790 0.003658
0.026074 0.004790 0.003658
0.034238 0.004790 0.003658
0.045394 0.004790 0.003658
0.060642 0.004790 0.003658
0.081479 0.004790 0.003658
0.109958 0.004790 0.003658
0.148887 0.004790 0.003658
0.202452 0.004790 0.003658
0.276532 0.004790 0.003658
0.379261 0.004790 0.003658
0.522124 0.004790 0.003658
0.721356 0.004790 0.003658
1.000000 0.004790 0.003658
0.003658 0.005149 0.003658
0.003744 0.005149 0.003658
0.003831 0.005149 0.003658
0.003918 0.005149 0.003658
0.004005 0.005149 0.003658
0.004091 0.005149 0.003658
0.004194 0.005149 0.003658
0.004335 0.005149 0.003658
0.004527 0.005149 0.003658
0.004790 0.005149 0.003658
0.005149 0.005149 0.003658
0.005640 0.005149 0.003658
0.006311 0.005149 0.003658
0.007227 0.005149 0.003658
0.008480 0.005149 0.003658
0.010192 0.005149 0.003658
0.012533 0.005149 0.003658
0.015730 0.005149 0.003658
0.020101 0.005149 0.003658
0.026074 0.005149 0.003658
0.034238 0.005149 0.003658
0.045394 0.005149 0.003658
0.060642 0.005149 0.003658
0.081479 0.005149 0.003658
0.109958 0.005149 0.003658
0.148887 0.005149 0.003658
0.202452 0.005149 0.003658
0.276532 0.005149 0.003658
0.379261 0.005149 0.003658
0.522124 0.005149 0.003658
0.721356 0.005149 0.003658
1.000000 0.005149 0.003658
0.003658 0.005640 0.003658
0.003744 0.005640 0.003658
0.003831 0.005640 0.003658
0.003918 0.005640 0.003658
0.004005 0.005640 0.003658
0.004091 0.005640 0.003658
0.004194 0.005640 0.003658
0.004335 0.005640 0.003658
0.004527 0.005640 0.003658
0.004790 0.005640 0.003658
0.005149 0.005640 0.003658
0.005640 0.005640 0.003658
0.006311 0.005640 0.003658
0.007227 0.005640 0.003658
0.008480 0.005640 0.003658
0.010192 0.005640 0.003658
0.012533 0.005640 0.003658
0.015730 0.005640 0.003658
0.020101 0.005640 0.003658
0.026074 0.005640 0.003658
0.034238 0.005640 0.003658
0.045394 0.005640 0.003658
0.060642 0.005640 0.003658
0.081479 0.005640 0.003658
0.109958 0.005640 0.003658
0.148887 0.005640 0.003658
0.202452 0.005640 0.003658
0.276532 0.005640 0.003658
0.379261 0.005640 0.003658
0.522124 0.005640 0.003658
0.721356 0.005640 0.003658
1.000000 0.005640 0.003658
0.003658 0.006311 0.003658
0.003744 0.006311 0.003658
0.003831 0.006311 0.003658
0.003918 0.006311 0.003658
0.004005 0.006311 0.003658
0.004091 0.006311 0.003658
0.004194 0.006311 0.003658
0.004335 0.006311 0.003658
0.004527 0.006311 0.003658
0.004790 0.006311 0.003658
0.005149 0.006311 0.003658
0.005640 0.006311 0.003658
0.006311 0.006311 0.003658
0.007227 0.006311 0.003658
0.008480 0.006311 0.003658
0.010192 0.006311 0.003658
0.012533 0.006311 0.003658
0.015730 0.006311 0.003658
0.020101 0.006311 0.003658
0.026074 0.006311 0.003658
0.034238 0.006311 0.003658
0.045394 0.006311 0.003658
0.060642 0.006311 0.003658
0.081479 0.006311 0.003658
0.109958 0.006311 0.003658
0.148887 0.006311 0.003658
0.202452 0.006311 0.003658
0.276532 0.006311 0.003658
0.379261 0.006311 0.003658
0.522124 0.006311 0.003658
0.721356 0.006311 0.003658
1.000000 0.006311 0.003658
0.003658 0.007227 0.003658
0.003744 0.007227 0.003658
0.003831 0.007227 0.003658
0.003918 0.007227 0.003658
0.004005 0.007227 0.003658
0.004091 0.007227 0.003658
0.004194 0.007227 0.003658
0.004335 0.007227 0.003658
0.004527 0.007227 0.003658
0.004790 0.007227 0.003658
0.005149 0.007227 0.003658
0.005640 0.007227 0.003658
0.006311 0.007227 0.003658
0.007227 0.007227 0.003658
0.008480 0.007227 0.003658
0.010192 0.007227 0.003658
0.012533 0.007227 0.003658
0.015730 0.007227 0.003658
0.020101 0.007227 0.003658
0.026074 0.007227 0.003658
0.034238 0.007227 0.003658
0.045394 0.007227 0.003658
0.060642 0.007227 0.003658
0.081479 0.007227 0.003658
0.109958 0.007227 0.003658
0.148887 0.007227 0.003658
0.202452 0.007227 0.003658
0.276532 0.007227 0.003658
0.379261 0.007227 0.003658
0.522124 0.007227 0.003658
0.721356 0.007227 0.003658
1.000000 0.007227 0.003658
0.003658 0.008480 0.003658
0.003744 0.008480 0.003658
0.003831 0.008480 0.003658
0.003918 0.008480 0.003658
0.004005 0.008480 0.003658
0.004091 0.008480 0.003658
0.004194 0.008480 0.003658
0.004335 0.008480 0.003658
0.004527 0.008480 0.003658
0.004790 0.008480 0.003658
0.005149 0.008480 0.003658
0.005640 0.008480 0.003658
0.006311 0.008480 0.003658
0.007227 0.008480 0.003658
0.008480 0.008480 0.003658
0.010192 0.008480 0.003658
0.012533 0.008480 0.003658
0.015730 0.008480 0.003658
0.020101 0.008480 0.003658
0.026074 0.008480 0.003658
0.034238 0.008480 0.003658
0.045394 0.008480 0.003658
0.060642 0.008480 0.003658
0.081479 0.008480 0.003658
0.109958 0.008480 0.003658
0.148887 0.008480 0.003658
0.202452 0.008480 0.003658
0.276532 0.008480 0.003658
0.379261 0.008480 0.003658
0.522124 0.008480 0.003658
0.721356 0.008480 0.003658
1.000000 0.008480 0.003658
0.003658 0.010192 0.003658
0.003744 0.010192 0.003658
0.003831 0.010192 0.003658
0.003918 0.010192 0.003658
0.004005 0.010192 0.003658
0.004091 0.010192 0.003658
0.004194 0.010192 0.003658
0.004335 0.010192 0.003658
0.004527 0.010192 0.003658
0.004790 0.010192 0.003658
0.005149 0.010192 0.003658
0.005640 0.010192 0.003658
0.006311 0.010192 0.003658
0.007227 0.010192 0.003658
0.008480 0.010192 0.003658
0.010192 0.010192 0.003658
0.012533 0.010192 0.003658
0.015730 0.010192 0.003658
0.020101 0.010192 0.003658
0.026074 0.010192 0.003658
0.034238 0.010192 0.003658
0.045394 0.010192 0.003658
0.060642 0.010192 0.003658
0.081479 0.010192 0.003658
0.109958 0.010192 0.003658
0.148887 0.010192 0.003658
0.202452 0.010192 0.003658
0.276532 0.010192 0.003658
0.379261 0.010192 0.003658
0.522124 0.010192 0.003658
0.721356 0.010192 0.003658
1.000000 0.010192 0.003658
0.003658 0.012533 0.003658
0.003744 0.012533 0.003658
0.003831 0.012533 0.003658
0.003918 0.012533 0.003658
0.004005 0.012533 0.003658
0.004091 0.012533 0.003658
0.004194 0.012533 0.003658
0.004335 0.012533 0.003658
0.004527 0.012533 0.003658
0.004790 0.012533 0.003658
0.005149 0.012533 0.003658
0.005640 0.012533 0.003658
0.006311 0.012533 0.003658
0.007227 0.012533 0.003658
0.008480 0.012533 0.003658
0.010192 0.012533 0.003658
0.012533 0.012533 0.003658
0.015730 0.012533 0.003658
0.020101 0.012533 0.003658
0.026074 0.012533 0.003658
0.034238 0.012533 0.003658
0.045394 0.012533 0.003658
0.060642 0.012533 0.003658
0.081479 0.012533 0.003658
0.109958 0.012533 0.003658
0.148887 0.012533 0.003658
0.202452 0.012533 0.003658
0.276532 0.012533 0.003658
0.379261 0.012533 0.003658
0.522124 0.012533 0.003658
0.721356 0.012533 0.003658
1.000000 0.012533 0.003658
0.003658 0.015730 0.003658
0.003744 0.015730 0.003658
0.003831 0.015730 0.003658
0.003918 0.015730 0.003658
0.004005 0.015730 0.003658
0.004091 0.015730 0.003658
0.004194 0.015730 0.003658
0.004335 0.015730 0.003658
0.004527 0.015730 0.003658
0.004790 0.015730 0.003658
0.005149 0.015730 0.003658
0.005640 0.015730 0.003658
0.006311 0.015730 0.003658
0.007227 0.015730 0.003658
0.008480 0.015730 0.003658
0.010192 0.015730 0.003658
0.012533 0.015730 0.003658
0.015730 0.015730 0.003658
0.020101 0.015730 0.003658
0.026074 0.015730 0.003658
0.034238 0.015730 0.003658
0.045394 0.015730 0.003658
0.060642 0.015730 0.003658
0.081479 0.015730 0.003658
0.109958 0.015730 0.003658
0.148887 0.015730 0.003658
0.202452 0.015730 0.003658
0.276532 0.015730 0.003658
0.379261 0.015730 0.003658
0.522124 0.015730 0.003658
0.721356 0.015730 0.003658
1.000000 0.015730 0.003658
0.003658 0.020101 0.003658
0.003744 0.020101 0.003658
0.003831 0.020101 0.003658
0.003918 0.020101 0.003658
0.004005 0.020101 0.003658
0.004091 0.020101 0.003658
0.004194 0.020101 0.003658
0.004335 0.020101 0.003658
0.004527 0.020101 0.003658
0.004790 0.020101 0.003658
0.005149 0.020101 0.003658
0.005640 0.020101 0.003658
0.006311 0.020101 0.003658
0.007227 0.020101 0.003658
0.008480 0.020101 0.003658
0.010192 0.020101 0.003658
0.012533 0.020101 0.003658
0.015730 0.020101 0.003658
0.020101 0.020101 0.003658
0.026074 0.020101 0.003658
0.034238 0.020101 0.003658
0.045394 0.020101 0.003658
0.060642 0.020101 0.003658
0.081479 0.020101 0.003658
0.109958 0.020101 0.003658
0.148887 0.020101 0.003658
0.202452 0.020101 0.003658
0.276532 0.020101 0.003658
0.379261 0.020101 0.003658
0.522124 0.020101 0.003658
0.721356 0.020101 0.003658
1.000000 0.020101 0.003658
0.003658 0.026074 0.003658
0.003744 0.026074 0.003658
0.003831 0.026074 0.003658
0.003918 0.026074 0.003658
0.004005 0.026074 0.003658
0.004091 0.026074 0.003658
0.004194 0.026074 0.003658
0.004335 0.026074 0.003658
0.004527 0.026074 0.003658
0.004790 0.026074 0.003658
0.005149 0.026074 0.003658
0.005640 0.026074 0.003658
0.006311 0.026074 0.003658
0.007227 0.026074 0.003658
0.008480 0.026074 0.003658
0.010192 0.026074 0.003658
0.012533 0.026074 0.003658
0.015730 0.026074 0.003658
0.020101 0.026074 0.003658
0.026074 0.026074 0.003658
0.034238 0.026074 0.003658
0.045394 0.026074 0.003658
0.060642 0.026074 0.003658
0.081479 0.026074 0.003658
0.109958 0.026074 0.003658
0.148887 0.026074 0.003658
0.202452 0.026074 0.003658
0.276532 0.026074 0.003658
0.379261 0.026074 0.003658
0.522124 0.026074 0.003658
0.721356 0.026074 0.003658
1.000000 0.026074 0.003658
0.003658 0.034238 0.003658
0.003744 0.034238 0.003658
0.003831 0.034238 0.003658
0.003918 0.034238 0.003658
0.004005 0.034238 0.003658
0.004091 0.034238 0.003658
0.004194 0.034238 0.003658
0.004335 0.034238 0.003658
0.004527 0.034238 0.003658
0.004790 0.034238 0.003658
0.005149 0.034238 0.003658
0.005640 0.034238 0.003658
0.006311 0.034238 0.003658
0.007227 0.034238 0.003658
0.008480 0.034238 0.003658
0.010192 0.034238 0.003658
0.012533 0.034238 0.003658
0.015730 0.034238 0.003658
0.020101 0.034238 0.003658
0.026074 0.034238 0.003658
0.034238 0.034238 0.003658
0.045394 0.034238 0.003658
0.060642 0.034238 0.003658
0.081479 0.034238 0.003658
0.109958 0.034238 0.003658
0.148887 0.034238 0.003658
0.202452 0.034238 0.003658
0.276532 0.034238 0.003658
0.379261 0.034238 0.003658
0.522124 0.034238 0.003658
0.721356 0.034238 0.003658
1.000000 0.034238 0.003658
0.003658 0.045394 0.003658
0.003744 0.045394 0.003658
0.003831 0.045394 0.003658
0.003918 0.045394 0.003658
0.004005 0.045394 0.003658
0.004091 0.045394 0.003658
0.004194 0.045394 0.003658
0.004335 0.045394 0.003658
0.004527 0.045394 0.003658
0.004790 0.045394 0.003658
0.005149 0.045394 0.003658
0.005640 0.045394 0.003658
0.006311 0.045394 0.003658
0.007227 0.045394 0.003658
0.008480 0.045394 0.003658
0.010192 0.045394 0.003658
0.012533 0.045394 0.003658
0.015730 0.045394 0.003658
0.020101 0.045394 0.003658
0.026074 0.045394 0.003658
0.034238 0.045394 0.003658
0.045394 0.045394 0.003658
0.060642 0.045394 0.003658
0.081479 0.045394 0.003658
0.109958 0.045394 0.003658
0.148887 0.045394 0.003658
0.202452 0.045394 0.003658
0.276532 0.045394 0.003658
0.379261 0.045394 0.003658
0.522124 0.045394 0.003658
0.721356 0.045394 0.003658
1.000000 0.045394 0.003658
0.003658 0.060642 0.003658
0.003744 0.060642 0.003658
0.003831 0.060642 0.003658
0.003918 0.060642 0.003658
0.004005 0.060642 0.003658
0.004091 0.060642 0.003658
0.004194 0.060642 0.003658
0.004335 0.060642 0.003658
0.004527 0.060642 0.003658
0.004790 0.060642 0.003658
0.005149 0.060642 0.003658
0.005640 0.060642 0.003658
0.006311 0.060642 0.003658
0.007227 0.060642 0.003658
0.008480 0.060642 0.003658
0.010192 0.060642 0.003658
0.012533 0.060642 0.003658
0.015730 0.060642 0.003658
0.020101 0.060642 0.003658
0.026074 0.060642 0.003658
0.034238 0.060642 0.003658
0.045394 0.060642 0.003658
0.060642 0.060642 0.003658
0.081479 0.060642 0.003658
0.109958 0.060642 0.003658
0.148887 0.060642 0.003658
0.202452 0.060642 0.003658
0.276532 0.060642 0.003658
0.379261 0.060642 0.003658
0.522124 0.060642 0.003658
0.721356 0.060642 0.003658
1.000000 0.060642 0.003658
0.003658 0.081479 0.003658
0.003744 0.081479 0.003658
0.003831 0.081479 0.003658
0.003918 0.081479 0.003658
0.004005 0.081479 0.003658
0.004091 0.081479 0.003658
0.004194 0.081479 0.003658
0.004335 0.081479 0.003658
0.004527 0.081479 0.003658
0.004790 0.081479 0.003658
0.005149 0.081479 0.003658
0.005640 0.081479 0.003658
0.006311 0.081479 0.003658
0.007227 0.081479 0.003658
0.008480 0.081479 0.003658
0.010192 0.081479 0.003658
0.012533 0.081479 0.003658
0.015730 0.081479 0.003658
0.020101 0.081479 0.003658
0.026074 0.081479 0.003658
0.034238 0.081479 0.003658
0.045394 0.081479 0.003658
0.060642 0.081479 0.003658
0.081479 0.081479 0.003658
0.109958 0.081479 0.003658
0.148887 0.081479 0.003658
0.202452 0.081479 0.003658
0.276532 0.081479 0.003658
0.379261 0.081479 0.003658
0.522124 0.081479 0.003658
0.721356 0.081479 0.003658
1.000000 0.081479 0.003658
0.003658 0.109958 0.003658
0.003744 0.109958 0.003658
0.003831 0.109958 0.003658
0.003918 0.109958 0.003658
0.004005 0.109958 0.003658
0.004091 0.109958 0.003658
0.004194 0.109958 0.003658
0.004335 0.109958 0.003658
0.004527 0.109958 0.003658
0.004790 0.109958 0.003658
0.005149 0.109958 0.003658
0.005640 0.109958 0.003658
0.006311 0.109958 0.003658
0.007227 0.109958 0.003658
0.008480 0.109958 0.003658
0.010192 0.109958 0.003658
0.012533 0.109958 0.003658
0.015730 0.109958 0.003658
0.020101 0.109958 0.003658
0.026074 0.109958 0.003658
0.034238 0.109958 0.003658
0.045394 0.109958 0.003658
0.060642 0.109958 0.003658
0.081479 0.109958 0.003658
0.109958 0.109958 0.003658
0.148887 0.109958 0.003658
0.202452 0.109958 0.003658
0.276532 0.109958 0.003658
0.379261 0.109958 0.003658
0.522124 0.109958 0.003658
0.721356 0.109958 0.003658
1.000000 0.109958 0.003658
0.003658 0.148887 0.003658
0.003744 0.148887 0.003658
0.003831 0.148887 0.003658
0.003918 0.148887 0.003658
0.004005 0.148887 0.003658
0.004091 0.148887 0.003658
0.004194 0.148887 0.003658
0.004335 0.148887 0.003658
0.004527 0.148887 0.003658
0.004790 0.148887 0.003658
0.005149 0.148887 0.003658
0.005640 0.148887 0.003658
0.006311 0.148887 0.003658
0.007227 0.148887 0.003658
0.008480 0.148887 0.003658
0.010192 0.148887 0.003658
0.012533 0.148887 0.003658
0.015730 0.148887 0.003658
0.020101 0.148887 0.003658
0.026074 0.148887 0.003658
0.034238 0.148887 0.003658
0.045394 0.148887 0.003658
0.060642 0.148887 0.003658
0.081479 0.148887 0.003658
0.109958 0.148887 0.003658
0.148887 0.148887 0.003658
0.202452 0.148887 0.003658
0.276532 0.148887 0.003658
0.379261 0.148887 0.003658
0.522124 0.148887 0.003658
0.721356 0.148887 0.003658
1.000000 0.148887 0.003658
0.003658 0.202452 0.003658
0.003744 0.202452 0.003658
0.003831 0.202452 0.003658
0.003918 0.202452 0.003658
0.004005 0.202452 0.003658
0.004091 0.202452 0.003658
0.004194 0.202452 0.003658
0.004335 0.202452 0.003658
0.004527 0.202452 0.003658
0.004790 0.202452 0.003658
0.005149 0.202452 0.003658
0.005640 0.202452 0.003658
0.006311 0.202452 0.003658
0.007227 0.202452 0.003658
0.008480 0.202452 0.003658
0.010192 0.202452 0.003658
0.012533 0.202452 0.003658
0.015730 0.202452 0.003658
0.020101 0.202452 0.003658
0.026074 0.202452 0.003658
0.034238 0.202452 0.003658
0.045394 0.202452 0.003658
0.060642 0.202452 0.003658
0.081479 0.202452 0.003658
0.109958 0.202452 0.003658
0.148887 0.202452 0.003658
0.202452 0.202452 0.003658
0.276532 0.202452 0.003658
0.379261 0.202452 0.003658
0.522124 0.202452 0.003658
0.721356 0.202452 0.003658
1.000000 0.202452 0.003658
0.003658 0.276532 0.003658
0.003744 0.276532 0.003658
0.003831 0.276532 0.003658
0.003918 0.276532 0.003658
0.004005 0.276532 0.003658
0.004091 0.276532 0.003658
0.004194 0.276532 0.003658
0.004335 0.276532 0.003658
0.004527 0.276532 0.003658
0.004790 0.276532 0.003658
0.005149 0.276532 0.003658
0.005640 0.276532 0.003658
0.006311 0.276532 0.003658
0.007227 0.276532 0.003658
0.008480 0.276532 0.003658
0.010192 0.276532 0.003658
0.012533 0.276532 0.003658
0.015730 0.276532 0.003658
0.020101 0.276532 0.003658
0.026074 0.276532 0.003658
0.034238 0.276532 0.003658
