.nuke/nuke.LUT/logC-2-linear_extended/AlexaV3_EI0160_LogC2Linear_EE_nuke3d.cube
# Alexa conversion LUT, logc2lin. Full in/full out.
# created by alexalutconv (2.07)
LUT_3D_SIZE 32
0.001701 0.001701 0.001701
0.002468 0.001701 0.001701
0.003235 0.001701 0.001701
0.004002 0.001701 0.001701
0.004771 0.001701 0.001701
0.005683 0.001701 0.001701
0.006885 0.001701 0.001701
0.008469 0.001701 0.001701
0.010557 0.001701 0.001701
0.013310 0.001701 0.001701
0.016937 0.001701 0.001701
0.021718 0.001701 0.001701
0.028019 0.001701 0.001701
0.036323 0.001701 0.001701
0.047267 0.001701 0.001701
0.061691 0.001701 0.001701
0.080702 0.001701 0.001701
0.105757 0.001701 0.001701
0.138779 0.001701 0.001701
0.182301 0.001701 0.001701
0.239661 0.001701 0.001701
0.315259 0.001701 0.001701
0.414894 0.001701 0.001701
0.546210 0.001701 0.001701
0.719279 0.001701 0.001701
0.947377 0.001701 0.001701
1.000000 0.001701 0.001701
1.000000 0.001701 0.001701
1.000000 0.001701 0.001701
1.000000 0.001701 0.001701
1.000000 0.001701 0.001701
1.000000 0.001701 0.001701
0.001701 0.002468 0.001701
0.002468 0.002468 0.001701
0.003235 0.002468 0.001701
0.004002 0.002468 0.001701
0.004771 0.002468 0.001701
0.005683 0.002468 0.001701
0.006885 0.002468 0.001701
0.008469 0.002468 0.001701
0.010557 0.002468 0.001701
0.013310 0.002468 0.001701
0.016937 0.002468 0.001701
0.021718 0.002468 0.001701
0.028019 0.002468 0.001701
0.036323 0.002468 0.001701
0.047267 0.002468 0.001701
0.061691 0.002468 0.001701
0.080702 0.002468 0.001701
0.105757 0.002468 0.001701
0.138779 0.002468 0.001701
0.182301 0.002468 0.001701
0.239661 0.002468 0.001701
0.315259 0.002468 0.001701
0.414894 0.002468 0.001701
0.546210 0.002468 0.001701
0.719279 0.002468 0.001701
0.947377 0.002468 0.001701
1.000000 0.002468 0.001701
1.000000 0.002468 0.001701
1.000000 0.002468 0.001701
1.000000 0.002468 0.001701
1.000000 0.002468 0.001701
1.000000 0.002468 0.001701
0.001701 0.003235 0.001701
0.002468 0.003235 0.001701
0.003235 0.003235 0.001701
0.004002 0.003235 0.001701
0.004771 0.003235 0.001701
0.005683 0.003235 0.001701
0.006885 0.003235 0.001701
0.008469 0.003235 0.001701
0.010557 0.003235 0.001701
0.013310 0.003235 0.001701
0.016937 0.003235 0.001701
0.021718 0.003235 0.001701
0.028019 0.003235 0.001701
0.036323 0.003235 0.001701
0.047267 0.003235 0.001701
0.061691 0.003235 0.001701
0.080702 0.003235 0.001701
0.105757 0.003235 0.001701
0.138779 0.003235 0.001701
0.182301 0.003235 0.001701
0.239661 0.003235 0.001701
0.315259 0.003235 0.001701
0.414894 0.003235 0.001701
0.546210 0.003235 0.001701
0.719279 0.003235 0.001701
0.947377 0.003235 0.001701
1.000000 0.003235 0.001701
1.000000 0.003235 0.001701
1.000000 0.003235 0.001701
1.000000 0.003235 0.001701
1.000000 0.003235 0.001701
1.000000 0.003235 0.001701
0.001701 0.004002 0.001701
0.002468 0.004002 0.001701
0.003235 0.004002 0.001701
0.004002 0.004002 0.001701
0.004771 0.004002 0.001701
0.005683 0.004002 0.001701
0.006885 0.004002 0.001701
0.008469 0.004002 0.001701
0.010557 0.004002 0.001701
0.013310 0.004002 0.001701
0.016937 0.004002 0.001701
0.021718 0.004002 0.001701
0.028019 0.004002 0.001701
0.036323 0.004002 0.001701
0.047267 0.004002 0.001701
0.061691 0.004002 0.001701
0.080702 0.004002 0.001701
0.105757 0.004002 0.001701
0.138779 0.004002 0.001701
0.182301 0.004002 0.001701
0.239661 0.004002 0.001701
0.315259 0.004002 0.001701
0.414894 0.004002 0.001701
0.546210 0.004002 0.001701
0.719279 0.004002 0.001701
0.947377 0.004002 0.001701
1.000000 0.004002 0.001701
1.000000 0.004002 0.001701
1.000000 0.004002 0.001701
1.000000 0.004002 0.001701
1.000000 0.004002 0.001701
1.000000 0.004002 0.001701
0.001701 0.004771 0.001701
0.002468 0.004771 0.001701
0.003235 0.004771 0.001701
0.004002 0.004771 0.001701
0.004771 0.004771 0.001701
0.005683 0.004771 0.001701
0.006885 0.004771 0.001701
0.008469 0.004771 0.001701
0.010557 0.004771 0.001701
0.013310 0.004771 0.001701
0.016937 0.004771 0.001701
0.021718 0.004771 0.001701
0.028019 0.004771 0.001701
0.036323 0.004771 0.001701
0.047267 0.004771 0.001701
0.061691 0.004771 0.001701
0.080702 0.004771 0.001701
0.105757 0.004771 0.001701
0.138779 0.004771 0.001701
0.182301 0.004771 0.001701
0.239661 0.004771 0.001701
0.315259 0.004771 0.001701
0.414894 0.004771 0.001701
0.546210 0.004771 0.001701
0.719279 0.004771 0.001701
0.947377 0.004771 0.001701
1.000000 0.004771 0.001701
1.000000 0.004771 0.001701
1.000000 0.004771 0.001701
1.000000 0.004771 0.001701
1.000000 0.004771 0.001701
1.000000 0.004771 0.001701
0.001701 0.005683 0.001701
0.002468 0.005683 0.001701
0.003235 0.005683 0.001701
0.004002 0.005683 0.001701
0.004771 0.005683 0.001701
0.005683 0.005683 0.001701
0.006885 0.005683 0.001701
0.008469 0.005683 0.001701
0.010557 0.005683 0.001701
0.013310 0.005683 0.001701
0.016937 0.005683 0.001701
0.021718 0.005683 0.001701
0.028019 0.005683 0.001701
0.036323 0.005683 0.001701
0.047267 0.005683 0.001701
0.061691 0.005683 0.001701
0.080702 0.005683 0.001701
0.105757 0.005683 0.001701
0.138779 0.005683 0.001701
0.182301 0.005683 0.001701
0.239661 0.005683 0.001701
0.315259 0.005683 0.001701
0.414894 0.005683 0.001701
0.546210 0.005683 0.001701
0.719279 0.005683 0.001701
0.947377 0.005683 0.001701
1.000000 0.005683 0.001701
1.000000 0.005683 0.001701
1.000000 0.005683 0.001701
1.000000 0.005683 0.001701
1.000000 0.005683 0.001701
1.000000 0.005683 0.001701
0.001701 0.006885 0.001701
0.002468 0.006885 0.001701
0.003235 0.006885 0.001701
0.004002 0.006885 0.001701
0.004771 0.006885 0.001701
0.005683 0.006885 0.001701
0.006885 0.006885 0.001701
0.008469 0.006885 0.001701
0.010557 0.006885 0.001701
0.013310 0.006885 0.001701
0.016937 0.006885 0.001701
0.021718 0.006885 0.001701
0.028019 0.006885 0.001701
0.036323 0.006885 0.001701
0.047267 0.006885 0.001701
0.061691 0.006885 0.001701
0.080702 0.006885 0.001701
0.105757 0.006885 0.001701
0.138779 0.006885 0.001701
0.182301 0.006885 0.001701
0.239661 0.006885 0.001701
0.315259 0.006885 0.001701
0.414894 0.006885 0.001701
0.546210 0.006885 0.001701
0.719279 0.006885 0.001701
0.947377 0.006885 0.001701
1.000000 0.006885 0.001701
1.000000 0.006885 0.001701
1.000000 0.006885 0.001701
1.000000 0.006885 0.001701
1.000000 0.006885 0.001701
1.000000 0.006885 0.001701
0.001701 0.008469 0.001701
0.002468 0.008469 0.001701
0.003235 0.008469 0.001701
0.004002 0.008469 0.001701
0.004771 0.008469 0.001701
0.005683 0.008469 0.001701
0.006885 0.008469 0.001701
0.008469 0.008469 0.001701
0.010557 0.008469 0.001701
0.013310 0.008469 0.001701
0.016937 0.008469 0.001701
0.021718 0.008469 0.001701
0.028019 0.008469 0.001701
0.036323 0.008469 0.001701
0.047267 0.008469 0.001701
0.061691 0.008469 0.001701
0.080702 0.008469 0.001701
0.105757 0.008469 0.001701
0.138779 0.008469 0.001701
0.182301 0.008469 0.001701
0.239661 0.008469 0.001701
0.315259 0.008469 0.001701
0.414894 0.008469 0.001701
0.546210 0.008469 0.001701
0.719279 0.008469 0.001701
0.947377 0.008469 0.001701
1.000000 0.008469 0.001701
1.000000 0.008469 0.001701
1.000000 0.008469 0.001701
1.000000 0.008469 0.001701
1.000000 0.008469 0.001701
1.000000 0.008469 0.001701
0.001701 0.010557 0.001701
0.002468 0.010557 0.001701
0.003235 0.010557 0.001701
0.004002 0.010557 0.001701
0.004771 0.010557 0.001701
0.005683 0.010557 0.001701
0.006885 0.010557 0.001701
0.008469 0.010557 0.001701
0.010557 0.010557 0.001701
0.013310 0.010557 0.001701
0.016937 0.010557 0.001701
0.021718 0.010557 0.001701
0.028019 0.010557 0.001701
0.036323 0.010557 0.001701
0.047267 0.010557 0.001701
0.061691 0.010557 0.001701
0.080702 0.010557 0.001701
0.105757 0.010557 0.001701
0.138779 0.010557 0.001701
0.182301 0.010557 0.001701
0.239661 0.010557 0.001701
0.315259 0.010557 0.001701
0.414894 0.010557 0.001701
0.546210 0.010557 0.001701
0.719279 0.010557 0.001701
0.947377 0.010557 0.001701
1.000000 0.010557 0.001701
1.000000 0.010557 0.001701
1.000000 0.010557 0.001701
1.000000 0.010557 0.001701
1.000000 0.010557 0.001701
1.000000 0.010557 0.001701
0.001701 0.013310 0.001701
0.002468 0.013310 0.001701
0.003235 0.013310 0.001701
0.004002 0.013310 0.001701
0.004771 0.013310 0.001701
0.005683 0.013310 0.001701
0.006885 0.013310 0.001701
0.008469 0.013310 0.001701
0.010557 0.013310 0.001701
0.013310 0.013310 0.001701
0.016937 0.013310 0.001701
0.021718 0.013310 0.001701
0.028019 0.013310 0.001701
0.036323 0.013310 0.001701
0.047267 0.013310 0.001701
0.061691 0.013310 0.001701
0.080702 0.013310 0.001701
0.105757 0.013310 0.001701
0.138779 0.013310 0.001701
0.182301 0.013310 0.001701
0.239661 0.013310 0.001701
0.315259 0.013310 0.001701
0.414894 0.013310 0.001701
0.546210 0.013310 0.001701
0.719279 0.013310 0.001701
0.947377 0.013310 0.001701
1.000000 0.013310 0.001701
1.000000 0.013310 0.001701
1.000000 0.013310 0.001701
1.000000 0.013310 0.001701
1.000000 0.013310 0.001701
1.000000 0.013310 0.001701
0.001701 0.016937 0.001701
0.002468 0.016937 0.001701
0.003235 0.016937 0.001701
0.004002 0.016937 0.001701
0.004771 0.016937 0.001701
0.005683 0.016937 0.001701
0.006885 0.016937 0.001701
0.008469 0.016937 0.001701
0.010557 0.016937 0.001701
0.013310 0.016937 0.001701
0.016937 0.016937 0.001701
0.021718 0.016937 0.001701
0.028019 0.016937 0.001701
0.036323 0.016937 0.001701
0.047267 0.016937 0.001701
0.061691 0.016937 0.001701
0.080702 0.016937 0.001701
0.105757 0.016937 0.001701
0.138779 0.016937 0.001701
0.182301 0.016937 0.001701
0.239661 0.016937 0.001701
0.315259 0.016937 0.001701
0.414894 0.016937 0.001701
0.546210 0.016937 0.001701
0.719279 0.016937 0.001701
0.947377 0.016937 0.001701
1.000000 0.016937 0.001701
1.000000 0.016937 0.001701
1.000000 0.016937 0.001701
1.000000 0.016937 0.001701
1.000000 0.016937 0.001701
1.000000 0.016937 0.001701
0.001701 0.021718 0.001701
0.002468 0.021718 0.001701
0.003235 0.021718 0.001701
0.004002 0.021718 0.001701
0.004771 0.021718 0.001701
0.005683 0.021718 0.001701
0.006885 0.021718 0.001701
0.008469 0.021718 0.001701
0.010557 0.021718 0.001701
0.013310 0.021718 0.001701
0.016937 0.021718 0.001701
0.021718 0.021718 0.001701
0.028019 0.021718 0.001701
0.036323 0.021718 0.001701
0.047267 0.021718 0.001701
0.061691 0.021718 0.001701
0.080702 0.021718 0.001701
0.105757 0.021718 0.001701
0.138779 0.021718 0.001701
0.182301 0.021718 0.001701
0.239661 0.021718 0.001701
0.315259 0.021718 0.001701
0.414894 0.021718 0.001701
0.546210 0.021718 0.001701
0.719279 0.021718 0.001701
0.947377 0.021718 0.001701
1.000000 0.021718 0.001701
1.000000 0.021718 0.001701
1.000000 0.021718 0.001701
1.000000 0.021718 0.001701
1.000000 0.021718 0.001701
1.000000 0.021718 0.001701
0.001701 0.028019 0.001701
0.002468 0.028019 0.001701
0.003235 0.028019 0.001701
0.004002 0.028019 0.001701
0.004771 0.028019 0.001701
0.005683 0.028019 0.001701
0.006885 0.028019 0.001701
0.008469 0.028019 0.001701
0.010557 0.028019 0.001701
0.013310 0.028019 0.001701
0.016937 0.028019 0.001701
0.021718 0.028019 0.001701
0.028019 0.028019 0.001701
0.036323 0.028019 0.001701
0.047267 0.028019 0.001701
0.061691 0.028019 0.001701
0.080702 0.028019 0.001701
0.105757 0.028019 0.001701
0.138779 0.028019 0.001701
0.182301 0.028019 0.001701
0.239661 0.028019 0.001701
0.315259 0.028019 0.001701
0.414894 0.028019 0.001701
0.546210 0.028019 0.001701
0.719279 0.028019 0.001701
0.947377 0.028019 0.001701
1.000000 0.028019 0.001701
1.000000 0.028019 0.001701
1.000000 0.028019 0.001701
1.000000 0.028019 0.001701
1.000000 0.028019 0.001701
1.000000 0.028019 0.001701
0.001701 0.036323 0.001701
0.002468 0.036323 0.001701
0.003235 0.036323 0.001701
0.004002 0.036323 0.001701
0.004771 0.036323 0.001701
0.005683 0.036323 0.001701
0.006885 0.036323 0.001701
0.008469 0.036323 0.001701
0.010557 0.036323 0.001701
0.013310 0.036323 0.001701
0.016937 0.036323 0.001701
0.021718 0.036323 0.001701
0.028019 0.036323 0.001701
0.036323 0.036323 0.001701
0.047267 0.036323 0.001701
0.061691 0.036323 0.001701
0.080702 0.036323 0.001701
0.105757 0.036323 0.001701
0.138779 0.036323 0.001701
0.182301 0.036323 0.001701
0.239661 0.036323 0.001701
0.315259 0.036323 0.001701
0.414894 0.036323 0.001701
0.546210 0.036323 0.001701
0.719279 0.036323 0.001701
0.947377 0.036323 0.001701
1.000000 0.036323 0.001701
1.000000 0.036323 0.001701
1.000000 0.036323 0.001701
1.000000 0.036323 0.001701
1.000000 0.036323 0.001701
1.000000 0.036323 0.001701
0.001701 0.047267 0.001701
0.002468 0.047267 0.001701
0.003235 0.047267 0.001701
0.004002 0.047267 0.001701
0.004771 0.047267 0.001701
0.005683 0.047267 0.001701
0.006885 0.047267 0.001701
0.008469 0.047267 0.001701
0.010557 0.047267 0.001701
0.013310 0.047267 0.001701
0.016937 0.047267 0.001701
0.021718 0.047267 0.001701
0.028019 0.047267 0.001701
0.036323 0.047267 0.001701
0.047267 0.047267 0.001701
0.061691 0.047267 0.001701
0.080702 0.047267 0.001701
0.105757 0.047267 0.001701
0.138779 0.047267 0.001701
0.182301 0.047267 0.001701
0.239661 0.047267 0.001701
0.315259 0.047267 0.001701
0.414894 0.047267 0.001701
0.546210 0.047267 0.001701
0.719279 0.047267 0.001701
0.947377 0.047267 0.001701
1.000000 0.047267 0.001701
1.000000 0.047267 0.001701
1.000000 0.047267 0.001701
1.000000 0.047267 0.001701
1.000000 0.047267 0.001701
1.000000 0.047267 0.001701
0.001701 0.061691 0.001701
0.002468 0.061691 0.001701
0.003235 0.061691 0.001701
0.004002 0.061691 0.001701
0.004771 0.061691 0.001701
0.005683 0.061691 0.001701
0.006885 0.061691 0.001701
0.008469 0.061691 0.001701
0.010557 0.061691 0.001701
0.013310 0.061691 0.001701
0.016937 0.061691 0.001701
0.021718 0.061691 0.001701
0.028019 0.061691 0.001701
0.036323 0.061691 0.001701
0.047267 0.061691 0.001701
0.061691 0.061691 0.001701
0.080702 0.061691 0.001701
0.105757 0.061691 0.001701
0.138779 0.061691 0.001701
0.182301 0.061691 0.001701
0.239661 0.061691 0.001701
0.315259 0.061691 0.001701
0.414894 0.061691 0.001701
0.546210 0.061691 0.001701
0.719279 0.061691 0.001701
0.947377 0.061691 0.001701
1.000000 0.061691 0.001701
1.000000 0.061691 0.001701
1.000000 0.061691 0.001701
1.000000 0.061691 0.001701
1.000000 0.061691 0.001701
1.000000 0.061691 0.001701
0.001701 0.080702 0.001701
0.002468 0.080702 0.001701
0.003235 0.080702 0.001701
0.004002 0.080702 0.001701
0.004771 0.080702 0.001701
0.005683 0.080702 0.001701
0.006885 0.080702 0.001701
0.008469 0.080702 0.001701
0.010557 0.080702 0.001701
0.013310 0.080702 0.001701
0.016937 0.080702 0.001701
0.021718 0.080702 0.001701
0.028019 0.080702 0.001701
0.036323 0.080702 0.001701
0.047267 0.080702 0.001701
0.061691 0.080702 0.001701
0.080702 0.080702 0.001701
0.105757 0.080702 0.001701
0.138779 0.080702 0.001701
0.182301 0.080702 0.001701
0.239661 0.080702 0.001701
0.315259 0.080702 0.001701
0.414894 0.080702 0.001701
0.546210 0.080702 0.001701
0.719279 0.080702 0.001701
0.947377 0.080702 0.001701
1.000000 0.080702 0.001701
1.000000 0.080702 0.001701
1.000000 0.080702 0.001701
1.000000 0.080702 0.001701
1.000000 0.080702 0.001701
1.000000 0.080702 0.001701
0.001701 0.105757 0.001701
0.002468 0.105757 0.001701
0.003235 0.105757 0.001701
0.004002 0.105757 0.001701
0.004771 0.105757 0.001701
0.005683 0.105757 0.001701
0.006885 0.105757 0.001701
0.008469 0.105757 0.001701
0.010557 0.105757 0.001701
0.013310 0.105757 0.001701
0.016937 0.105757 0.001701
0.021718 0.105757 0.001701
0.028019 0.105757 0.001701
0.036323 0.105757 0.001701
0.047267 0.105757 0.001701
0.061691 0.105757 0.001701
0.080702 0.105757 0.001701
0.105757 0.105757 0.001701
0.138779 0.105757 0.001701
0.182301 0.105757 0.001701
0.239661 0.105757 0.001701
0.315259 0.105757 0.001701
0.414894 0.105757 0.001701
0.546210 0.105757 0.001701
0.719279 0.105757 0.001701
0.947377 0.105757 0.001701
1.000000 0.105757 0.001701
1.000000 0.105757 0.001701
1.000000 0.105757 0.001701
1.000000 0.105757 0.001701
1.000000 0.105757 0.001701
1.000000 0.105757 0.001701
0.001701 0.138779 0.001701
0.002468 0.138779 0.001701
0.003235 0.138779 0.001701
0.004002 0.138779 0.001701
0.004771 0.138779 0.001701
0.005683 0.138779 0.001701
0.006885 0.138779 0.001701
0.008469 0.138779 0.001701
0.010557 0.138779 0.001701
0.013310 0.138779 0.001701
0.016937 0.138779 0.001701
0.021718 0.138779 0.001701
0.028019 0.138779 0.001701
0.036323 0.138779 0.001701
0.047267 0.138779 0.001701
0.061691 0.138779 0.001701
0.080702 0.138779 0.001701
0.105757 0.138779 0.001701
0.138779 0.138779 0.001701
0.182301 0.138779 0.001701
0.239661 0.138779 0.001701
0.315259 0.138779 0.001701
0.414894 0.138779 0.001701
0.546210 0.138779 0.001701
0.719279 0.138779 0.001701
0.947377 0.138779 0.001701
1.000000 0.138779 0.001701
1.000000 0.138779 0.001701
1.000000 0.138779 0.001701
1.000000 0.138779 0.001701
1.000000 0.138779 0.001701
1.000000 0.138779 0.001701
0.001701 0.182301 0.001701
0.002468 0.182301 0.001701
0.003235 0.182301 0.001701
0.004002 0.182301 0.001701
0.004771 0.182301 0.001701
0.005683 0.182301 0.001701
0.006885 0.182301 0.001701
0.008469 0.182301 0.001701
0.010557 0.182301 0.001701
0.013310 0.182301 0.001701
0.016937 0.182301 0.001701
0.021718 0.182301 0.001701
0.028019 0.182301 0.001701
0.036323 0.182301 0.001701
0.047267 0.182301 0.001701
0.061691 0.182301 0.001701
0.080702 0.182301 0.001701
0.105757 0.182301 0.001701
0.138779 0.182301 0.001701
0.182301 0.182301 0.001701
0.239661 0.182301 0.001701
0.315259 0.182301 0.001701
0.414894 0.182301 0.001701
0.546210 0.182301 0.001701
0.719279 0.182301 0.001701
0.947377 0.182301 0.001701
1.000000 0.182301 0.001701
1.000000 0.182301 0.001701
1.000000 0.182301 0.001701
1.000000 0.182301 0.001701
1.000000 0.182301 0.001701
1.000000 0.182301 0.001701
0.001701 0.239661 0.001701
0.002468 0.239661 0.001701
0.003235 0.239661 0.001701
0.004002 0.239661 0.001701
0.004771 0.239661 0.001701
0.005683 0.239661 0.001701
0.006885 0.239661 0.001701
0.008469 0.239661 0.001701
0.010557 0.239661 0.001701
0.013310 0.239661 0.001701
0.016937 0.239661 0.001701
0.021718 0.239661 0.001701
0.028019 0.239661 0.001701
0.036323 0.239661 0.001701
0.047267 0.239661 0.001701
0.061691 0.239661 0.001701
0.080702 0.239661 0.001701
0.105757 0.239661 0.001701
0.138779 0.239661 0.001701
0.182301 0.239661 0.001701
0.239661 0.239661 0.001701
0.315259 0.239661 0.001701
0.414894 0.239661 0.001701
0.546210 0.239661 0.001701
0.719279 0.239661 0.001701
0.947377 0.239661 0.001701
1.000000 0.239661 0.001701
1.000000 0.239661 0.001701
1.000000 0.239661 0.001701
1.000000 0.239661 0.001701
1.000000 0.239661 0.001701
1.000000 0.239661 0.001701
0.001701 0.315259 0.001701
0.002468 0.315259 0.001701
0.003235 0.315259 0.001701
0.004002 0.315259 0.001701
0.004771 0.315259 0.001701
0.005683 0.315259 0.001701
0.006885 0.315259 0.001701
0.008469 0.315259 0.001701
0.010557 0.315259 0.001701
0.013310 0.315259 0.001701
0.016937 0.315259 0.001701
0.021718 0.315259 0.001701
0.028019 0.315259 0.001701
0.036323 0.315259 0.001701
0.047267 0.315259 0.001701
0.061691 0.315259 0.001701
0.080702 0.315259 0.001701
0.105757 0.315259 0.001701
0.138779 0.315259 0.001701
0.182301 0.315259 0.001701
0.239661 0.315259 0.001701
0.315259 0.315259 0.001701
0.414894 0.315259 0.001701
0.546210 0.315259 0.001701
0.719279 0.315259 0.001701
0.947377 0.315259 0.001701
1.000000 0.315259 0.001701
1.000000 0.315259 0.001701
1.000000 0.315259 0.001701
1.000000 0.315259 0.001701
1.000000 0.315259 0.001701
1.000000 0.315259 0.001701
0.001701 0.414894 0.001701
0.002468 0.414894 0.001701
0.003235 0.414894 0.001701
0.004002 0.414894 0.001701
0.004771 0.414894 0.001701
0.005683 0.414894 0.001701
0.006885 0.414894 0.001701
0.008469 0.414894 0.001701
0.010557 0.414894 0.001701
0.013310 0.414894 0.001701
0.016937 0.414894 0.001701
0.021718 0.414894 0.001701
0.028019 0.414894 0.001701
0.036323 0.414894 0.001701
0.047267 0.414894 0.001701
0.061691 0.414894 0.001701
0.080702 0.414894 0.001701
0.105757 0.414894 0.001701
0.138779 0.414894 0.001701
0.182301 0.414894 0.001701
0.239661 0.414894 0.001701
0.315259 0.414894 0.001701
0.414894 0.414894 0.001701
0.546210 0.414894 0.001701
0.719279 0.414894 0.001701
0.947377 0.414894 0.001701
1.000000 0.414894 0.001701
1.000000 0.414894 0.001701
1.000000 0.414894 0.001701
1.000000 0.414894 0.001701
1.000000 0.414894 0.001701
1.000000 0.414894 0.001701
0.001701 0.546210 0.001701
0.002468 0.546210 0.001701
0.003235 0.546210 0.001701
0.004002 0.546210 0.001701
0.004771 0.546210 0.001701
0.005683 0.546210 0.001701
0.006885 0.546210 0.001701
0.008469 0.546210 0.001701
0.010557 0.546210 0.001701
0.013310 0.546210 0.001701
0.016937 0.546210 0.001701
0.021718 0.546210 0.001701
0.028019 0.546210 0.001701
0.036323 0.546210 0.001701
0.047267 0.546210 0.001701
0.061691 0.546210 0.001701
0.080702 0.546210 0.001701
0.105757 0.546210 0.001701
0.138779 0.546210 0.001701
0.182301 0.546210 0.001701
0.239661 0.546210 0.001701
0.315259 0.546210 0.001701
0.414894 0.546210 0.001701
0.546210 0.546210 0.001701
0.719279 0.546210 0.001701
0.947377 0.546210 0.001701
1.000000 0.546210 0.001701
1.000000 0.546210 0.001701
1.000000 0.546210 0.001701
1.000000 0.546210 0.001701
1.000000 0.546210 0.001701
1.000000 0.546210 0.001701
0.001701 0.719279 0.001701
0.002468 0.719279 0.001701
0.003235 0.719279 0.001701
0.004002 0.719279 0.001701
0.004771 0.719279 0.001701
0.005683 0.719279 0.001701
0.006885 0.719279 0.001701
0.008469 0.719279 0.001701
0.010557 0.719279 0.001701
0.013310 0.719279 0.001701
0.016937 0.719279 0.001701
0.021718 0.719279 0.001701
0.028019 0.719279 0.001701
0.036323 0.719279 0.001701
0.047267 0.719279 0.001701
0.061691 0.719279 0.001701
0.080702 0.719279 0.001701
0.105757 0.719279 0.001701
0.138779 0.719279 0.001701
0.182301 0.719279 0.001701
0.239661 0.719279 0.001701
0.315259 0.719279 0.001701
0.414894 0.719279 0.001701
0.546210 0.719279 0.001701
0.719279 0.719279 0.001701
0.947377 0.719279 0.001701
1.000000 0.719279 0.001701
1.000000 0.719279 0.001701
1.000000 0.719279 0.001701
1.000000 0.719279 0.001701
1.000000 0.719279 0.001701
1.000000 0.719279 0.001701
0.001701 0.947377 0.001701
0.002468 0.947377 0.001701
0.003235 0.947377 0.001701
0.004002 0.947377 0.001701
0.004771 0.947377 0.001701
0.005683 0.947377 0.001701
0.006885 0.947377 0.001701
0.008469 0.947377 0.001701
0.010557 0.947377 0.001701
0.013310 0.947377 0.001701
0.016937 0.947377 0.001701
0.021718 0.947377 0.001701
0.028019 0.947377 0.001701
0.036323 0.947377 0.001701
0.047267 0.947377 0.001701
0.061691 0.947377 0.001701
0.080702 0.947377 0.001701
0.105757 0.947377 0.001701
0.138779 0.947377 0.001701
0.182301 0.947377 0.001701
0.239661 0.947377 0.001701
0.315259 0.947377 0.001701
0.414894 0.947377 0.001701
0.546210 0.947377 0.001701
0.719279 0.947377 0.001701
0.947377 0.947377 0.001701
1.000000 0.947377 0.001701
1.000000 0.947377 0.001701
1.000000 0.947377 0.001701
1.000000 0.947377 0.001701
1.000000 0.947377 0.001701
1.000000 0.947377 0.001701
0.001701 1.000000 0.001701
0.002468 1.000000 0.001701
0.003235 1.000000 0.001701
0.004002 1.000000 0.001701
0.004771 1.000000 0.001701
0.005683 1.000000 0.001701
0.006885 1.000000 0.001701
0.008469 1.000000 0.001701
0.010557 1.000000 0.001701
0.013310 1.000000 0.001701
0.016937 1.000000 0.001701
0.021718 1.000000 0.001701
0.028019 1.000000 0.001701
0.036323 1.000000 0.001701
0.047267 1.000000 0.001701
0.061691 1.000000 0.001701
0.080702 1.000000 0.001701
0.105757 1.000000 0.001701
0.138779 1.000000 0.001701
0.182301 1.000000 0.001701
0.239661 1.000000 0.001701
0.315259 1.000000 0.001701
0.414894 1.000000 0.001701
0.546210 1.000000 0.001701
0.719279 1.000000 0.001701
0.947377 1.000000 0.001701
1.000000 1.000000 0.001701
1.000000 1.000000 0.001701
1.000000 1.000000 0.001701
1.000000 1.000000 0.001701
1.000000 1.000000 0.001701
1.000000 1.000000 0.001701
0.001701 1.000000 0.001701
0.002468 1.000000 0.001701
0.003235 1.000000 0.001701
0.004002 1.000000 0.001701
0.004771 1.000000 0.001701
0.005683 1.000000 0.001701
0.006885 1.000000 0.001701
0.008469 1.000000 0.001701
0.010557 1.000000 0.001701
0.013310 1.000000 0.001701
0.016937 1.000000 0.001701
0.021718 1.000000 0.001701
0.028019 1.000000 0.001701
0.036323 1.000000 0.001701
0.047267 1.000000 0.001701
0.061691 1.000000 0.001701
0.080702 1.000000 0.001701
0.105757 1.000000 0.001701
0.138779 1.000000 0.001701
0.182301 1.000000 0.001701
0.239661 1.000000 0.001701
