.nuke/nuke.LUT/logC-2-linear_extended/AlexaV3_EI1000_LogC2Linear_EE_nuke3d.cube
# Alexa conversion LUT, logc2lin. Full in/full out.
# created by alexalutconv (2.07)
LUT_3D_SIZE 32
0.003518 0.003518 0.003518
0.003653 0.003518 0.003518
0.003789 0.003518 0.003518
0.003924 0.003518 0.003518
0.004059 0.003518 0.003518
0.004196 0.003518 0.003518
0.004366 0.003518 0.003518
0.004598 0.003518 0.003518
0.004912 0.003518 0.003518
0.005337 0.003518 0.003518
0.005914 0.003518 0.003518
0.006696 0.003518 0.003518
0.007755 0.003518 0.003518
0.009192 0.003518 0.003518
0.011139 0.003518 0.003518
0.013779 0.003518 0.003518
0.017357 0.003518 0.003518
0.022208 0.003518 0.003518
0.028783 0.003518 0.003518
0.037696 0.003518 0.003518
0.049778 0.003518 0.003518
0.066156 0.003518 0.003518
0.088358 0.003518 0.003518
0.118453 0.003518 0.003518
0.159248 0.003518 0.003518
0.214549 0.003518 0.003518
0.289513 0.003518 0.003518
0.391131 0.003518 0.003518
0.528880 0.003518 0.003518
0.715606 0.003518 0.003518
0.968726 0.003518 0.003518
1.000000 0.003518 0.003518
0.003518 0.003653 0.003518
0.003653 0.003653 0.003518
0.003789 0.003653 0.003518
0.003924 0.003653 0.003518
0.004059 0.003653 0.003518
0.004196 0.003653 0.003518
0.004366 0.003653 0.003518
0.004598 0.003653 0.003518
0.004912 0.003653 0.003518
0.005337 0.003653 0.003518
0.005914 0.003653 0.003518
0.006696 0.003653 0.003518
0.007755 0.003653 0.003518
0.009192 0.003653 0.003518
0.011139 0.003653 0.003518
0.013779 0.003653 0.003518
0.017357 0.003653 0.003518
0.022208 0.003653 0.003518
0.028783 0.003653 0.003518
0.037696 0.003653 0.003518
0.049778 0.003653 0.003518
0.066156 0.003653 0.003518
0.088358 0.003653 0.003518
0.118453 0.003653 0.003518
0.159248 0.003653 0.003518
0.214549 0.003653 0.003518
0.289513 0.003653 0.003518
0.391131 0.003653 0.003518
0.528880 0.003653 0.003518
0.715606 0.003653 0.003518
0.968726 0.003653 0.003518
1.000000 0.003653 0.003518
0.003518 0.003789 0.003518
0.003653 0.003789 0.003518
0.003789 0.003789 0.003518
0.003924 0.003789 0.003518
0.004059 0.003789 0.003518
0.004196 0.003789 0.003518
0.004366 0.003789 0.003518
0.004598 0.003789 0.003518
0.004912 0.003789 0.003518
0.005337 0.003789 0.003518
0.005914 0.003789 0.003518
0.006696 0.003789 0.003518
0.007755 0.003789 0.003518
0.009192 0.003789 0.003518
0.011139 0.003789 0.003518
0.013779 0.003789 0.003518
0.017357 0.003789 0.003518
0.022208 0.003789 0.003518
0.028783 0.003789 0.003518
0.037696 0.003789 0.003518
0.049778 0.003789 0.003518
0.066156 0.003789 0.003518
0.088358 0.003789 0.003518
0.118453 0.003789 0.003518
0.159248 0.003789 0.003518
0.214549 0.003789 0.003518
0.289513 0.003789 0.003518
0.391131 0.003789 0.003518
0.528880 0.003789 0.003518
0.715606 0.003789 0.003518
0.968726 0.003789 0.003518
1.000000 0.003789 0.003518
0.003518 0.003924 0.003518
0.003653 0.003924 0.003518
0.003789 0.003924 0.003518
0.003924 0.003924 0.003518
0.004059 0.003924 0.003518
0.004196 0.003924 0.003518
0.004366 0.003924 0.003518
0.004598 0.003924 0.003518
0.004912 0.003924 0.003518
0.005337 0.003924 0.003518
0.005914 0.003924 0.003518
0.006696 0.003924 0.003518
0.007755 0.003924 0.003518
0.009192 0.003924 0.003518
0.011139 0.003924 0.003518
0.013779 0.003924 0.003518
0.017357 0.003924 0.003518
0.022208 0.003924 0.003518
0.028783 0.003924 0.003518
0.037696 0.003924 0.003518
0.049778 0.003924 0.003518
0.066156 0.003924 0.003518
0.088358 0.003924 0.003518
0.118453 0.003924 0.003518
0.159248 0.003924 0.003518
0.214549 0.003924 0.003518
0.289513 0.003924 0.003518
0.391131 0.003924 0.003518
0.528880 0.003924 0.003518
0.715606 0.003924 0.003518
0.968726 0.003924 0.003518
1.000000 0.003924 0.003518
0.003518 0.004059 0.003518
0.003653 0.004059 0.003518
0.003789 0.004059 0.003518
0.003924 0.004059 0.003518
0.004059 0.004059 0.003518
0.004196 0.004059 0.003518
0.004366 0.004059 0.003518
0.004598 0.004059 0.003518
0.004912 0.004059 0.003518
0.005337 0.004059 0.003518
0.005914 0.004059 0.003518
0.006696 0.004059 0.003518
0.007755 0.004059 0.003518
0.009192 0.004059 0.003518
0.011139 0.004059 0.003518
0.013779 0.004059 0.003518
0.017357 0.004059 0.003518
0.022208 0.004059 0.003518
0.028783 0.004059 0.003518
0.037696 0.004059 0.003518
0.049778 0.004059 0.003518
0.066156 0.004059 0.003518
0.088358 0.004059 0.003518
0.118453 0.004059 0.003518
0.159248 0.004059 0.003518
0.214549 0.004059 0.003518
0.289513 0.004059 0.003518
0.391131 0.004059 0.003518
0.528880 0.004059 0.003518
0.715606 0.004059 0.003518
0.968726 0.004059 0.003518
1.000000 0.004059 0.003518
0.003518 0.004196 0.003518
0.003653 0.004196 0.003518
0.003789 0.004196 0.003518
0.003924 0.004196 0.003518
0.004059 0.004196 0.003518
0.004196 0.004196 0.003518
0.004366 0.004196 0.003518
0.004598 0.004196 0.003518
0.004912 0.004196 0.003518
0.005337 0.004196 0.003518
0.005914 0.004196 0.003518
0.006696 0.004196 0.003518
0.007755 0.004196 0.003518
0.009192 0.004196 0.003518
0.011139 0.004196 0.003518
0.013779 0.004196 0.003518
0.017357 0.004196 0.003518
0.022208 0.004196 0.003518
0.028783 0.004196 0.003518
0.037696 0.004196 0.003518
0.049778 0.004196 0.003518
0.066156 0.004196 0.003518
0.088358 0.004196 0.003518
0.118453 0.004196 0.003518
0.159248 0.004196 0.003518
0.214549 0.004196 0.003518
0.289513 0.004196 0.003518
0.391131 0.004196 0.003518
0.528880 0.004196 0.003518
0.715606 0.004196 0.003518
0.968726 0.004196 0.003518
1.000000 0.004196 0.003518
0.003518 0.004366 0.003518
0.003653 0.004366 0.003518
0.003789 0.004366 0.003518
0.003924 0.004366 0.003518
0.004059 0.004366 0.003518
0.004196 0.004366 0.003518
0.004366 0.004366 0.003518
0.004598 0.004366 0.003518
0.004912 0.004366 0.003518
0.005337 0.004366 0.003518
0.005914 0.004366 0.003518
0.006696 0.004366 0.003518
0.007755 0.004366 0.003518
0.009192 0.004366 0.003518
0.011139 0.004366 0.003518
0.013779 0.004366 0.003518
0.017357 0.004366 0.003518
0.022208 0.004366 0.003518
0.028783 0.004366 0.003518
0.037696 0.004366 0.003518
0.049778 0.004366 0.003518
0.066156 0.004366 0.003518
0.088358 0.004366 0.003518
0.118453 0.004366 0.003518
0.159248 0.004366 0.003518
0.214549 0.004366 0.003518
0.289513 0.004366 0.003518
0.391131 0.004366 0.003518
0.528880 0.004366 0.003518
0.715606 0.004366 0.003518
0.968726 0.004366 0.003518
1.000000 0.004366 0.003518
0.003518 0.004598 0.003518
0.003653 0.004598 0.003518
0.003789 0.004598 0.003518
0.003924 0.004598 0.003518
0.004059 0.004598 0.003518
0.004196 0.004598 0.003518
0.004366 0.004598 0.003518
0.004598 0.004598 0.003518
0.004912 0.004598 0.003518
0.005337 0.004598 0.003518
0.005914 0.004598 0.003518
0.006696 0.004598 0.003518
0.007755 0.004598 0.003518
0.009192 0.004598 0.003518
0.011139 0.004598 0.003518
0.013779 0.004598 0.003518
0.017357 0.004598 0.003518
0.022208 0.004598 0.003518
0.028783 0.004598 0.003518
0.037696 0.004598 0.003518
0.049778 0.004598 0.003518
0.066156 0.004598 0.003518
0.088358 0.004598 0.003518
0.118453 0.004598 0.003518
0.159248 0.004598 0.003518
0.214549 0.004598 0.003518
0.289513 0.004598 0.003518
0.391131 0.004598 0.003518
0.528880 0.004598 0.003518
0.715606 0.004598 0.003518
0.968726 0.004598 0.003518
1.000000 0.004598 0.003518
0.003518 0.004912 0.003518
0.003653 0.004912 0.003518
0.003789 0.004912 0.003518
0.003924 0.004912 0.003518
0.004059 0.004912 0.003518
0.004196 0.004912 0.003518
0.004366 0.004912 0.003518
0.004598 0.004912 0.003518
0.004912 0.004912 0.003518
0.005337 0.004912 0.003518
0.005914 0.004912 0.003518
0.006696 0.004912 0.003518
0.007755 0.004912 0.003518
0.009192 0.004912 0.003518
0.011139 0.004912 0.003518
0.013779 0.004912 0.003518
0.017357 0.004912 0.003518
0.022208 0.004912 0.003518
0.028783 0.004912 0.003518
0.037696 0.004912 0.003518
0.049778 0.004912 0.003518
0.066156 0.004912 0.003518
0.088358 0.004912 0.003518
0.118453 0.004912 0.003518
0.159248 0.004912 0.003518
0.214549 0.004912 0.003518
0.289513 0.004912 0.003518
0.391131 0.004912 0.003518
0.528880 0.004912 0.003518
0.715606 0.004912 0.003518
0.968726 0.004912 0.003518
1.000000 0.004912 0.003518
0.003518 0.005337 0.003518
0.003653 0.005337 0.003518
0.003789 0.005337 0.003518
0.003924 0.005337 0.003518
0.004059 0.005337 0.003518
0.004196 0.005337 0.003518
0.004366 0.005337 0.003518
0.004598 0.005337 0.003518
0.004912 0.005337 0.003518
0.005337 0.005337 0.003518
0.005914 0.005337 0.003518
0.006696 0.005337 0.003518
0.007755 0.005337 0.003518
0.009192 0.005337 0.003518
0.011139 0.005337 0.003518
0.013779 0.005337 0.003518
0.017357 0.005337 0.003518
0.022208 0.005337 0.003518
0.028783 0.005337 0.003518
0.037696 0.005337 0.003518
0.049778 0.005337 0.003518
0.066156 0.005337 0.003518
0.088358 0.005337 0.003518
0.118453 0.005337 0.003518
0.159248 0.005337 0.003518
0.214549 0.005337 0.003518
0.289513 0.005337 0.003518
0.391131 0.005337 0.003518
0.528880 0.005337 0.003518
0.715606 0.005337 0.003518
0.968726 0.005337 0.003518
1.000000 0.005337 0.003518
0.003518 0.005914 0.003518
0.003653 0.005914 0.003518
0.003789 0.005914 0.003518
0.003924 0.005914 0.003518
0.004059 0.005914 0.003518
0.004196 0.005914 0.003518
0.004366 0.005914 0.003518
0.004598 0.005914 0.003518
0.004912 0.005914 0.003518
0.005337 0.005914 0.003518
0.005914 0.005914 0.003518
0.006696 0.005914 0.003518
0.007755 0.005914 0.003518
0.009192 0.005914 0.003518
0.011139 0.005914 0.003518
0.013779 0.005914 0.003518
0.017357 0.005914 0.003518
0.022208 0.005914 0.003518
0.028783 0.005914 0.003518
0.037696 0.005914 0.003518
0.049778 0.005914 0.003518
0.066156 0.005914 0.003518
0.088358 0.005914 0.003518
0.118453 0.005914 0.003518
0.159248 0.005914 0.003518
0.214549 0.005914 0.003518
0.289513 0.005914 0.003518
0.391131 0.005914 0.003518
0.528880 0.005914 0.003518
0.715606 0.005914 0.003518
0.968726 0.005914 0.003518
1.000000 0.005914 0.003518
0.003518 0.006696 0.003518
0.003653 0.006696 0.003518
0.003789 0.006696 0.003518
0.003924 0.006696 0.003518
0.004059 0.006696 0.003518
0.004196 0.006696 0.003518
0.004366 0.006696 0.003518
0.004598 0.006696 0.003518
0.004912 0.006696 0.003518
0.005337 0.006696 0.003518
0.005914 0.006696 0.003518
0.006696 0.006696 0.003518
0.007755 0.006696 0.003518
0.009192 0.006696 0.003518
0.011139 0.006696 0.003518
0.013779 0.006696 0.003518
0.017357 0.006696 0.003518
0.022208 0.006696 0.003518
0.028783 0.006696 0.003518
0.037696 0.006696 0.003518
0.049778 0.006696 0.003518
0.066156 0.006696 0.003518
0.088358 0.006696 0.003518
0.118453 0.006696 0.003518
0.159248 0.006696 0.003518
0.214549 0.006696 0.003518
0.289513 0.006696 0.003518
0.391131 0.006696 0.003518
0.528880 0.006696 0.003518
0.715606 0.006696 0.003518
0.968726 0.006696 0.003518
1.000000 0.006696 0.003518
0.003518 0.007755 0.003518
0.003653 0.007755 0.003518
0.003789 0.007755 0.003518
0.003924 0.007755 0.003518
0.004059 0.007755 0.003518
0.004196 0.007755 0.003518
0.004366 0.007755 0.003518
0.004598 0.007755 0.003518
0.004912 0.007755 0.003518
0.005337 0.007755 0.003518
0.005914 0.007755 0.003518
0.006696 0.007755 0.003518
0.007755 0.007755 0.003518
0.009192 0.007755 0.003518
0.011139 0.007755 0.003518
0.013779 0.007755 0.003518
0.017357 0.007755 0.003518
0.022208 0.007755 0.003518
0.028783 0.007755 0.003518
0.037696 0.007755 0.003518
0.049778 0.007755 0.003518
0.066156 0.007755 0.003518
0.088358 0.007755 0.003518
0.118453 0.007755 0.003518
0.159248 0.007755 0.003518
0.214549 0.007755 0.003518
0.289513 0.007755 0.003518
0.391131 0.007755 0.003518
0.528880 0.007755 0.003518
0.715606 0.007755 0.003518
0.968726 0.007755 0.003518
1.000000 0.007755 0.003518
0.003518 0.009192 0.003518
0.003653 0.009192 0.003518
0.003789 0.009192 0.003518
0.003924 0.009192 0.003518
0.004059 0.009192 0.003518
0.004196 0.009192 0.003518
0.004366 0.009192 0.003518
0.004598 0.009192 0.003518
0.004912 0.009192 0.003518
0.005337 0.009192 0.003518
0.005914 0.009192 0.003518
0.006696 0.009192 0.003518
0.007755 0.009192 0.003518
0.009192 0.009192 0.003518
0.011139 0.009192 0.003518
0.013779 0.009192 0.003518
0.017357 0.009192 0.003518
0.022208 0.009192 0.003518
0.028783 0.009192 0.003518
0.037696 0.009192 0.003518
0.049778 0.009192 0.003518
0.066156 0.009192 0.003518
0.088358 0.009192 0.003518
0.118453 0.009192 0.003518
0.159248 0.009192 0.003518
0.214549 0.009192 0.003518
0.289513 0.009192 0.003518
0.391131 0.009192 0.003518
0.528880 0.009192 0.003518
0.715606 0.009192 0.003518
0.968726 0.009192 0.003518
1.000000 0.009192 0.003518
0.003518 0.011139 0.003518
0.003653 0.011139 0.003518
0.003789 0.011139 0.003518
0.003924 0.011139 0.003518
0.004059 0.011139 0.003518
0.004196 0.011139 0.003518
0.004366 0.011139 0.003518
0.004598 0.011139 0.003518
0.004912 0.011139 0.003518
0.005337 0.011139 0.003518
0.005914 0.011139 0.003518
0.006696 0.011139 0.003518
0.007755 0.011139 0.003518
0.009192 0.011139 0.003518
0.011139 0.011139 0.003518
0.013779 0.011139 0.003518
0.017357 0.011139 0.003518
0.022208 0.011139 0.003518
0.028783 0.011139 0.003518
0.037696 0.011139 0.003518
0.049778 0.011139 0.003518
0.066156 0.011139 0.003518
0.088358 0.011139 0.003518
0.118453 0.011139 0.003518
0.159248 0.011139 0.003518
0.214549 0.011139 0.003518
0.289513 0.011139 0.003518
0.391131 0.011139 0.003518
0.528880 0.011139 0.003518
0.715606 0.011139 0.003518
0.968726 0.011139 0.003518
1.000000 0.011139 0.003518
0.003518 0.013779 0.003518
0.003653 0.013779 0.003518
0.003789 0.013779 0.003518
0.003924 0.013779 0.003518
0.004059 0.013779 0.003518
0.004196 0.013779 0.003518
0.004366 0.013779 0.003518
0.004598 0.013779 0.003518
0.004912 0.013779 0.003518
0.005337 0.013779 0.003518
0.005914 0.013779 0.003518
0.006696 0.013779 0.003518
0.007755 0.013779 0.003518
0.009192 0.013779 0.003518
0.011139 0.013779 0.003518
0.013779 0.013779 0.003518
0.017357 0.013779 0.003518
0.022208 0.013779 0.003518
0.028783 0.013779 0.003518
0.037696 0.013779 0.003518
0.049778 0.013779 0.003518
0.066156 0.013779 0.003518
0.088358 0.013779 0.003518
0.118453 0.013779 0.003518
0.159248 0.013779 0.003518
0.214549 0.013779 0.003518
0.289513 0.013779 0.003518
0.391131 0.013779 0.003518
0.528880 0.013779 0.003518
0.715606 0.013779 0.003518
0.968726 0.013779 0.003518
1.000000 0.013779 0.003518
0.003518 0.017357 0.003518
0.003653 0.017357 0.003518
0.003789 0.017357 0.003518
0.003924 0.017357 0.003518
0.004059 0.017357 0.003518
0.004196 0.017357 0.003518
0.004366 0.017357 0.003518
0.004598 0.017357 0.003518
0.004912 0.017357 0.003518
0.005337 0.017357 0.003518
0.005914 0.017357 0.003518
0.006696 0.017357 0.003518
0.007755 0.017357 0.003518
0.009192 0.017357 0.003518
0.011139 0.017357 0.003518
0.013779 0.017357 0.003518
0.017357 0.017357 0.003518
0.022208 0.017357 0.003518
0.028783 0.017357 0.003518
0.037696 0.017357 0.003518
0.049778 0.017357 0.003518
0.066156 0.017357 0.003518
0.088358 0.017357 0.003518
0.118453 0.017357 0.003518
0.159248 0.017357 0.003518
0.214549 0.017357 0.003518
0.289513 0.017357 0.003518
0.391131 0.017357 0.003518
0.528880 0.017357 0.003518
0.715606 0.017357 0.003518
0.968726 0.017357 0.003518
1.000000 0.017357 0.003518
0.003518 0.022208 0.003518
0.003653 0.022208 0.003518
0.003789 0.022208 0.003518
0.003924 0.022208 0.003518
0.004059 0.022208 0.003518
0.004196 0.022208 0.003518
0.004366 0.022208 0.003518
0.004598 0.022208 0.003518
0.004912 0.022208 0.003518
0.005337 0.022208 0.003518
0.005914 0.022208 0.003518
0.006696 0.022208 0.003518
0.007755 0.022208 0.003518
0.009192 0.022208 0.003518
0.011139 0.022208 0.003518
0.013779 0.022208 0.003518
0.017357 0.022208 0.003518
0.022208 0.022208 0.003518
0.028783 0.022208 0.003518
0.037696 0.022208 0.003518
0.049778 0.022208 0.003518
0.066156 0.022208 0.003518
0.088358 0.022208 0.003518
0.118453 0.022208 0.003518
0.159248 0.022208 0.003518
0.214549 0.022208 0.003518
0.289513 0.022208 0.003518
0.391131 0.022208 0.003518
0.528880 0.022208 0.003518
0.715606 0.022208 0.003518
0.968726 0.022208 0.003518
1.000000 0.022208 0.003518
0.003518 0.028783 0.003518
0.003653 0.028783 0.003518
0.003789 0.028783 0.003518
0.003924 0.028783 0.003518
0.004059 0.028783 0.003518
0.004196 0.028783 0.003518
0.004366 0.028783 0.003518
0.004598 0.028783 0.003518
0.004912 0.028783 0.003518
0.005337 0.028783 0.003518
0.005914 0.028783 0.003518
0.006696 0.028783 0.003518
0.007755 0.028783 0.003518
0.009192 0.028783 0.003518
0.011139 0.028783 0.003518
0.013779 0.028783 0.003518
0.017357 0.028783 0.003518
0.022208 0.028783 0.003518
0.028783 0.028783 0.003518
0.037696 0.028783 0.003518
0.049778 0.028783 0.003518
0.066156 0.028783 0.003518
0.088358 0.028783 0.003518
0.118453 0.028783 0.003518
0.159248 0.028783 0.003518
0.214549 0.028783 0.003518
0.289513 0.028783 0.003518
0.391131 0.028783 0.003518
0.528880 0.028783 0.003518
0.715606 0.028783 0.003518
0.968726 0.028783 0.003518
1.000000 0.028783 0.003518
0.003518 0.037696 0.003518
0.003653 0.037696 0.003518
0.003789 0.037696 0.003518
0.003924 0.037696 0.003518
0.004059 0.037696 0.003518
0.004196 0.037696 0.003518
0.004366 0.037696 0.003518
0.004598 0.037696 0.003518
0.004912 0.037696 0.003518
0.005337 0.037696 0.003518
0.005914 0.037696 0.003518
0.006696 0.037696 0.003518
0.007755 0.037696 0.003518
0.009192 0.037696 0.003518
0.011139 0.037696 0.003518
0.013779 0.037696 0.003518
0.017357 0.037696 0.003518
0.022208 0.037696 0.003518
0.028783 0.037696 0.003518
0.037696 0.037696 0.003518
0.049778 0.037696 0.003518
0.066156 0.037696 0.003518
0.088358 0.037696 0.003518
0.118453 0.037696 0.003518
0.159248 0.037696 0.003518
0.214549 0.037696 0.003518
0.289513 0.037696 0.003518
0.391131 0.037696 0.003518
0.528880 0.037696 0.003518
0.715606 0.037696 0.003518
0.968726 0.037696 0.003518
1.000000 0.037696 0.003518
0.003518 0.049778 0.003518
0.003653 0.049778 0.003518
0.003789 0.049778 0.003518
0.003924 0.049778 0.003518
0.004059 0.049778 0.003518
0.004196 0.049778 0.003518
0.004366 0.049778 0.003518
0.004598 0.049778 0.003518
0.004912 0.049778 0.003518
0.005337 0.049778 0.003518
0.005914 0.049778 0.003518
0.006696 0.049778 0.003518
0.007755 0.049778 0.003518
0.009192 0.049778 0.003518
0.011139 0.049778 0.003518
0.013779 0.049778 0.003518
0.017357 0.049778 0.003518
0.022208 0.049778 0.003518
0.028783 0.049778 0.003518
0.037696 0.049778 0.003518
0.049778 0.049778 0.003518
0.066156 0.049778 0.003518
0.088358 0.049778 0.003518
0.118453 0.049778 0.003518
0.159248 0.049778 0.003518
0.214549 0.049778 0.003518
0.289513 0.049778 0.003518
0.391131 0.049778 0.003518
0.528880 0.049778 0.003518
0.715606 0.049778 0.003518
0.968726 0.049778 0.003518
1.000000 0.049778 0.003518
0.003518 0.066156 0.003518
0.003653 0.066156 0.003518
0.003789 0.066156 0.003518
0.003924 0.066156 0.003518
0.004059 0.066156 0.003518
0.004196 0.066156 0.003518
0.004366 0.066156 0.003518
0.004598 0.066156 0.003518
0.004912 0.066156 0.003518
0.005337 0.066156 0.003518
0.005914 0.066156 0.003518
0.006696 0.066156 0.003518
0.007755 0.066156 0.003518
0.009192 0.066156 0.003518
0.011139 0.066156 0.003518
0.013779 0.066156 0.003518
0.017357 0.066156 0.003518
0.022208 0.066156 0.003518
0.028783 0.066156 0.003518
0.037696 0.066156 0.003518
0.049778 0.066156 0.003518
0.066156 0.066156 0.003518
0.088358 0.066156 0.003518
0.118453 0.066156 0.003518
0.159248 0.066156 0.003518
0.214549 0.066156 0.003518
0.289513 0.066156 0.003518
0.391131 0.066156 0.003518
0.528880 0.066156 0.003518
0.715606 0.066156 0.003518
0.968726 0.066156 0.003518
1.000000 0.066156 0.003518
0.003518 0.088358 0.003518
0.003653 0.088358 0.003518
0.003789 0.088358 0.003518
0.003924 0.088358 0.003518
0.004059 0.088358 0.003518
0.004196 0.088358 0.003518
0.004366 0.088358 0.003518
0.004598 0.088358 0.003518
0.004912 0.088358 0.003518
0.005337 0.088358 0.003518
0.005914 0.088358 0.003518
0.006696 0.088358 0.003518
0.007755 0.088358 0.003518
0.009192 0.088358 0.003518
0.011139 0.088358 0.003518
0.013779 0.088358 0.003518
0.017357 0.088358 0.003518
0.022208 0.088358 0.003518
0.028783 0.088358 0.003518
0.037696 0.088358 0.003518
0.049778 0.088358 0.003518
0.066156 0.088358 0.003518
0.088358 0.088358 0.003518
0.118453 0.088358 0.003518
0.159248 0.088358 0.003518
0.214549 0.088358 0.003518
0.289513 0.088358 0.003518
0.391131 0.088358 0.003518
0.528880 0.088358 0.003518
0.715606 0.088358 0.003518
0.968726 0.088358 0.003518
1.000000 0.088358 0.003518
0.003518 0.118453 0.003518
0.003653 0.118453 0.003518
0.003789 0.118453 0.003518
0.003924 0.118453 0.003518
0.004059 0.118453 0.003518
0.004196 0.118453 0.003518
0.004366 0.118453 0.003518
0.004598 0.118453 0.003518
0.004912 0.118453 0.003518
0.005337 0.118453 0.003518
0.005914 0.118453 0.003518
0.006696 0.118453 0.003518
0.007755 0.118453 0.003518
0.009192 0.118453 0.003518
0.011139 0.118453 0.003518
0.013779 0.118453 0.003518
0.017357 0.118453 0.003518
0.022208 0.118453 0.003518
0.028783 0.118453 0.003518
0.037696 0.118453 0.003518
0.049778 0.118453 0.003518
0.066156 0.118453 0.003518
0.088358 0.118453 0.003518
0.118453 0.118453 0.003518
0.159248 0.118453 0.003518
0.214549 0.118453 0.003518
0.289513 0.118453 0.003518
0.391131 0.118453 0.003518
0.528880 0.118453 0.003518
0.715606 0.118453 0.003518
0.968726 0.118453 0.003518
1.000000 0.118453 0.003518
0.003518 0.159248 0.003518
0.003653 0.159248 0.003518
0.003789 0.159248 0.003518
0.003924 0.159248 0.003518
0.004059 0.159248 0.003518
0.004196 0.159248 0.003518
0.004366 0.159248 0.003518
0.004598 0.159248 0.003518
0.004912 0.159248 0.003518
0.005337 0.159248 0.003518
0.005914 0.159248 0.003518
0.006696 0.159248 0.003518
0.007755 0.159248 0.003518
0.009192 0.159248 0.003518
0.011139 0.159248 0.003518
0.013779 0.159248 0.003518
0.017357 0.159248 0.003518
0.022208 0.159248 0.003518
0.028783 0.159248 0.003518
0.037696 0.159248 0.003518
0.049778 0.159248 0.003518
0.066156 0.159248 0.003518
0.088358 0.159248 0.003518
0.118453 0.159248 0.003518
0.159248 0.159248 0.003518
0.214549 0.159248 0.003518
0.289513 0.159248 0.003518
0.391131 0.159248 0.003518
0.528880 0.159248 0.003518
0.715606 0.159248 0.003518
0.968726 0.159248 0.003518
1.000000 0.159248 0.003518
0.003518 0.214549 0.003518
0.003653 0.214549 0.003518
0.003789 0.214549 0.003518
0.003924 0.214549 0.003518
0.004059 0.214549 0.003518
0.004196 0.214549 0.003518
0.004366 0.214549 0.003518
0.004598 0.214549 0.003518
0.004912 0.214549 0.003518
0.005337 0.214549 0.003518
0.005914 0.214549 0.003518
0.006696 0.214549 0.003518
0.007755 0.214549 0.003518
0.009192 0.214549 0.003518
0.011139 0.214549 0.003518
0.013779 0.214549 0.003518
0.017357 0.214549 0.003518
0.022208 0.214549 0.003518
0.028783 0.214549 0.003518
0.037696 0.214549 0.003518
0.049778 0.214549 0.003518
0.066156 0.214549 0.003518
0.088358 0.214549 0.003518
0.118453 0.214549 0.003518
0.159248 0.214549 0.003518
0.214549 0.214549 0.003518
0.289513 0.214549 0.003518
0.391131 0.214549 0.003518
0.528880 0.214549 0.003518
0.715606 0.214549 0.003518
0.968726 0.214549 0.003518
1.000000 0.214549 0.003518
0.003518 0.289513 0.003518
0.003653 0.289513 0.003518
0.003789 0.289513 0.003518
0.003924 0.289513 0.003518
0.004059 0.289513 0.003518
0.004196 0.289513 0.003518
0.004366 0.289513 0.003518
0.004598 0.289513 0.003518
0.004912 0.289513 0.003518
0.005337 0.289513 0.003518
0.005914 0.289513 0.003518
0.006696 0.289513 0.003518
0.007755 0.289513 0.003518
0.009192 0.289513 0.003518
0.011139 0.289513 0.003518
0.013779 0.289513 0.003518
0.017357 0.289513 0.003518
0.022208 0.289513 0.003518
0.028783 0.289513 0.003518
0.037696 0.289513 0.003518
0.049778 0.289513 0.003518
0.066156 0.289513 0.003518
0.088358 0.289513 0.003518
0.118453 0.289513 0.003518
0.159248 0.289513 0.003518
0.214549 0.289513 0.003518
0.289513 0.289513 0.003518
0.391131 0.289513 0.003518
0.528880 0.289513 0.003518
0.715606 0.289513 0.003518
0.968726 0.289513 0.003518
1.000000 0.289513 0.003518
0.003518 0.391131 0.003518
0.003653 0.391131 0.003518
0.003789 0.391131 0.003518
0.003924 0.391131 0.003518
0.004059 0.391131 0.003518
0.004196 0.391131 0.003518
0.004366 0.391131 0.003518
0.004598 0.391131 0.003518
0.004912 0.391131 0.003518
0.005337 0.391131 0.003518
0.005914 0.391131 0.003518
0.006696 0.391131 0.003518
0.007755 0.391131 0.003518
0.009192 0.391131 0.003518
0.011139 0.391131 0.003518
0.013779 0.391131 0.003518
0.017357 0.391131 0.003518
0.022208 0.391131 0.003518
0.028783 0.391131 0.003518
0.037696 0.391131 0.003518
0.049778 0.391131 0.003518
