.nuke/nuke.LUT/logC-2-linear_extended/AlexaV3_EI0250_LogC2Linear_EE_nuke3d.cube
# Alexa conversion LUT, logc2lin. Full in/full out.
# created by alexalutconv (2.07)
LUT_3D_SIZE 8
DOMAIN_MIN 0.000000 0.000000 0.000000
DOMAIN_MAX 0.903226 0.903226 0.903226
0.002463 0.002463 0.002463
0.004471 0.002463 0.002463
0.008100 0.002463 0.002463
0.019330 0.002463 0.002463
0.054084 0.002463 0.002463
0.161648 0.002463 0.002463
0.494555 0.002463 0.002463
1.000000 0.002463 0.002463
0.002463 0.004471 0.002463
0.004471 0.004471 0.002463
0.008100 0.004471 0.002463
0.019330 0.004471 0.002463
0.054084 0.004471 0.002463
0.161648 0.004471 0.002463
0.494555 0.004471 0.002463
1.000000 0.004471 0.002463
0.002463 0.008100 0.002463
0.004471 0.008100 0.002463
0.008100 0.008100 0.002463
0.019330 0.008100 0.002463
0.054084 0.008100 0.002463
0.161648 0.008100 0.002463
0.494555 0.008100 0.002463
1.000000 0.008100 0.002463
0.002463 0.019330 0.002463
0.004471 0.019330 0.002463
0.008100 0.019330 0.002463
0.019330 0.019330 0.002463
0.054084 0.019330 0.002463
0.161648 0.019330 0.002463
0.494555 0.019330 0.002463
1.000000 0.019330 0.002463
0.002463 0.054084 0.002463
0.004471 0.054084 0.002463
0.008100 0.054084 0.002463
0.019330 0.054084 0.002463
0.054084 0.054084 0.002463
0.161648 0.054084 0.002463
0.494555 0.054084 0.002463
1.000000 0.054084 0.002463
0.002463 0.161648 0.002463
0.004471 0.161648 0.002463
0.008100 0.161648 0.002463
0.019330 0.161648 0.002463
0.054084 0.161648 0.002463
0.161648 0.161648 0.002463
0.494555 0.161648 0.002463
1.000000 0.161648 0.002463
0.002463 0.494555 0.002463
0.004471 0.494555 0.002463
0.008100 0.494555 0.002463
0.019330 0.494555 0.002463
0.054084 0.494555 0.002463
0.161648 0.494555 0.002463
0.494555 0.494555 0.002463
1.000000 0.494555 0.002463
0.002463 1.000000 0.002463
0.004471 1.000000 0.002463
0.008100 1.000000 0.002463
0.019330 1.000000 0.002463
0.054084 1.000000 0.002463
0.161648 1.000000 0.002463
0.494555 1.000000 0.002463
1.000000 1.000000 0.002463
0.002463 0.002463 0.004471
0.004471 0.002463 0.004471
0.008100 0.002463 0.004471
0.019330 0.002463 0.004471
0.054084 0.002463 0.004471
0.161648 0.002463 0.004471
0.494555 0.002463 0.004471
1.000000 0.002463 0.004471
0.002463 0.004471 0.004471
0.004471 0.004471 0.004471
0.008100 0.004471 0.004471
0.019330 0.004471 0.004471
0.054084 0.004471 0.004471
0.161648 0.004471 0.004471
0.494555 0.004471 0.004471
1.000000 0.004471 0.004471
0.002463 0.008100 0.004471
0.004471 0.008100 0.004471
0.008100 0.008100 0.004471
0.019330 0.008100 0.004471
0.054084 0.008100 0.004471
0.161648 0.008100 0.004471
0.494555 0.008100 0.004471
1.000000 0.008100 0.004471
0.002463 0.019330 0.004471
0.004471 0.019330 0.004471
0.008100 0.019330 0.004471
0.019330 0.019330 0.004471
0.054084 0.019330 0.004471
0.161648 0.019330 0.004471
0.494555 0.019330 0.004471
1.000000 0.019330 0.004471
0.002463 0.054084 0.004471
0.004471 0.054084 0.004471
0.008100 0.054084 0.004471
0.019330 0.054084 0.004471
0.054084 0.054084 0.004471
0.161648 0.054084 0.004471
0.494555 0.054084 0.004471
1.000000 0.054084 0.004471
0.002463 0.161648 0.004471
0.004471 0.161648 0.004471
0.008100 0.161648 0.004471
0.019330 0.161648 0.004471
0.054084 0.161648 0.004471
0.161648 0.161648 0.004471
0.494555 0.161648 0.004471
1.000000 0.161648 0.004471
0.002463 0.494555 0.004471
0.004471 0.494555 0.004471
0.008100 0.494555 0.004471
0.019330 0.494555 0.004471
0.054084 0.494555 0.004471
0.161648 0.494555 0.004471
0.494555 0.494555 0.004471
1.000000 0.494555 0.004471
0.002463 1.000000 0.004471
0.004471 1.000000 0.004471
0.008100 1.000000 0.004471
0.019330 1.000000 0.004471
0.054084 1.000000 0.004471
0.161648 1.000000 0.004471
0.494555 1.000000 0.004471
1.000000 1.000000 0.004471
0.002463 0.002463 0.008100
0.004471 0.002463 0.008100
0.008100 0.002463 0.008100
0.019330 0.002463 0.008100
0.054084 0.002463 0.008100
0.161648 0.002463 0.008100
0.494555 0.002463 0.008100
1.000000 0.002463 0.008100
0.002463 0.004471 0.008100
0.004471 0.004471 0.008100
0.008100 0.004471 0.008100
0.019330 0.004471 0.008100
0.054084 0.004471 0.008100
0.161648 0.004471 0.008100
0.494555 0.004471 0.008100
1.000000 0.004471 0.008100
0.002463 0.008100 0.008100
0.004471 0.008100 0.008100
0.008100 0.008100 0.008100
0.019330 0.008100 0.008100
0.054084 0.008100 0.008100
0.161648 0.008100 0.008100
0.494555 0.008100 0.008100
1.000000 0.008100 0.008100
0.002463 0.019330 0.008100
0.004471 0.019330 0.008100
0.008100 0.019330 0.008100
0.019330 0.019330 0.008100
0.054084 0.019330 0.008100
0.161648 0.019330 0.008100
0.494555 0.019330 0.008100
1.000000 0.019330 0.008100
0.002463 0.054084 0.008100
0.004471 0.054084 0.008100
0.008100 0.054084 0.008100
0.019330 0.054084 0.008100
0.054084 0.054084 0.008100
0.161648 0.054084 0.008100
0.494555 0.054084 0.008100
1.000000 0.054084 0.008100
0.002463 0.161648 0.008100
0.004471 0.161648 0.008100
0.008100 0.161648 0.008100
0.019330 0.161648 0.008100
0.054084 0.161648 0.008100
0.161648 0.161648 0.008100
0.494555 0.161648 0.008100
1.000000 0.161648 0.008100
0.002463 0.494555 0.008100
0.004471 0.494555 0.008100
0.008100 0.494555 0.008100
0.019330 0.494555 0.008100
0.054084 0.494555 0.008100
0.161648 0.494555 0.008100
0.494555 0.494555 0.008100
1.000000 0.494555 0.008100
0.002463 1.000000 0.008100
0.004471 1.000000 0.008100
0.008100 1.000000 0.008100
0.019330 1.000000 0.008100
0.054084 1.000000 0.008100
0.161648 1.000000 0.008100
0.494555 1.000000 0.008100
1.000000 1.000000 0.008100
0.002463 0.002463 0.019330
0.004471 0.002463 0.019330
0.008100 0.002463 0.019330
0.019330 0.002463 0.019330
0.054084 0.002463 0.019330
0.161648 0.002463 0.019330
0.494555 0.002463 0.019330
1.000000 0.002463 0.019330
0.002463 0.004471 0.019330
0.004471 0.004471 0.019330
0.008100 0.004471 0.019330
0.019330 0.004471 0.019330
0.054084 0.004471 0.019330
0.161648 0.004471 0.019330
0.494555 0.004471 0.019330
1.000000 0.004471 0.019330
0.002463 0.008100 0.019330
0.004471 0.008100 0.019330
0.008100 0.008100 0.019330
0.019330 0.008100 0.019330
0.054084 0.008100 0.019330
0.161648 0.008100 0.019330
0.494555 0.008100 0.019330
1.000000 0.008100 0.019330
0.002463 0.019330 0.019330
0.004471 0.019330 0.019330
0.008100 0.019330 0.019330
0.019330 0.019330 0.019330
0.054084 0.019330 0.019330
0.161648 0.019330 0.019330
0.494555 0.019330 0.019330
1.000000 0.019330 0.019330
0.002463 0.054084 0.019330
0.004471 0.054084 0.019330
0.008100 0.054084 0.019330
0.019330 0.054084 0.019330
0.054084 0.054084 0.019330
0.161648 0.054084 0.019330
0.494555 0.054084 0.019330
1.000000 0.054084 0.019330
0.002463 0.161648 0.019330
0.004471 0.161648 0.019330
0.008100 0.161648 0.019330
0.019330 0.161648 0.019330
0.054084 0.161648 0.019330
0.161648 0.161648 0.019330
0.494555 0.161648 0.019330
1.000000 0.161648 0.019330
0.002463 0.494555 0.019330
0.004471 0.494555 0.019330
0.008100 0.494555 0.019330
0.019330 0.494555 0.019330
0.054084 0.494555 0.019330
0.161648 0.494555 0.019330
0.494555 0.494555 0.019330
1.000000 0.494555 0.019330
0.002463 1.000000 0.019330
0.004471 1.000000 0.019330
0.008100 1.000000 0.019330
0.019330 1.000000 0.019330
0.054084 1.000000 0.019330
0.161648 1.000000 0.019330
0.494555 1.000000 0.019330
1.000000 1.000000 0.019330
0.002463 0.002463 0.054084
0.004471 0.002463 0.054084
0.008100 0.002463 0.054084
0.019330 0.002463 0.054084
0.054084 0.002463 0.054084
0.161648 0.002463 0.054084
0.494555 0.002463 0.054084
1.000000 0.002463 0.054084
0.002463 0.004471 0.054084
0.004471 0.004471 0.054084
0.008100 0.004471 0.054084
0.019330 0.004471 0.054084
0.054084 0.004471 0.054084
0.161648 0.004471 0.054084
0.494555 0.004471 0.054084
1.000000 0.004471 0.054084
0.002463 0.008100 0.054084
0.004471 0.008100 0.054084
0.008100 0.008100 0.054084
0.019330 0.008100 0.054084
0.054084 0.008100 0.054084
0.161648 0.008100 0.054084
0.494555 0.008100 0.054084
1.000000 0.008100 0.054084
0.002463 0.019330 0.054084
0.004471 0.019330 0.054084
0.008100 0.019330 0.054084
0.019330 0.019330 0.054084
0.054084 0.019330 0.054084
0.161648 0.019330 0.054084
0.494555 0.019330 0.054084
1.000000 0.019330 0.054084
0.002463 0.054084 0.054084
0.004471 0.054084 0.054084
0.008100 0.054084 0.054084
0.019330 0.054084 0.054084
0.054084 0.054084 0.054084
0.161648 0.054084 0.054084
0.494555 0.054084 0.054084
1.000000 0.054084 0.054084
0.002463 0.161648 0.054084
0.004471 0.161648 0.054084
0.008100 0.161648 0.054084
0.019330 0.161648 0.054084
0.054084 0.161648 0.054084
0.161648 0.161648 0.054084
0.494555 0.161648 0.054084
1.000000 0.161648 0.054084
0.002463 0.494555 0.054084
0.004471 0.494555 0.054084
0.008100 0.494555 0.054084
0.019330 0.494555 0.054084
0.054084 0.494555 0.054084
0.161648 0.494555 0.054084
0.494555 0.494555 0.054084
1.000000 0.494555 0.054084
0.002463 1.000000 0.054084
0.004471 1.000000 0.054084
0.008100 1.000000 0.054084
0.019330 1.000000 0.054084
0.054084 1.000000 0.054084
0.161648 1.000000 0.054084
0.494555 1.000000 0.054084
1.000000 1.000000 0.054084
0.002463 0.002463 0.161648
0.004471 0.002463 0.161648
0.008100 0.002463 0.161648
0.019330 0.002463 0.161648
0.054084 0.002463 0.161648
0.161648 0.002463 0.161648
0.494555 0.002463 0.161648
1.000000 0.002463 0.161648
0.002463 0.004471 0.161648
0.004471 0.004471 0.161648
0.008100 0.004471 0.161648
0.019330 0.004471 0.161648
0.054084 0.004471 0.161648
0.161648 0.004471 0.161648
0.494555 0.004471 0.161648
1.000000 0.004471 0.161648
0.002463 0.008100 0.161648
0.004471 0.008100 0.161648
0.008100 0.008100 0.161648
0.019330 0.008100 0.161648
0.054084 0.008100 0.161648
0.161648 0.008100 0.161648
0.494555 0.008100 0.161648
1.000000 0.008100 0.161648
0.002463 0.019330 0.161648
0.004471 0.019330 0.161648
0.008100 0.019330 0.161648
0.019330 0.019330 0.161648
0.054084 0.019330 0.161648
0.161648 0.019330 0.161648
0.494555 0.019330 0.161648
1.000000 0.019330 0.161648
0.002463 0.054084 0.161648
0.004471 0.054084 0.161648
0.008100 0.054084 0.161648
0.019330 0.054084 0.161648
0.054084 0.054084 0.161648
0.161648 0.054084 0.161648
0.494555 0.054084 0.161648
1.000000 0.054084 0.161648
0.002463 0.161648 0.161648
0.004471 0.161648 0.161648
0.008100 0.161648 0.161648
0.019330 0.161648 0.161648
0.054084 0.161648 0.161648
0.161648 0.161648 0.161648
0.494555 0.161648 0.161648
1.000000 0.161648 0.161648
0.002463 0.494555 0.161648
0.004471 0.494555 0.161648
0.008100 0.494555 0.161648
0.019330 0.494555 0.161648
0.054084 0.494555 0.161648
0.161648 0.494555 0.161648
0.494555 0.494555 0.161648
1.000000 0.494555 0.161648
0.002463 1.000000 0.161648
0.004471 1.000000 0.161648
0.008100 1.000000 0.161648
0.019330 1.000000 0.161648
0.054084 1.000000 0.161648
0.161648 1.000000 0.161648
0.494555 1.000000 0.161648
1.000000 1.000000 0.161648
0.002463 0.002463 0.494555
0.004471 0.002463 0.494555
0.008100 0.002463 0.494555
0.019330 0.002463 0.494555
0.054084 0.002463 0.494555
0.161648 0.002463 0.494555
0.494555 0.002463 0.494555
1.000000 0.002463 0.494555
0.002463 0.004471 0.494555
0.004471 0.004471 0.494555
0.008100 0.004471 0.494555
0.019330 0.004471 0.494555
0.054084 0.004471 0.494555
0.161648 0.004471 0.494555
0.494555 0.004471 0.494555
1.000000 0.004471 0.494555
0.002463 0.008100 0.494555
0.004471 0.008100 0.494555
0.008100 0.008100 0.494555
0.019330 0.008100 0.494555
0.054084 0.008100 0.494555
0.161648 0.008100 0.494555
0.494555 0.008100 0.494555
1.000000 0.008100 0.494555
0.002463 0.019330 0.494555
0.004471 0.019330 0.494555
0.008100 0.019330 0.494555
0.019330 0.019330 0.494555
0.054084 0.019330 0.494555
0.161648 0.019330 0.494555
0.494555 0.019330 0.494555
1.000000 0.019330 0.494555
0.002463 0.054084 0.494555
0.004471 0.054084 0.494555
0.008100 0.054084 0.494555
0.019330 0.054084 0.494555
0.054084 0.054084 0.494555
0.161648 0.054084 0.494555
0.494555 0.054084 0.494555
1.000000 0.054084 0.494555
0.002463 0.161648 0.494555
0.004471 0.161648 0.494555
0.008100 0.161648 0.494555
0.019330 0.161648 0.494555
0.054084 0.161648 0.494555
0.161648 0.161648 0.494555
0.494555 0.161648 0.494555
1.000000 0.161648 0.494555
0.002463 0.494555 0.494555
0.004471 0.494555 0.494555
0.008100 0.494555 0.494555
0.019330 0.494555 0.494555
0.054084 0.494555 0.494555
0.161648 0.494555 0.494555
0.494555 0.494555 0.494555
1.000000 0.494555 0.494555
0.002463 1.000000 0.494555
0.004471 1.000000 0.494555
0.008100 1.000000 0.494555
0.019330 1.000000 0.494555
0.054084 1.000000 0.494555
0.161648 1.000000 0.494555
0.494555 1.000000 0.494555
1.000000 1.000000 0.494555
0.002463 0.002463 1.000000
0.004471 0.002463 1.000000
0.008100 0.002463 1.000000
0.019330 0.002463 1.000000
0.054084 0.002463 1.000000
0.161648 0.002463 1.000000
0.494555 0.002463 1.000000
1.000000 0.002463 1.000000
0.002463 0.004471 1.000000
0.004471 0.004471 1.000000
0.008100 0.004471 1.000000
0.019330 0.004471 1.000000
0.054084 0.004471 1.000000
0.161648 0.004471 1.000000
0.494555 0.004471 1.000000
1.000000 0.004471 1.000000
0.002463 0.008100 1.000000
0.004471 0.008100 1.000000
0.008100 0.008100 1.000000
0.019330 0.008100 1.000000
0.054084 0.008100 1.000000
0.161648 0.008100 1.000000
0.494555 0.008100 1.000000
1.000000 0.008100 1.000000
0.002463 0.019330 1.000000
0.004471 0.019330 1.000000
0.008100 0.019330 1.000000
0.019330 0.019330 1.000000
0.054084 0.019330 1.000000
0.161648 0.019330 1.000000
0.494555 0.019330 1.000000
1.000000 0.019330 1.000000
0.002463 0.054084 1.000000
0.004471 0.054084 1.000000
0.008100 0.054084 1.000000
0.019330 0.054084 1.000000
0.054084 0.054084 1.000000
0.161648 0.054084 1.000000
0.494555 0.054084 1.000000
1.000000 0.054084 1.000000
0.002463 0.161648 1.000000
0.004471 0.161648 1.000000
0.008100 0.161648 1.000000
0.019330 0.161648 1.000000
0.054084 0.161648 1.000000
0.161648 0.161648 1.000000
0.494555 0.161648 1.000000
1.000000 0.161648 1.000000
0.002463 0.494555 1.000000
0.004471 0.494555 1.000000
0.008100 0.494555 1.000000
0.019330 0.494555 1.000000
0.054084 0.494555 1.000000
0.161648 0.494555 1.000000
0.494555 0.494555 1.000000
1.000000 0.494555 1.000000
0.002463 1.000000 1.000000
0.004471 1.000000 1.000000
0.008100 1.000000 1.000000
0.019330 1.000000 1.000000
0.054084 1.000000 1.000000
0.161648 1.000000 1.000000
0.494555 1.000000 1.000000
1.000000 1.000000 1.000000
