.nuke/nuke.LUT/logC-2-linear_extended/AlexaV3_EI0200_LogC2Linear_EE_nuke3d.cube
# Alexa conversion LUT, logc2lin. Full in/full out.
# created by alexalutconv (2.07)
LUT_3D_SIZE 32
0.002122 0.002122 0.002122
0.002743 0.002122 0.002122
0.003363 0.002122 0.002122
0.003984 0.002122 0.002122
0.004604 0.002122 0.002122
0.005323 0.002122 0.002122
0.006272 0.002122 0.002122
0.007528 0.002122 0.002122
0.009187 0.002122 0.002122
0.011382 0.002122 0.002122
0.014283 0.002122 0.002122
0.018119 0.002122 0.002122
0.023191 0.002122 0.002122
0.029896 0.002122 0.002122
0.038760 0.002122 0.002122
0.050480 0.002122 0.002122
0.065976 0.002122 0.002122
0.086463 0.002122 0.002122
0.113548 0.002122 0.002122
0.149358 0.002122 0.002122
0.196703 0.002122 0.002122
0.259298 0.002122 0.002122
0.342056 0.002122 0.002122
0.451471 0.002122 0.002122
0.596129 0.002122 0.002122
0.787384 0.002122 0.002122
1.000000 0.002122 0.002122
1.000000 0.002122 0.002122
1.000000 0.002122 0.002122
1.000000 0.002122 0.002122
1.000000 0.002122 0.002122
1.000000 0.002122 0.002122
0.002122 0.002743 0.002122
0.002743 0.002743 0.002122
0.003363 0.002743 0.002122
0.003984 0.002743 0.002122
0.004604 0.002743 0.002122
0.005323 0.002743 0.002122
0.006272 0.002743 0.002122
0.007528 0.002743 0.002122
0.009187 0.002743 0.002122
0.011382 0.002743 0.002122
0.014283 0.002743 0.002122
0.018119 0.002743 0.002122
0.023191 0.002743 0.002122
0.029896 0.002743 0.002122
0.038760 0.002743 0.002122
0.050480 0.002743 0.002122
0.065976 0.002743 0.002122
0.086463 0.002743 0.002122
0.113548 0.002743 0.002122
0.149358 0.002743 0.002122
0.196703 0.002743 0.002122
0.259298 0.002743 0.002122
0.342056 0.002743 0.002122
0.451471 0.002743 0.002122
0.596129 0.002743 0.002122
0.787384 0.002743 0.002122
1.000000 0.002743 0.002122
1.000000 0.002743 0.002122
1.000000 0.002743 0.002122
1.000000 0.002743 0.002122
1.000000 0.002743 0.002122
1.000000 0.002743 0.002122
0.002122 0.003363 0.002122
0.002743 0.003363 0.002122
0.003363 0.003363 0.002122
0.003984 0.003363 0.002122
0.004604 0.003363 0.002122
0.005323 0.003363 0.002122
0.006272 0.003363 0.002122
0.007528 0.003363 0.002122
0.009187 0.003363 0.002122
0.011382 0.003363 0.002122
0.014283 0.003363 0.002122
0.018119 0.003363 0.002122
0.023191 0.003363 0.002122
0.029896 0.003363 0.002122
0.038760 0.003363 0.002122
0.050480 0.003363 0.002122
0.065976 0.003363 0.002122
0.086463 0.003363 0.002122
0.113548 0.003363 0.002122
0.149358 0.003363 0.002122
0.196703 0.003363 0.002122
0.259298 0.003363 0.002122
0.342056 0.003363 0.002122
0.451471 0.003363 0.002122
0.596129 0.003363 0.002122
0.787384 0.003363 0.002122
1.000000 0.003363 0.002122
1.000000 0.003363 0.002122
1.000000 0.003363 0.002122
1.000000 0.003363 0.002122
1.000000 0.003363 0.002122
1.000000 0.003363 0.002122
0.002122 0.003984 0.002122
0.002743 0.003984 0.002122
0.003363 0.003984 0.002122
0.003984 0.003984 0.002122
0.004604 0.003984 0.002122
0.005323 0.003984 0.002122
0.006272 0.003984 0.002122
0.007528 0.003984 0.002122
0.009187 0.003984 0.002122
0.011382 0.003984 0.002122
0.014283 0.003984 0.002122
0.018119 0.003984 0.002122
0.023191 0.003984 0.002122
0.029896 0.003984 0.002122
0.038760 0.003984 0.002122
0.050480 0.003984 0.002122
0.065976 0.003984 0.002122
0.086463 0.003984 0.002122
0.113548 0.003984 0.002122
0.149358 0.003984 0.002122
0.196703 0.003984 0.002122
0.259298 0.003984 0.002122
0.342056 0.003984 0.002122
0.451471 0.003984 0.002122
0.596129 0.003984 0.002122
0.787384 0.003984 0.002122
1.000000 0.003984 0.002122
1.000000 0.003984 0.002122
1.000000 0.003984 0.002122
1.000000 0.003984 0.002122
1.000000 0.003984 0.002122
1.000000 0.003984 0.002122
0.002122 0.004604 0.002122
0.002743 0.004604 0.002122
0.003363 0.004604 0.002122
0.003984 0.004604 0.002122
0.004604 0.004604 0.002122
0.005323 0.004604 0.002122
0.006272 0.004604 0.002122
0.007528 0.004604 0.002122
0.009187 0.004604 0.002122
0.011382 0.004604 0.002122
0.014283 0.004604 0.002122
0.018119 0.004604 0.002122
0.023191 0.004604 0.002122
0.029896 0.004604 0.002122
0.038760 0.004604 0.002122
0.050480 0.004604 0.002122
0.065976 0.004604 0.002122
0.086463 0.004604 0.002122
0.113548 0.004604 0.002122
0.149358 0.004604 0.002122
0.196703 0.004604 0.002122
0.259298 0.004604 0.002122
0.342056 0.004604 0.002122
0.451471 0.004604 0.002122
0.596129 0.004604 0.002122
0.787384 0.004604 0.002122
1.000000 0.004604 0.002122
1.000000 0.004604 0.002122
1.000000 0.004604 0.002122
1.000000 0.004604 0.002122
1.000000 0.004604 0.002122
1.000000 0.004604 0.002122
0.002122 0.005323 0.002122
0.002743 0.005323 0.002122
0.003363 0.005323 0.002122
0.003984 0.005323 0.002122
0.004604 0.005323 0.002122
0.005323 0.005323 0.002122
0.006272 0.005323 0.002122
0.007528 0.005323 0.002122
0.009187 0.005323 0.002122
0.011382 0.005323 0.002122
0.014283 0.005323 0.002122
0.018119 0.005323 0.002122
0.023191 0.005323 0.002122
0.029896 0.005323 0.002122
0.038760 0.005323 0.002122
0.050480 0.005323 0.002122
0.065976 0.005323 0.002122
0.086463 0.005323 0.002122
0.113548 0.005323 0.002122
0.149358 0.005323 0.002122
0.196703 0.005323 0.002122
0.259298 0.005323 0.002122
0.342056 0.005323 0.002122
0.451471 0.005323 0.002122
0.596129 0.005323 0.002122
0.787384 0.005323 0.002122
1.000000 0.005323 0.002122
1.000000 0.005323 0.002122
1.000000 0.005323 0.002122
1.000000 0.005323 0.002122
1.000000 0.005323 0.002122
1.000000 0.005323 0.002122
0.002122 0.006272 0.002122
0.002743 0.006272 0.002122
0.003363 0.006272 0.002122
0.003984 0.006272 0.002122
0.004604 0.006272 0.002122
0.005323 0.006272 0.002122
0.006272 0.006272 0.002122
0.007528 0.006272 0.002122
0.009187 0.006272 0.002122
0.011382 0.006272 0.002122
0.014283 0.006272 0.002122
0.018119 0.006272 0.002122
0.023191 0.006272 0.002122
0.029896 0.006272 0.002122
0.038760 0.006272 0.002122
0.050480 0.006272 0.002122
0.065976 0.006272 0.002122
0.086463 0.006272 0.002122
0.113548 0.006272 0.002122
0.149358 0.006272 0.002122
0.196703 0.006272 0.002122
0.259298 0.006272 0.002122
0.342056 0.006272 0.002122
0.451471 0.006272 0.002122
0.596129 0.006272 0.002122
0.787384 0.006272 0.002122
1.000000 0.006272 0.002122
1.000000 0.006272 0.002122
1.000000 0.006272 0.002122
1.000000 0.006272 0.002122
1.000000 0.006272 0.002122
1.000000 0.006272 0.002122
0.002122 0.007528 0.002122
0.002743 0.007528 0.002122
0.003363 0.007528 0.002122
0.003984 0.007528 0.002122
0.004604 0.007528 0.002122
0.005323 0.007528 0.002122
0.006272 0.007528 0.002122
0.007528 0.007528 0.002122
0.009187 0.007528 0.002122
0.011382 0.007528 0.002122
0.014283 0.007528 0.002122
0.018119 0.007528 0.002122
0.023191 0.007528 0.002122
0.029896 0.007528 0.002122
0.038760 0.007528 0.002122
0.050480 0.007528 0.002122
0.065976 0.007528 0.002122
0.086463 0.007528 0.002122
0.113548 0.007528 0.002122
0.149358 0.007528 0.002122
0.196703 0.007528 0.002122
0.259298 0.007528 0.002122
0.342056 0.007528 0.002122
0.451471 0.007528 0.002122
0.596129 0.007528 0.002122
0.787384 0.007528 0.002122
1.000000 0.007528 0.002122
1.000000 0.007528 0.002122
1.000000 0.007528 0.002122
1.000000 0.007528 0.002122
1.000000 0.007528 0.002122
1.000000 0.007528 0.002122
0.002122 0.009187 0.002122
0.002743 0.009187 0.002122
0.003363 0.009187 0.002122
0.003984 0.009187 0.002122
0.004604 0.009187 0.002122
0.005323 0.009187 0.002122
0.006272 0.009187 0.002122
0.007528 0.009187 0.002122
0.009187 0.009187 0.002122
0.011382 0.009187 0.002122
0.014283 0.009187 0.002122
0.018119 0.009187 0.002122
0.023191 0.009187 0.002122
0.029896 0.009187 0.002122
0.038760 0.009187 0.002122
0.050480 0.009187 0.002122
0.065976 0.009187 0.002122
0.086463 0.009187 0.002122
0.113548 0.009187 0.002122
0.149358 0.009187 0.002122
0.196703 0.009187 0.002122
0.259298 0.009187 0.002122
0.342056 0.009187 0.002122
0.451471 0.009187 0.002122
0.596129 0.009187 0.002122
0.787384 0.009187 0.002122
1.000000 0.009187 0.002122
1.000000 0.009187 0.002122
1.000000 0.009187 0.002122
1.000000 0.009187 0.002122
1.000000 0.009187 0.002122
1.000000 0.009187 0.002122
0.002122 0.011382 0.002122
0.002743 0.011382 0.002122
0.003363 0.011382 0.002122
0.003984 0.011382 0.002122
0.004604 0.011382 0.002122
0.005323 0.011382 0.002122
0.006272 0.011382 0.002122
0.007528 0.011382 0.002122
0.009187 0.011382 0.002122
0.011382 0.011382 0.002122
0.014283 0.011382 0.002122
0.018119 0.011382 0.002122
0.023191 0.011382 0.002122
0.029896 0.011382 0.002122
0.038760 0.011382 0.002122
0.050480 0.011382 0.002122
0.065976 0.011382 0.002122
0.086463 0.011382 0.002122
0.113548 0.011382 0.002122
0.149358 0.011382 0.002122
0.196703 0.011382 0.002122
0.259298 0.011382 0.002122
0.342056 0.011382 0.002122
0.451471 0.011382 0.002122
0.596129 0.011382 0.002122
0.787384 0.011382 0.002122
1.000000 0.011382 0.002122
1.000000 0.011382 0.002122
1.000000 0.011382 0.002122
1.000000 0.011382 0.002122
1.000000 0.011382 0.002122
1.000000 0.011382 0.002122
0.002122 0.014283 0.002122
0.002743 0.014283 0.002122
0.003363 0.014283 0.002122
0.003984 0.014283 0.002122
0.004604 0.014283 0.002122
0.005323 0.014283 0.002122
0.006272 0.014283 0.002122
0.007528 0.014283 0.002122
0.009187 0.014283 0.002122
0.011382 0.014283 0.002122
0.014283 0.014283 0.002122
0.018119 0.014283 0.002122
0.023191 0.014283 0.002122
0.029896 0.014283 0.002122
0.038760 0.014283 0.002122
0.050480 0.014283 0.002122
0.065976 0.014283 0.002122
0.086463 0.014283 0.002122
0.113548 0.014283 0.002122
0.149358 0.014283 0.002122
0.196703 0.014283 0.002122
0.259298 0.014283 0.002122
0.342056 0.014283 0.002122
0.451471 0.014283 0.002122
0.596129 0.014283 0.002122
0.787384 0.014283 0.002122
1.000000 0.014283 0.002122
1.000000 0.014283 0.002122
1.000000 0.014283 0.002122
1.000000 0.014283 0.002122
1.000000 0.014283 0.002122
1.000000 0.014283 0.002122
0.002122 0.018119 0.002122
0.002743 0.018119 0.002122
0.003363 0.018119 0.002122
0.003984 0.018119 0.002122
0.004604 0.018119 0.002122
0.005323 0.018119 0.002122
0.006272 0.018119 0.002122
0.007528 0.018119 0.002122
0.009187 0.018119 0.002122
0.011382 0.018119 0.002122
0.014283 0.018119 0.002122
0.018119 0.018119 0.002122
0.023191 0.018119 0.002122
0.029896 0.018119 0.002122
0.038760 0.018119 0.002122
0.050480 0.018119 0.002122
0.065976 0.018119 0.002122
0.086463 0.018119 0.002122
0.113548 0.018119 0.002122
0.149358 0.018119 0.002122
0.196703 0.018119 0.002122
0.259298 0.018119 0.002122
0.342056 0.018119 0.002122
0.451471 0.018119 0.002122
0.596129 0.018119 0.002122
0.787384 0.018119 0.002122
1.000000 0.018119 0.002122
1.000000 0.018119 0.002122
1.000000 0.018119 0.002122
1.000000 0.018119 0.002122
1.000000 0.018119 0.002122
1.000000 0.018119 0.002122
0.002122 0.023191 0.002122
0.002743 0.023191 0.002122
0.003363 0.023191 0.002122
0.003984 0.023191 0.002122
0.004604 0.023191 0.002122
0.005323 0.023191 0.002122
0.006272 0.023191 0.002122
0.007528 0.023191 0.002122
0.009187 0.023191 0.002122
0.011382 0.023191 0.002122
0.014283 0.023191 0.002122
0.018119 0.023191 0.002122
0.023191 0.023191 0.002122
0.029896 0.023191 0.002122
0.038760 0.023191 0.002122
0.050480 0.023191 0.002122
0.065976 0.023191 0.002122
0.086463 0.023191 0.002122
0.113548 0.023191 0.002122
0.149358 0.023191 0.002122
0.196703 0.023191 0.002122
0.259298 0.023191 0.002122
0.342056 0.023191 0.002122
0.451471 0.023191 0.002122
0.596129 0.023191 0.002122
0.787384 0.023191 0.002122
1.000000 0.023191 0.002122
1.000000 0.023191 0.002122
1.000000 0.023191 0.002122
1.000000 0.023191 0.002122
1.000000 0.023191 0.002122
1.000000 0.023191 0.002122
0.002122 0.029896 0.002122
0.002743 0.029896 0.002122
0.003363 0.029896 0.002122
0.003984 0.029896 0.002122
0.004604 0.029896 0.002122
0.005323 0.029896 0.002122
0.006272 0.029896 0.002122
0.007528 0.029896 0.002122
0.009187 0.029896 0.002122
0.011382 0.029896 0.002122
0.014283 0.029896 0.002122
0.018119 0.029896 0.002122
0.023191 0.029896 0.002122
0.029896 0.029896 0.002122
0.038760 0.029896 0.002122
0.050480 0.029896 0.002122
0.065976 0.029896 0.002122
0.086463 0.029896 0.002122
0.113548 0.029896 0.002122
0.149358 0.029896 0.002122
0.196703 0.029896 0.002122
0.259298 0.029896 0.002122
0.342056 0.029896 0.002122
0.451471 0.029896 0.002122
0.596129 0.029896 0.002122
0.787384 0.029896 0.002122
1.000000 0.029896 0.002122
1.000000 0.029896 0.002122
1.000000 0.029896 0.002122
1.000000 0.029896 0.002122
1.000000 0.029896 0.002122
1.000000 0.029896 0.002122
0.002122 0.038760 0.002122
0.002743 0.038760 0.002122
0.003363 0.038760 0.002122
0.003984 0.038760 0.002122
0.004604 0.038760 0.002122
0.005323 0.038760 0.002122
0.006272 0.038760 0.002122
0.007528 0.038760 0.002122
0.009187 0.038760 0.002122
0.011382 0.038760 0.002122
0.014283 0.038760 0.002122
0.018119 0.038760 0.002122
0.023191 0.038760 0.002122
0.029896 0.038760 0.002122
0.038760 0.038760 0.002122
0.050480 0.038760 0.002122
0.065976 0.038760 0.002122
0.086463 0.038760 0.002122
0.113548 0.038760 0.002122
0.149358 0.038760 0.002122
0.196703 0.038760 0.002122
0.259298 0.038760 0.002122
0.342056 0.038760 0.002122
0.451471 0.038760 0.002122
0.596129 0.038760 0.002122
0.787384 0.038760 0.002122
1.000000 0.038760 0.002122
1.000000 0.038760 0.002122
1.000000 0.038760 0.002122
1.000000 0.038760 0.002122
1.000000 0.038760 0.002122
1.000000 0.038760 0.002122
0.002122 0.050480 0.002122
0.002743 0.050480 0.002122
0.003363 0.050480 0.002122
0.003984 0.050480 0.002122
0.004604 0.050480 0.002122
0.005323 0.050480 0.002122
0.006272 0.050480 0.002122
0.007528 0.050480 0.002122
0.009187 0.050480 0.002122
0.011382 0.050480 0.002122
0.014283 0.050480 0.002122
0.018119 0.050480 0.002122
0.023191 0.050480 0.002122
0.029896 0.050480 0.002122
0.038760 0.050480 0.002122
0.050480 0.050480 0.002122
0.065976 0.050480 0.002122
0.086463 0.050480 0.002122
0.113548 0.050480 0.002122
0.149358 0.050480 0.002122
0.196703 0.050480 0.002122
0.259298 0.050480 0.002122
0.342056 0.050480 0.002122
0.451471 0.050480 0.002122
0.596129 0.050480 0.002122
0.787384 0.050480 0.002122
1.000000 0.050480 0.002122
1.000000 0.050480 0.002122
1.000000 0.050480 0.002122
1.000000 0.050480 0.002122
1.000000 0.050480 0.002122
1.000000 0.050480 0.002122
0.002122 0.065976 0.002122
0.002743 0.065976 0.002122
0.003363 0.065976 0.002122
0.003984 0.065976 0.002122
0.004604 0.065976 0.002122
0.005323 0.065976 0.002122
0.006272 0.065976 0.002122
0.007528 0.065976 0.002122
0.009187 0.065976 0.002122
0.011382 0.065976 0.002122
0.014283 0.065976 0.002122
0.018119 0.065976 0.002122
0.023191 0.065976 0.002122
0.029896 0.065976 0.002122
0.038760 0.065976 0.002122
0.050480 0.065976 0.002122
0.065976 0.065976 0.002122
0.086463 0.065976 0.002122
0.113548 0.065976 0.002122
0.149358 0.065976 0.002122
0.196703 0.065976 0.002122
0.259298 0.065976 0.002122
0.342056 0.065976 0.002122
0.451471 0.065976 0.002122
0.596129 0.065976 0.002122
0.787384 0.065976 0.002122
1.000000 0.065976 0.002122
1.000000 0.065976 0.002122
1.000000 0.065976 0.002122
1.000000 0.065976 0.002122
1.000000 0.065976 0.002122
1.000000 0.065976 0.002122
0.002122 0.086463 0.002122
0.002743 0.086463 0.002122
0.003363 0.086463 0.002122
0.003984 0.086463 0.002122
0.004604 0.086463 0.002122
0.005323 0.086463 0.002122
0.006272 0.086463 0.002122
0.007528 0.086463 0.002122
0.009187 0.086463 0.002122
0.011382 0.086463 0.002122
0.014283 0.086463 0.002122
0.018119 0.086463 0.002122
0.023191 0.086463 0.002122
0.029896 0.086463 0.002122
0.038760 0.086463 0.002122
0.050480 0.086463 0.002122
0.065976 0.086463 0.002122
0.086463 0.086463 0.002122
0.113548 0.086463 0.002122
0.149358 0.086463 0.002122
0.196703 0.086463 0.002122
0.259298 0.086463 0.002122
0.342056 0.086463 0.002122
0.451471 0.086463 0.002122
0.596129 0.086463 0.002122
0.787384 0.086463 0.002122
1.000000 0.086463 0.002122
1.000000 0.086463 0.002122
1.000000 0.086463 0.002122
1.000000 0.086463 0.002122
1.000000 0.086463 0.002122
1.000000 0.086463 0.002122
0.002122 0.113548 0.002122
0.002743 0.113548 0.002122
0.003363 0.113548 0.002122
0.003984 0.113548 0.002122
0.004604 0.113548 0.002122
0.005323 0.113548 0.002122
0.006272 0.113548 0.002122
0.007528 0.113548 0.002122
0.009187 0.113548 0.002122
0.011382 0.113548 0.002122
0.014283 0.113548 0.002122
0.018119 0.113548 0.002122
0.023191 0.113548 0.002122
0.029896 0.113548 0.002122
0.038760 0.113548 0.002122
0.050480 0.113548 0.002122
0.065976 0.113548 0.002122
0.086463 0.113548 0.002122
0.113548 0.113548 0.002122
0.149358 0.113548 0.002122
0.196703 0.113548 0.002122
0.259298 0.113548 0.002122
0.342056 0.113548 0.002122
0.451471 0.113548 0.002122
0.596129 0.113548 0.002122
0.787384 0.113548 0.002122
1.000000 0.113548 0.002122
1.000000 0.113548 0.002122
1.000000 0.113548 0.002122
1.000000 0.113548 0.002122
1.000000 0.113548 0.002122
1.000000 0.113548 0.002122
0.002122 0.149358 0.002122
0.002743 0.149358 0.002122
0.003363 0.149358 0.002122
0.003984 0.149358 0.002122
0.004604 0.149358 0.002122
0.005323 0.149358 0.002122
0.006272 0.149358 0.002122
0.007528 0.149358 0.002122
0.009187 0.149358 0.002122
0.011382 0.149358 0.002122
0.014283 0.149358 0.002122
0.018119 0.149358 0.002122
0.023191 0.149358 0.002122
0.029896 0.149358 0.002122
0.038760 0.149358 0.002122
0.050480 0.149358 0.002122
0.065976 0.149358 0.002122
0.086463 0.149358 0.002122
0.113548 0.149358 0.002122
0.149358 0.149358 0.002122
0.196703 0.149358 0.002122
0.259298 0.149358 0.002122
0.342056 0.149358 0.002122
0.451471 0.149358 0.002122
0.596129 0.149358 0.002122
0.787384 0.149358 0.002122
1.000000 0.149358 0.002122
1.000000 0.149358 0.002122
1.000000 0.149358 0.002122
1.000000 0.149358 0.002122
1.000000 0.149358 0.002122
1.000000 0.149358 0.002122
0.002122 0.196703 0.002122
0.002743 0.196703 0.002122
0.003363 0.196703 0.002122
0.003984 0.196703 0.002122
0.004604 0.196703 0.002122
0.005323 0.196703 0.002122
0.006272 0.196703 0.002122
0.007528 0.196703 0.002122
0.009187 0.196703 0.002122
0.011382 0.196703 0.002122
0.014283 0.196703 0.002122
0.018119 0.196703 0.002122
0.023191 0.196703 0.002122
0.029896 0.196703 0.002122
0.038760 0.196703 0.002122
0.050480 0.196703 0.002122
0.065976 0.196703 0.002122
0.086463 0.196703 0.002122
0.113548 0.196703 0.002122
0.149358 0.196703 0.002122
0.196703 0.196703 0.002122
0.259298 0.196703 0.002122
0.342056 0.196703 0.002122
0.451471 0.196703 0.002122
0.596129 0.196703 0.002122
0.787384 0.196703 0.002122
1.000000 0.196703 0.002122
1.000000 0.196703 0.002122
1.000000 0.196703 0.002122
1.000000 0.196703 0.002122
1.000000 0.196703 0.002122
1.000000 0.196703 0.002122
0.002122 0.259298 0.002122
0.002743 0.259298 0.002122
0.003363 0.259298 0.002122
0.003984 0.259298 0.002122
0.004604 0.259298 0.002122
0.005323 0.259298 0.002122
0.006272 0.259298 0.002122
0.007528 0.259298 0.002122
0.009187 0.259298 0.002122
0.011382 0.259298 0.002122
0.014283 0.259298 0.002122
0.018119 0.259298 0.002122
0.023191 0.259298 0.002122
0.029896 0.259298 0.002122
0.038760 0.259298 0.002122
0.050480 0.259298 0.002122
0.065976 0.259298 0.002122
0.086463 0.259298 0.002122
0.113548 0.259298 0.002122
0.149358 0.259298 0.002122
0.196703 0.259298 0.002122
0.259298 0.259298 0.002122
0.342056 0.259298 0.002122
0.451471 0.259298 0.002122
0.596129 0.259298 0.002122
0.787384 0.259298 0.002122
1.000000 0.259298 0.002122
1.000000 0.259298 0.002122
1.000000 0.259298 0.002122
1.000000 0.259298 0.002122
1.000000 0.259298 0.002122
1.000000 0.259298 0.002122
0.002122 0.342056 0.002122
0.002743 0.342056 0.002122
0.003363 0.342056 0.002122
0.003984 0.342056 0.002122
0.004604 0.342056 0.002122
0.005323 0.342056 0.002122
0.006272 0.342056 0.002122
0.007528 0.342056 0.002122
0.009187 0.342056 0.002122
0.011382 0.342056 0.002122
0.014283 0.342056 0.002122
0.018119 0.342056 0.002122
0.023191 0.342056 0.002122
0.029896 0.342056 0.002122
0.038760 0.342056 0.002122
0.050480 0.342056 0.002122
0.065976 0.342056 0.002122
0.086463 0.342056 0.002122
0.113548 0.342056 0.002122
0.149358 0.342056 0.002122
0.196703 0.342056 0.002122
0.259298 0.342056 0.002122
0.342056 0.342056 0.002122
0.451471 0.342056 0.002122
0.596129 0.342056 0.002122
0.787384 0.342056 0.002122
1.000000 0.342056 0.002122
1.000000 0.342056 0.002122
1.000000 0.342056 0.002122
1.000000 0.342056 0.002122
1.000000 0.342056 0.002122
1.000000 0.342056 0.002122
0.002122 0.451471 0.002122
0.002743 0.451471 0.002122
0.003363 0.451471 0.002122
0.003984 0.451471 0.002122
0.004604 0.451471 0.002122
0.005323 0.451471 0.002122
0.006272 0.451471 0.002122
0.007528 0.451471 0.002122
0.009187 0.451471 0.002122
0.011382 0.451471 0.002122
0.014283 0.451471 0.002122
0.018119 0.451471 0.002122
0.023191 0.451471 0.002122
0.029896 0.451471 0.002122
0.038760 0.451471 0.002122
0.050480 0.451471 0.002122
0.065976 0.451471 0.002122
0.086463 0.451471 0.002122
0.113548 0.451471 0.002122
0.149358 0.451471 0.002122
0.196703 0.451471 0.002122
0.259298 0.451471 0.002122
0.342056 0.451471 0.002122
0.451471 0.451471 0.002122
0.596129 0.451471 0.002122
0.787384 0.451471 0.002122
1.000000 0.451471 0.002122
1.000000 0.451471 0.002122
1.000000 0.451471 0.002122
1.000000 0.451471 0.002122
1.000000 0.451471 0.002122
1.000000 0.451471 0.002122
0.002122 0.596129 0.002122
0.002743 0.596129 0.002122
0.003363 0.596129 0.002122
0.003984 0.596129 0.002122
0.004604 0.596129 0.002122
0.005323 0.596129 0.002122
0.006272 0.596129 0.002122
0.007528 0.596129 0.002122
0.009187 0.596129 0.002122
0.011382 0.596129 0.002122
0.014283 0.596129 0.002122
0.018119 0.596129 0.002122
0.023191 0.596129 0.002122
0.029896 0.596129 0.002122
0.038760 0.596129 0.002122
0.050480 0.596129 0.002122
0.065976 0.596129 0.002122
0.086463 0.596129 0.002122
0.113548 0.596129 0.002122
0.149358 0.596129 0.002122
0.196703 0.596129 0.002122
0.259298 0.596129 0.002122
0.342056 0.596129 0.002122
0.451471 0.596129 0.002122
0.596129 0.596129 0.002122
0.787384 0.596129 0.002122
1.000000 0.596129 0.002122
1.000000 0.596129 0.002122
1.000000 0.596129 0.002122
1.000000 0.596129 0.002122
1.000000 0.596129 0.002122
1.000000 0.596129 0.002122
0.002122 0.787384 0.002122
0.002743 0.787384 0.002122
0.003363 0.787384 0.002122
0.003984 0.787384 0.002122
0.004604 0.787384 0.002122
0.005323 0.787384 0.002122
0.006272 0.787384 0.002122
0.007528 0.787384 0.002122
0.009187 0.787384 0.002122
0.011382 0.787384 0.002122
0.014283 0.787384 0.002122
0.018119 0.787384 0.002122
0.023191 0.787384 0.002122
0.029896 0.787384 0.002122
0.038760 0.787384 0.002122
0.050480 0.787384 0.002122
0.065976 0.787384 0.002122
0.086463 0.787384 0.002122
0.113548 0.787384 0.002122
0.149358 0.787384 0.002122
0.196703 0.787384 0.002122
0.259298 0.787384 0.002122
0.342056 0.787384 0.002122
0.451471 0.787384 0.002122
0.596129 0.787384 0.002122
0.787384 0.787384 0.002122
1.000000 0.787384 0.002122
1.000000 0.787384 0.002122
1.000000 0.787384 0.002122
1.000000 0.787384 0.002122
1.000000 0.787384 0.002122
1.000000 0.787384 0.002122
0.002122 1.000000 0.002122
0.002743 1.000000 0.002122
0.003363 1.000000 0.002122
0.003984 1.000000 0.002122
0.004604 1.000000 0.002122
0.005323 1.000000 0.002122
0.006272 1.000000 0.002122
0.007528 1.000000 0.002122
0.009187 1.000000 0.002122
0.011382 1.000000 0.002122
0.014283 1.000000 0.002122
0.018119 1.000000 0.002122
0.023191 1.000000 0.002122
0.029896 1.000000 0.002122
0.038760 1.000000 0.002122
0.050480 1.000000 0.002122
0.065976 1.000000 0.002122
0.086463 1.000000 0.002122
0.113548 1.000000 0.002122
0.149358 1.000000 0.002122
0.196703 1.000000 0.002122
0.259298 1.000000 0.002122
0.342056 1.000000 0.002122
0.451471 1.000000 0.002122
0.596129 1.000000 0.002122
0.787384 1.000000 0.002122
1.000000 1.000000 0.002122
1.000000 1.000000 0.002122
1.000000 1.000000 0.002122
1.000000 1.000000 0.002122
1.000000 1.000000 0.002122
1.000000 1.000000 0.002122
0.002122 1.000000 0.002122
0.002743 1.000000 0.002122
0.003363 1.000000 0.002122
0.003984 1.000000 0.002122
0.004604 1.000000 0.002122
0.005323 1.000000 0.002122
0.006272 1.000000 0.002122
0.007528 1.000000 0.002122
0.009187 1.000000 0.002122
0.011382 1.000000 0.002122
0.014283 1.000000 0.002122
0.018119 1.000000 0.002122
0.023191 1.000000 0.002122
0.029896 1.000000 0.002122
0.038760 1.000000 0.002122
0.050480 1.000000 0.002122
0.065976 1.000000 0.002122
0.086463 1.000000 0.002122
0.113548 1.000000 0.002122
0.149358 1.000000 0.002122
0.196703 1.000000 0.002122
