.nuke/nuke.LUT/logC-2-linear_extended/AlexaV3_EI0200_LogC2Linear_EE_nuke3d.cube
# Alexa conversion LUT, logc2lin. Full in/full out.
# created by alexalutconv (2.07)
LUT_3D_SIZE 5
DOMAIN_MIN 0.000000 0.000000 0.000000
DOMAIN_MAX 0.903226 0.903226 0.903226
0.002122 0.002122 0.002122
0.007528 0.002122 0.002122
0.038760 0.002122 0.002122
0.259298 0.002122 0.002122
1.000000 0.002122 0.002122
0.002122 0.007528 0.002122
0.007528 0.007528 0.002122
0.038760 0.007528 0.002122
0.259298 0.007528 0.002122
1.000000 0.007528 0.002122
0.002122 0.038760 0.002122
0.007528 0.038760 0.002122
0.038760 0.038760 0.002122
0.259298 0.038760 0.002122
1.000000 0.038760 0.002122
0.002122 0.259298 0.002122
0.007528 0.259298 0.002122
0.038760 0.259298 0.002122
0.259298 0.259298 0.002122
1.000000 0.259298 0.002122
0.002122 1.000000 0.002122
0.007528 1.000000 0.002122
0.038760 1.000000 0.002122
0.259298 1.000000 0.002122
1.000000 1.000000 0.002122
0.002122 0.002122 0.007528
0.007528 0.002122 0.007528
0.038760 0.002122 0.007528
0.259298 0.002122 0.007528
1.000000 0.002122 0.007528
0.002122 0.007528 0.007528
0.007528 0.007528 0.007528
0.038760 0.007528 0.007528
0.259298 0.007528 0.007528
1.000000 0.007528 0.007528
0.002122 0.038760 0.007528
0.007528 0.038760 0.007528
0.038760 0.038760 0.007528
0.259298 0.038760 0.007528
1.000000 0.038760 0.007528
0.002122 0.259298 0.007528
0.007528 0.259298 0.007528
0.038760 0.259298 0.007528
0.259298 0.259298 0.007528
1.000000 0.259298 0.007528
0.002122 1.000000 0.007528
0.007528 1.000000 0.007528
0.038760 1.000000 0.007528
0.259298 1.000000 0.007528
1.000000 1.000000 0.007528
0.002122 0.002122 0.038760
0.007528 0.002122 0.038760
0.038760 0.002122 0.038760
0.259298 0.002122 0.038760
1.000000 0.002122 0.038760
0.002122 0.007528 0.038760
0.007528 0.007528 0.038760
0.038760 0.007528 0.038760
0.259298 0.007528 0.038760
1.000000 0.007528 0.038760
0.002122 0.038760 0.038760
0.007528 0.038760 0.038760
0.038760 0.038760 0.038760
0.259298 0.038760 0.038760
1.000000 0.038760 0.038760
0.002122 0.259298 0.038760
0.007528 0.259298 0.038760
0.038760 0.259298 0.038760
0.259298 0.259298 0.038760
1.000000 0.259298 0.038760
0.002122 1.000000 0.038760
0.007528 1.000000 0.038760
0.038760 1.000000 0.038760
0.259298 1.000000 0.038760
1.000000 1.000000 0.038760
0.002122 0.002122 0.259298
0.007528 0.002122 0.259298
0.038760 0.002122 0.259298
0.259298 0.002122 0.259298
1.000000 0.002122 0.259298
0.002122 0.007528 0.259298
0.007528 0.007528 0.259298
0.038760 0.007528 0.259298
0.259298 0.007528 0.259298
1.000000 0.007528 0.259298
0.002122 0.038760 0.259298
0.007528 0.038760 0.259298
0.038760 0.038760 0.259298
0.259298 0.038760 0.259298
1.000000 0.038760 0.259298
0.002122 0.259298 0.259298
0.007528 0.259298 0.259298
0.038760 0.259298 0.259298
0.259298 0.259298 0.259298
1.000000 0.259298 0.259298
0.002122 1.000000 0.259298
0.007528 1.000000 0.259298
0.038760 1.000000 0.259298
0.259298 1.000000 0.259298
1.000000 1.000000 0.259298
0.002122 0.002122 1.000000
0.007528 0.002122 1.000000
0.038760 0.002122 1.000000
0.259298 0.002122 1.000000
1.000000 0.002122 1.000000
0.002122 0.007528 1.000000
0.007528 0.007528 1.000000
0.038760 0.007528 1.000000
0.259298 0.007528 1.000000
1.000000 0.007528 1.000000
0.002122 0.038760 1.000000
0.007528 0.038760 1.000000
0.038760 0.038760 1.000000
0.259298 0.038760 1.000000
1.000000 0.038760 1.000000
0.002122 0.259298 1.000000
0.007528 0.259298 1.000000
0.038760 0.259298 1.000000
0.259298 0.259298 1.000000
1.000000 0.259298 1.000000
0.002122 1.000000 1.000000
0.007528 1.000000 1.000000
0.038760 1.000000 1.000000
0.259298 1.000000 1.000000
1.000000 1.000000 1.000000
