.nuke/nuke.LUT/logC-2-linear_extended/AlexaV3_EI3200_LogC2Linear_EE_nuke3d.cube
# Alexa conversion LUT, logc2lin. Full in/full out.
# created by alexalutconv (2.07)
LUT_3D_SIZE 32
0.003777 0.003777 0.003777
0.003822 0.003777 0.003777
0.003868 0.003777 0.003777
0.003913 0.003777 0.003777
0.003958 0.003777 0.003777
0.004003 0.003777 0.003777
0.004052 0.003777 0.003777
0.004119 0.003777 0.003777
0.004212 0.003777 0.003777
0.004341 0.003777 0.003777
0.004519 0.003777 0.003777
0.004766 0.003777 0.003777
0.005108 0.003777 0.003777
0.005581 0.003777 0.003777
0.006235 0.003777 0.003777
0.007141 0.003777 0.003777
0.008397 0.003777 0.003777
0.010134 0.003777 0.003777
0.012538 0.003777 0.003777
0.015866 0.003777 0.003777
0.020474 0.003777 0.003777
0.026854 0.003777 0.003777
0.035686 0.003777 0.003777
0.047911 0.003777 0.003777
0.064837 0.003777 0.003777
0.088301 0.003777 0.003777
0.122514 0.003777 0.003777
0.174639 0.003777 0.003777
0.256479 0.003777 0.003777
0.389185 0.003777 0.003777
0.611942 0.003777 0.003777
1.000000 0.003777 0.003777
0.003777 0.003822 0.003777
0.003822 0.003822 0.003777
0.003868 0.003822 0.003777
0.003913 0.003822 0.003777
0.003958 0.003822 0.003777
0.004003 0.003822 0.003777
0.004052 0.003822 0.003777
0.004119 0.003822 0.003777
0.004212 0.003822 0.003777
0.004341 0.003822 0.003777
0.004519 0.003822 0.003777
0.004766 0.003822 0.003777
0.005108 0.003822 0.003777
0.005581 0.003822 0.003777
0.006235 0.003822 0.003777
0.007141 0.003822 0.003777
0.008397 0.003822 0.003777
0.010134 0.003822 0.003777
0.012538 0.003822 0.003777
0.015866 0.003822 0.003777
0.020474 0.003822 0.003777
0.026854 0.003822 0.003777
0.035686 0.003822 0.003777
0.047911 0.003822 0.003777
0.064837 0.003822 0.003777
0.088301 0.003822 0.003777
0.122514 0.003822 0.003777
0.174639 0.003822 0.003777
0.256479 0.003822 0.003777
0.389185 0.003822 0.003777
0.611942 0.003822 0.003777
1.000000 0.003822 0.003777
0.003777 0.003868 0.003777
0.003822 0.003868 0.003777
0.003868 0.003868 0.003777
0.003913 0.003868 0.003777
0.003958 0.003868 0.003777
0.004003 0.003868 0.003777
0.004052 0.003868 0.003777
0.004119 0.003868 0.003777
0.004212 0.003868 0.003777
0.004341 0.003868 0.003777
0.004519 0.003868 0.003777
0.004766 0.003868 0.003777
0.005108 0.003868 0.003777
0.005581 0.003868 0.003777
0.006235 0.003868 0.003777
0.007141 0.003868 0.003777
0.008397 0.003868 0.003777
0.010134 0.003868 0.003777
0.012538 0.003868 0.003777
0.015866 0.003868 0.003777
0.020474 0.003868 0.003777
0.026854 0.003868 0.003777
0.035686 0.003868 0.003777
0.047911 0.003868 0.003777
0.064837 0.003868 0.003777
0.088301 0.003868 0.003777
0.122514 0.003868 0.003777
0.174639 0.003868 0.003777
0.256479 0.003868 0.003777
0.389185 0.003868 0.003777
0.611942 0.003868 0.003777
1.000000 0.003868 0.003777
0.003777 0.003913 0.003777
0.003822 0.003913 0.003777
0.003868 0.003913 0.003777
0.003913 0.003913 0.003777
0.003958 0.003913 0.003777
0.004003 0.003913 0.003777
0.004052 0.003913 0.003777
0.004119 0.003913 0.003777
0.004212 0.003913 0.003777
0.004341 0.003913 0.003777
0.004519 0.003913 0.003777
0.004766 0.003913 0.003777
0.005108 0.003913 0.003777
0.005581 0.003913 0.003777
0.006235 0.003913 0.003777
0.007141 0.003913 0.003777
0.008397 0.003913 0.003777
0.010134 0.003913 0.003777
0.012538 0.003913 0.003777
0.015866 0.003913 0.003777
0.020474 0.003913 0.003777
0.026854 0.003913 0.003777
0.035686 0.003913 0.003777
0.047911 0.003913 0.003777
0.064837 0.003913 0.003777
0.088301 0.003913 0.003777
0.122514 0.003913 0.003777
0.174639 0.003913 0.003777
0.256479 0.003913 0.003777
0.389185 0.003913 0.003777
0.611942 0.003913 0.003777
1.000000 0.003913 0.003777
0.003777 0.003958 0.003777
0.003822 0.003958 0.003777
0.003868 0.003958 0.003777
0.003913 0.003958 0.003777
0.003958 0.003958 0.003777
0.004003 0.003958 0.003777
0.004052 0.003958 0.003777
0.004119 0.003958 0.003777
0.004212 0.003958 0.003777
0.004341 0.003958 0.003777
0.004519 0.003958 0.003777
0.004766 0.003958 0.003777
0.005108 0.003958 0.003777
0.005581 0.003958 0.003777
0.006235 0.003958 0.003777
0.007141 0.003958 0.003777
0.008397 0.003958 0.003777
0.010134 0.003958 0.003777
0.012538 0.003958 0.003777
0.015866 0.003958 0.003777
0.020474 0.003958 0.003777
0.026854 0.003958 0.003777
0.035686 0.003958 0.003777
0.047911 0.003958 0.003777
0.064837 0.003958 0.003777
0.088301 0.003958 0.003777
0.122514 0.003958 0.003777
0.174639 0.003958 0.003777
0.256479 0.003958 0.003777
0.389185 0.003958 0.003777
0.611942 0.003958 0.003777
1.000000 0.003958 0.003777
0.003777 0.004003 0.003777
0.003822 0.004003 0.003777
0.003868 0.004003 0.003777
0.003913 0.004003 0.003777
0.003958 0.004003 0.003777
0.004003 0.004003 0.003777
0.004052 0.004003 0.003777
0.004119 0.004003 0.003777
0.004212 0.004003 0.003777
0.004341 0.004003 0.003777
0.004519 0.004003 0.003777
0.004766 0.004003 0.003777
0.005108 0.004003 0.003777
0.005581 0.004003 0.003777
0.006235 0.004003 0.003777
0.007141 0.004003 0.003777
0.008397 0.004003 0.003777
0.010134 0.004003 0.003777
0.012538 0.004003 0.003777
0.015866 0.004003 0.003777
0.020474 0.004003 0.003777
0.026854 0.004003 0.003777
0.035686 0.004003 0.003777
0.047911 0.004003 0.003777
0.064837 0.004003 0.003777
0.088301 0.004003 0.003777
0.122514 0.004003 0.003777
0.174639 0.004003 0.003777
0.256479 0.004003 0.003777
0.389185 0.004003 0.003777
0.611942 0.004003 0.003777
1.000000 0.004003 0.003777
0.003777 0.004052 0.003777
0.003822 0.004052 0.003777
0.003868 0.004052 0.003777
0.003913 0.004052 0.003777
0.003958 0.004052 0.003777
0.004003 0.004052 0.003777
0.004052 0.004052 0.003777
0.004119 0.004052 0.003777
0.004212 0.004052 0.003777
0.004341 0.004052 0.003777
0.004519 0.004052 0.003777
0.004766 0.004052 0.003777
0.005108 0.004052 0.003777
0.005581 0.004052 0.003777
0.006235 0.004052 0.003777
0.007141 0.004052 0.003777
0.008397 0.004052 0.003777
0.010134 0.004052 0.003777
0.012538 0.004052 0.003777
0.015866 0.004052 0.003777
0.020474 0.004052 0.003777
0.026854 0.004052 0.003777
0.035686 0.004052 0.003777
0.047911 0.004052 0.003777
0.064837 0.004052 0.003777
0.088301 0.004052 0.003777
0.122514 0.004052 0.003777
0.174639 0.004052 0.003777
0.256479 0.004052 0.003777
0.389185 0.004052 0.003777
0.611942 0.004052 0.003777
1.000000 0.004052 0.003777
0.003777 0.004119 0.003777
0.003822 0.004119 0.003777
0.003868 0.004119 0.003777
0.003913 0.004119 0.003777
0.003958 0.004119 0.003777
0.004003 0.004119 0.003777
0.004052 0.004119 0.003777
0.004119 0.004119 0.003777
0.004212 0.004119 0.003777
0.004341 0.004119 0.003777
0.004519 0.004119 0.003777
0.004766 0.004119 0.003777
0.005108 0.004119 0.003777
0.005581 0.004119 0.003777
0.006235 0.004119 0.003777
0.007141 0.004119 0.003777
0.008397 0.004119 0.003777
0.010134 0.004119 0.003777
0.012538 0.004119 0.003777
0.015866 0.004119 0.003777
0.020474 0.004119 0.003777
0.026854 0.004119 0.003777
0.035686 0.004119 0.003777
0.047911 0.004119 0.003777
0.064837 0.004119 0.003777
0.088301 0.004119 0.003777
0.122514 0.004119 0.003777
0.174639 0.004119 0.003777
0.256479 0.004119 0.003777
0.389185 0.004119 0.003777
0.611942 0.004119 0.003777
1.000000 0.004119 0.003777
0.003777 0.004212 0.003777
0.003822 0.004212 0.003777
0.003868 0.004212 0.003777
0.003913 0.004212 0.003777
0.003958 0.004212 0.003777
0.004003 0.004212 0.003777
0.004052 0.004212 0.003777
0.004119 0.004212 0.003777
0.004212 0.004212 0.003777
0.004341 0.004212 0.003777
0.004519 0.004212 0.003777
0.004766 0.004212 0.003777
0.005108 0.004212 0.003777
0.005581 0.004212 0.003777
0.006235 0.004212 0.003777
0.007141 0.004212 0.003777
0.008397 0.004212 0.003777
0.010134 0.004212 0.003777
0.012538 0.004212 0.003777
0.015866 0.004212 0.003777
0.020474 0.004212 0.003777
0.026854 0.004212 0.003777
0.035686 0.004212 0.003777
0.047911 0.004212 0.003777
0.064837 0.004212 0.003777
0.088301 0.004212 0.003777
0.122514 0.004212 0.003777
0.174639 0.004212 0.003777
0.256479 0.004212 0.003777
0.389185 0.004212 0.003777
0.611942 0.004212 0.003777
1.000000 0.004212 0.003777
0.003777 0.004341 0.003777
0.003822 0.004341 0.003777
0.003868 0.004341 0.003777
0.003913 0.004341 0.003777
0.003958 0.004341 0.003777
0.004003 0.004341 0.003777
0.004052 0.004341 0.003777
0.004119 0.004341 0.003777
0.004212 0.004341 0.003777
0.004341 0.004341 0.003777
0.004519 0.004341 0.003777
0.004766 0.004341 0.003777
0.005108 0.004341 0.003777
0.005581 0.004341 0.003777
0.006235 0.004341 0.003777
0.007141 0.004341 0.003777
0.008397 0.004341 0.003777
0.010134 0.004341 0.003777
0.012538 0.004341 0.003777
0.015866 0.004341 0.003777
0.020474 0.004341 0.003777
0.026854 0.004341 0.003777
0.035686 0.004341 0.003777
0.047911 0.004341 0.003777
0.064837 0.004341 0.003777
0.088301 0.004341 0.003777
0.122514 0.004341 0.003777
0.174639 0.004341 0.003777
0.256479 0.004341 0.003777
0.389185 0.004341 0.003777
0.611942 0.004341 0.003777
1.000000 0.004341 0.003777
0.003777 0.004519 0.003777
0.003822 0.004519 0.003777
0.003868 0.004519 0.003777
0.003913 0.004519 0.003777
0.003958 0.004519 0.003777
0.004003 0.004519 0.003777
0.004052 0.004519 0.003777
0.004119 0.004519 0.003777
0.004212 0.004519 0.003777
0.004341 0.004519 0.003777
0.004519 0.004519 0.003777
0.004766 0.004519 0.003777
0.005108 0.004519 0.003777
0.005581 0.004519 0.003777
0.006235 0.004519 0.003777
0.007141 0.004519 0.003777
0.008397 0.004519 0.003777
0.010134 0.004519 0.003777
0.012538 0.004519 0.003777
0.015866 0.004519 0.003777
0.020474 0.004519 0.003777
0.026854 0.004519 0.003777
0.035686 0.004519 0.003777
0.047911 0.004519 0.003777
0.064837 0.004519 0.003777
0.088301 0.004519 0.003777
0.122514 0.004519 0.003777
0.174639 0.004519 0.003777
0.256479 0.004519 0.003777
0.389185 0.004519 0.003777
0.611942 0.004519 0.003777
1.000000 0.004519 0.003777
0.003777 0.004766 0.003777
0.003822 0.004766 0.003777
0.003868 0.004766 0.003777
0.003913 0.004766 0.003777
0.003958 0.004766 0.003777
0.004003 0.004766 0.003777
0.004052 0.004766 0.003777
0.004119 0.004766 0.003777
0.004212 0.004766 0.003777
0.004341 0.004766 0.003777
0.004519 0.004766 0.003777
0.004766 0.004766 0.003777
0.005108 0.004766 0.003777
0.005581 0.004766 0.003777
0.006235 0.004766 0.003777
0.007141 0.004766 0.003777
0.008397 0.004766 0.003777
0.010134 0.004766 0.003777
0.012538 0.004766 0.003777
0.015866 0.004766 0.003777
0.020474 0.004766 0.003777
0.026854 0.004766 0.003777
0.035686 0.004766 0.003777
0.047911 0.004766 0.003777
0.064837 0.004766 0.003777
0.088301 0.004766 0.003777
0.122514 0.004766 0.003777
0.174639 0.004766 0.003777
0.256479 0.004766 0.003777
0.389185 0.004766 0.003777
0.611942 0.004766 0.003777
1.000000 0.004766 0.003777
0.003777 0.005108 0.003777
0.003822 0.005108 0.003777
0.003868 0.005108 0.003777
0.003913 0.005108 0.003777
0.003958 0.005108 0.003777
0.004003 0.005108 0.003777
0.004052 0.005108 0.003777
0.004119 0.005108 0.003777
0.004212 0.005108 0.003777
0.004341 0.005108 0.003777
0.004519 0.005108 0.003777
0.004766 0.005108 0.003777
0.005108 0.005108 0.003777
0.005581 0.005108 0.003777
0.006235 0.005108 0.003777
0.007141 0.005108 0.003777
0.008397 0.005108 0.003777
0.010134 0.005108 0.003777
0.012538 0.005108 0.003777
0.015866 0.005108 0.003777
0.020474 0.005108 0.003777
0.026854 0.005108 0.003777
0.035686 0.005108 0.003777
0.047911 0.005108 0.003777
0.064837 0.005108 0.003777
0.088301 0.005108 0.003777
0.122514 0.005108 0.003777
0.174639 0.005108 0.003777
0.256479 0.005108 0.003777
0.389185 0.005108 0.003777
0.611942 0.005108 0.003777
1.000000 0.005108 0.003777
0.003777 0.005581 0.003777
0.003822 0.005581 0.003777
0.003868 0.005581 0.003777
0.003913 0.005581 0.003777
0.003958 0.005581 0.003777
0.004003 0.005581 0.003777
0.004052 0.005581 0.003777
0.004119 0.005581 0.003777
0.004212 0.005581 0.003777
0.004341 0.005581 0.003777
0.004519 0.005581 0.003777
0.004766 0.005581 0.003777
0.005108 0.005581 0.003777
0.005581 0.005581 0.003777
0.006235 0.005581 0.003777
0.007141 0.005581 0.003777
0.008397 0.005581 0.003777
0.010134 0.005581 0.003777
0.012538 0.005581 0.003777
0.015866 0.005581 0.003777
0.020474 0.005581 0.003777
0.026854 0.005581 0.003777
0.035686 0.005581 0.003777
0.047911 0.005581 0.003777
0.064837 0.005581 0.003777
0.088301 0.005581 0.003777
0.122514 0.005581 0.003777
0.174639 0.005581 0.003777
0.256479 0.005581 0.003777
0.389185 0.005581 0.003777
0.611942 0.005581 0.003777
1.000000 0.005581 0.003777
0.003777 0.006235 0.003777
0.003822 0.006235 0.003777
0.003868 0.006235 0.003777
0.003913 0.006235 0.003777
0.003958 0.006235 0.003777
0.004003 0.006235 0.003777
0.004052 0.006235 0.003777
0.004119 0.006235 0.003777
0.004212 0.006235 0.003777
0.004341 0.006235 0.003777
0.004519 0.006235 0.003777
0.004766 0.006235 0.003777
0.005108 0.006235 0.003777
0.005581 0.006235 0.003777
0.006235 0.006235 0.003777
0.007141 0.006235 0.003777
0.008397 0.006235 0.003777
0.010134 0.006235 0.003777
0.012538 0.006235 0.003777
0.015866 0.006235 0.003777
0.020474 0.006235 0.003777
0.026854 0.006235 0.003777
0.035686 0.006235 0.003777
0.047911 0.006235 0.003777
0.064837 0.006235 0.003777
0.088301 0.006235 0.003777
0.122514 0.006235 0.003777
0.174639 0.006235 0.003777
0.256479 0.006235 0.003777
0.389185 0.006235 0.003777
0.611942 0.006235 0.003777
1.000000 0.006235 0.003777
0.003777 0.007141 0.003777
0.003822 0.007141 0.003777
0.003868 0.007141 0.003777
0.003913 0.007141 0.003777
0.003958 0.007141 0.003777
0.004003 0.007141 0.003777
0.004052 0.007141 0.003777
0.004119 0.007141 0.003777
0.004212 0.007141 0.003777
0.004341 0.007141 0.003777
0.004519 0.007141 0.003777
0.004766 0.007141 0.003777
0.005108 0.007141 0.003777
0.005581 0.007141 0.003777
0.006235 0.007141 0.003777
0.007141 0.007141 0.003777
0.008397 0.007141 0.003777
0.010134 0.007141 0.003777
0.012538 0.007141 0.003777
0.015866 0.007141 0.003777
0.020474 0.007141 0.003777
0.026854 0.007141 0.003777
0.035686 0.007141 0.003777
0.047911 0.007141 0.003777
0.064837 0.007141 0.003777
0.088301 0.007141 0.003777
0.122514 0.007141 0.003777
0.174639 0.007141 0.003777
0.256479 0.007141 0.003777
0.389185 0.007141 0.003777
0.611942 0.007141 0.003777
1.000000 0.007141 0.003777
0.003777 0.008397 0.003777
0.003822 0.008397 0.003777
0.003868 0.008397 0.003777
0.003913 0.008397 0.003777
0.003958 0.008397 0.003777
0.004003 0.008397 0.003777
0.004052 0.008397 0.003777
0.004119 0.008397 0.003777
0.004212 0.008397 0.003777
0.004341 0.008397 0.003777
0.004519 0.008397 0.003777
0.004766 0.008397 0.003777
0.005108 0.008397 0.003777
0.005581 0.008397 0.003777
0.006235 0.008397 0.003777
0.007141 0.008397 0.003777
0.008397 0.008397 0.003777
0.010134 0.008397 0.003777
0.012538 0.008397 0.003777
0.015866 0.008397 0.003777
0.020474 0.008397 0.003777
0.026854 0.008397 0.003777
0.035686 0.008397 0.003777
0.047911 0.008397 0.003777
0.064837 0.008397 0.003777
0.088301 0.008397 0.003777
0.122514 0.008397 0.003777
0.174639 0.008397 0.003777
0.256479 0.008397 0.003777
0.389185 0.008397 0.003777
0.611942 0.008397 0.003777
1.000000 0.008397 0.003777
0.003777 0.010134 0.003777
0.003822 0.010134 0.003777
0.003868 0.010134 0.003777
0.003913 0.010134 0.003777
0.003958 0.010134 0.003777
0.004003 0.010134 0.003777
0.004052 0.010134 0.003777
0.004119 0.010134 0.003777
0.004212 0.010134 0.003777
0.004341 0.010134 0.003777
0.004519 0.010134 0.003777
0.004766 0.010134 0.003777
0.005108 0.010134 0.003777
0.005581 0.010134 0.003777
0.006235 0.010134 0.003777
0.007141 0.010134 0.003777
0.008397 0.010134 0.003777
0.010134 0.010134 0.003777
0.012538 0.010134 0.003777
0.015866 0.010134 0.003777
0.020474 0.010134 0.003777
0.026854 0.010134 0.003777
0.035686 0.010134 0.003777
0.047911 0.010134 0.003777
0.064837 0.010134 0.003777
0.088301 0.010134 0.003777
0.122514 0.010134 0.003777
0.174639 0.010134 0.003777
0.256479 0.010134 0.003777
0.389185 0.010134 0.003777
0.611942 0.010134 0.003777
1.000000 0.010134 0.003777
0.003777 0.012538 0.003777
0.003822 0.012538 0.003777
0.003868 0.012538 0.003777
0.003913 0.012538 0.003777
0.003958 0.012538 0.003777
0.004003 0.012538 0.003777
0.004052 0.012538 0.003777
0.004119 0.012538 0.003777
0.004212 0.012538 0.003777
0.004341 0.012538 0.003777
0.004519 0.012538 0.003777
0.004766 0.012538 0.003777
0.005108 0.012538 0.003777
0.005581 0.012538 0.003777
0.006235 0.012538 0.003777
0.007141 0.012538 0.003777
0.008397 0.012538 0.003777
0.010134 0.012538 0.003777
0.012538 0.012538 0.003777
0.015866 0.012538 0.003777
0.020474 0.012538 0.003777
0.026854 0.012538 0.003777
0.035686 0.012538 0.003777
0.047911 0.012538 0.003777
0.064837 0.012538 0.003777
0.088301 0.012538 0.003777
0.122514 0.012538 0.003777
0.174639 0.012538 0.003777
0.256479 0.012538 0.003777
0.389185 0.012538 0.003777
0.611942 0.012538 0.003777
1.000000 0.012538 0.003777
0.003777 0.015866 0.003777
0.003822 0.015866 0.003777
0.003868 0.015866 0.003777
0.003913 0.015866 0.003777
0.003958 0.015866 0.003777
0.004003 0.015866 0.003777
0.004052 0.015866 0.003777
0.004119 0.015866 0.003777
0.004212 0.015866 0.003777
0.004341 0.015866 0.003777
0.004519 0.015866 0.003777
0.004766 0.015866 0.003777
0.005108 0.015866 0.003777
0.005581 0.015866 0.003777
0.006235 0.015866 0.003777
0.007141 0.015866 0.003777
0.008397 0.015866 0.003777
0.010134 0.015866 0.003777
0.012538 0.015866 0.003777
0.015866 0.015866 0.003777
0.020474 0.015866 0.003777
0.026854 0.015866 0.003777
0.035686 0.015866 0.003777
0.047911 0.015866 0.003777
0.064837 0.015866 0.003777
0.088301 0.015866 0.003777
0.122514 0.015866 0.003777
0.174639 0.015866 0.003777
0.256479 0.015866 0.003777
0.389185 0.015866 0.003777
0.611942 0.015866 0.003777
1.000000 0.015866 0.003777
0.003777 0.020474 0.003777
0.003822 0.020474 0.003777
0.003868 0.020474 0.003777
0.003913 0.020474 0.003777
0.003958 0.020474 0.003777
0.004003 0.020474 0.003777
0.004052 0.020474 0.003777
0.004119 0.020474 0.003777
0.004212 0.020474 0.003777
0.004341 0.020474 0.003777
0.004519 0.020474 0.003777
0.004766 0.020474 0.003777
0.005108 0.020474 0.003777
0.005581 0.020474 0.003777
0.006235 0.020474 0.003777
0.007141 0.020474 0.003777
0.008397 0.020474 0.003777
0.010134 0.020474 0.003777
0.012538 0.020474 0.003777
0.015866 0.020474 0.003777
0.020474 0.020474 0.003777
0.026854 0.020474 0.003777
0.035686 0.020474 0.003777
0.047911 0.020474 0.003777
0.064837 0.020474 0.003777
0.088301 0.020474 0.003777
0.122514 0.020474 0.003777
0.174639 0.020474 0.003777
0.256479 0.020474 0.003777
0.389185 0.020474 0.003777
0.611942 0.020474 0.003777
1.000000 0.020474 0.003777
0.003777 0.026854 0.003777
0.003822 0.026854 0.003777
0.003868 0.026854 0.003777
0.003913 0.026854 0.003777
0.003958 0.026854 0.003777
0.004003 0.026854 0.003777
0.004052 0.026854 0.003777
0.004119 0.026854 0.003777
0.004212 0.026854 0.003777
0.004341 0.026854 0.003777
0.004519 0.026854 0.003777
0.004766 0.026854 0.003777
0.005108 0.026854 0.003777
0.005581 0.026854 0.003777
0.006235 0.026854 0.003777
0.007141 0.026854 0.003777
0.008397 0.026854 0.003777
0.010134 0.026854 0.003777
0.012538 0.026854 0.003777
0.015866 0.026854 0.003777
0.020474 0.026854 0.003777
0.026854 0.026854 0.003777
0.035686 0.026854 0.003777
0.047911 0.026854 0.003777
0.064837 0.026854 0.003777
0.088301 0.026854 0.003777
0.122514 0.026854 0.003777
0.174639 0.026854 0.003777
0.256479 0.026854 0.003777
0.389185 0.026854 0.003777
0.611942 0.026854 0.003777
1.000000 0.026854 0.003777
0.003777 0.035686 0.003777
0.003822 0.035686 0.003777
0.003868 0.035686 0.003777
0.003913 0.035686 0.003777
0.003958 0.035686 0.003777
0.004003 0.035686 0.003777
0.004052 0.035686 0.003777
0.004119 0.035686 0.003777
0.004212 0.035686 0.003777
0.004341 0.035686 0.003777
0.004519 0.035686 0.003777
0.004766 0.035686 0.003777
0.005108 0.035686 0.003777
0.005581 0.035686 0.003777
0.006235 0.035686 0.003777
0.007141 0.035686 0.003777
0.008397 0.035686 0.003777
0.010134 0.035686 0.003777
0.012538 0.035686 0.003777
0.015866 0.035686 0.003777
0.020474 0.035686 0.003777
0.026854 0.035686 0.003777
0.035686 0.035686 0.003777
0.047911 0.035686 0.003777
0.064837 0.035686 0.003777
0.088301 0.035686 0.003777
0.122514 0.035686 0.003777
0.174639 0.035686 0.003777
0.256479 0.035686 0.003777
0.389185 0.035686 0.003777
0.611942 0.035686 0.003777
1.000000 0.035686 0.003777
0.003777 0.047911 0.003777
0.003822 0.047911 0.003777
0.003868 0.047911 0.003777
0.003913 0.047911 0.003777
0.003958 0.047911 0.003777
0.004003 0.047911 0.003777
0.004052 0.047911 0.003777
0.004119 0.047911 0.003777
0.004212 0.047911 0.003777
0.004341 0.047911 0.003777
0.004519 0.047911 0.003777
0.004766 0.047911 0.003777
0.005108 0.047911 0.003777
0.005581 0.047911 0.003777
0.006235 0.047911 0.003777
0.007141 0.047911 0.003777
0.008397 0.047911 0.003777
0.010134 0.047911 0.003777
0.012538 0.047911 0.003777
0.015866 0.047911 0.003777
0.020474 0.047911 0.003777
0.026854 0.047911 0.003777
0.035686 0.047911 0.003777
0.047911 0.047911 0.003777
0.064837 0.047911 0.003777
0.088301 0.047911 0.003777
0.122514 0.047911 0.003777
0.174639 0.047911 0.003777
0.256479 0.047911 0.003777
0.389185 0.047911 0.003777
0.611942 0.047911 0.003777
1.000000 0.047911 0.003777
0.003777 0.064837 0.003777
0.003822 0.064837 0.003777
0.003868 0.064837 0.003777
0.003913 0.064837 0.003777
0.003958 0.064837 0.003777
0.004003 0.064837 0.003777
0.004052 0.064837 0.003777
0.004119 0.064837 0.003777
0.004212 0.064837 0.003777
0.004341 0.064837 0.003777
0.004519 0.064837 0.003777
0.004766 0.064837 0.003777
0.005108 0.064837 0.003777
0.005581 0.064837 0.003777
0.006235 0.064837 0.003777
0.007141 0.064837 0.003777
0.008397 0.064837 0.003777
0.010134 0.064837 0.003777
0.012538 0.064837 0.003777
0.015866 0.064837 0.003777
0.020474 0.064837 0.003777
0.026854 0.064837 0.003777
0.035686 0.064837 0.003777
0.047911 0.064837 0.003777
0.064837 0.064837 0.003777
0.088301 0.064837 0.003777
0.122514 0.064837 0.003777
0.174639 0.064837 0.003777
0.256479 0.064837 0.003777
0.389185 0.064837 0.003777
0.611942 0.064837 0.003777
1.000000 0.064837 0.003777
0.003777 0.088301 0.003777
0.003822 0.088301 0.003777
0.003868 0.088301 0.003777
0.003913 0.088301 0.003777
0.003958 0.088301 0.003777
0.004003 0.088301 0.003777
0.004052 0.088301 0.003777
0.004119 0.088301 0.003777
0.004212 0.088301 0.003777
0.004341 0.088301 0.003777
0.004519 0.088301 0.003777
0.004766 0.088301 0.003777
0.005108 0.088301 0.003777
0.005581 0.088301 0.003777
0.006235 0.088301 0.003777
0.007141 0.088301 0.003777
0.008397 0.088301 0.003777
0.010134 0.088301 0.003777
0.012538 0.088301 0.003777
0.015866 0.088301 0.003777
0.020474 0.088301 0.003777
0.026854 0.088301 0.003777
0.035686 0.088301 0.003777
0.047911 0.088301 0.003777
0.064837 0.088301 0.003777
0.088301 0.088301 0.003777
0.122514 0.088301 0.003777
0.174639 0.088301 0.003777
0.256479 0.088301 0.003777
0.389185 0.088301 0.003777
0.611942 0.088301 0.003777
1.000000 0.088301 0.003777
0.003777 0.122514 0.003777
0.003822 0.122514 0.003777
0.003868 0.122514 0.003777
0.003913 0.122514 0.003777
0.003958 0.122514 0.003777
0.004003 0.122514 0.003777
0.004052 0.122514 0.003777
0.004119 0.122514 0.003777
0.004212 0.122514 0.003777
0.004341 0.122514 0.003777
0.004519 0.122514 0.003777
0.004766 0.122514 0.003777
0.005108 0.122514 0.003777
0.005581 0.122514 0.003777
0.006235 0.122514 0.003777
0.007141 0.122514 0.003777
0.008397 0.122514 0.003777
0.010134 0.122514 0.003777
0.012538 0.122514 0.003777
0.015866 0.122514 0.003777
0.020474 0.122514 0.003777
0.026854 0.122514 0.003777
0.035686 0.122514 0.003777
0.047911 0.122514 0.003777
0.064837 0.122514 0.003777
0.088301 0.122514 0.003777
0.122514 0.122514 0.003777
0.174639 0.122514 0.003777
0.256479 0.122514 0.003777
0.389185 0.122514 0.003777
0.611942 0.122514 0.003777
1.000000 0.122514 0.003777
0.003777 0.174639 0.003777
0.003822 0.174639 0.003777
0.003868 0.174639 0.003777
0.003913 0.174639 0.003777
0.003958 0.174639 0.003777
0.004003 0.174639 0.003777
0.004052 0.174639 0.003777
0.004119 0.174639 0.003777
0.004212 0.174639 0.003777
0.004341 0.174639 0.003777
0.004519 0.174639 0.003777
0.004766 0.174639 0.003777
0.005108 0.174639 0.003777
0.005581 0.174639 0.003777
0.006235 0.174639 0.003777
0.007141 0.174639 0.003777
0.008397 0.174639 0.003777
0.010134 0.174639 0.003777
0.012538 0.174639 0.003777
0.015866 0.174639 0.003777
0.020474 0.174639 0.003777
