.nuke/nuke.LUT/logC-2-linear_extended/AlexaV3_EI0250_LogC2Linear_EE_nuke3d.cube
# Alexa conversion LUT, logc2lin. Full in/full out.
# created by alexalutconv (2.07)
LUT_3D_SIZE 32
0.002463 0.002463 0.002463
0.002965 0.002463 0.002463
0.003467 0.002463 0.002463
0.003969 0.002463 0.002463
0.004471 0.002463 0.002463
0.005037 0.002463 0.002463
0.005787 0.002463 0.002463
0.006781 0.002463 0.002463
0.008100 0.002463 0.002463
0.009849 0.002463 0.002463
0.012170 0.002463 0.002463
0.015248 0.002463 0.002463
0.019330 0.002463 0.002463
0.024743 0.002463 0.002463
0.031925 0.002463 0.002463
0.041450 0.002463 0.002463
0.054084 0.002463 0.002463
0.070841 0.002463 0.002463
0.093067 0.002463 0.002463
0.122546 0.002463 0.002463
0.161648 0.002463 0.002463
0.213510 0.002463 0.002463
0.282298 0.002463 0.002463
0.373538 0.002463 0.002463
0.494555 0.002463 0.002463
0.655068 0.002463 0.002463
0.867968 0.002463 0.002463
1.000000 0.002463 0.002463
1.000000 0.002463 0.002463
1.000000 0.002463 0.002463
1.000000 0.002463 0.002463
1.000000 0.002463 0.002463
0.002463 0.002965 0.002463
0.002965 0.002965 0.002463
0.003467 0.002965 0.002463
0.003969 0.002965 0.002463
0.004471 0.002965 0.002463
0.005037 0.002965 0.002463
0.005787 0.002965 0.002463
0.006781 0.002965 0.002463
0.008100 0.002965 0.002463
0.009849 0.002965 0.002463
0.012170 0.002965 0.002463
0.015248 0.002965 0.002463
0.019330 0.002965 0.002463
0.024743 0.002965 0.002463
0.031925 0.002965 0.002463
0.041450 0.002965 0.002463
0.054084 0.002965 0.002463
0.070841 0.002965 0.002463
0.093067 0.002965 0.002463
0.122546 0.002965 0.002463
0.161648 0.002965 0.002463
0.213510 0.002965 0.002463
0.282298 0.002965 0.002463
0.373538 0.002965 0.002463
0.494555 0.002965 0.002463
0.655068 0.002965 0.002463
0.867968 0.002965 0.002463
1.000000 0.002965 0.002463
1.000000 0.002965 0.002463
1.000000 0.002965 0.002463
1.000000 0.002965 0.002463
1.000000 0.002965 0.002463
0.002463 0.003467 0.002463
0.002965 0.003467 0.002463
0.003467 0.003467 0.002463
0.003969 0.003467 0.002463
0.004471 0.003467 0.002463
0.005037 0.003467 0.002463
0.005787 0.003467 0.002463
0.006781 0.003467 0.002463
0.008100 0.003467 0.002463
0.009849 0.003467 0.002463
0.012170 0.003467 0.002463
0.015248 0.003467 0.002463
0.019330 0.003467 0.002463
0.024743 0.003467 0.002463
0.031925 0.003467 0.002463
0.041450 0.003467 0.002463
0.054084 0.003467 0.002463
0.070841 0.003467 0.002463
0.093067 0.003467 0.002463
0.122546 0.003467 0.002463
0.161648 0.003467 0.002463
0.213510 0.003467 0.002463
0.282298 0.003467 0.002463
0.373538 0.003467 0.002463
0.494555 0.003467 0.002463
0.655068 0.003467 0.002463
0.867968 0.003467 0.002463
1.000000 0.003467 0.002463
1.000000 0.003467 0.002463
1.000000 0.003467 0.002463
1.000000 0.003467 0.002463
1.000000 0.003467 0.002463
0.002463 0.003969 0.002463
0.002965 0.003969 0.002463
0.003467 0.003969 0.002463
0.003969 0.003969 0.002463
0.004471 0.003969 0.002463
0.005037 0.003969 0.002463
0.005787 0.003969 0.002463
0.006781 0.003969 0.002463
0.008100 0.003969 0.002463
0.009849 0.003969 0.002463
0.012170 0.003969 0.002463
0.015248 0.003969 0.002463
0.019330 0.003969 0.002463
0.024743 0.003969 0.002463
0.031925 0.003969 0.002463
0.041450 0.003969 0.002463
0.054084 0.003969 0.002463
0.070841 0.003969 0.002463
0.093067 0.003969 0.002463
0.122546 0.003969 0.002463
0.161648 0.003969 0.002463
0.213510 0.003969 0.002463
0.282298 0.003969 0.002463
0.373538 0.003969 0.002463
0.494555 0.003969 0.002463
0.655068 0.003969 0.002463
0.867968 0.003969 0.002463
1.000000 0.003969 0.002463
1.000000 0.003969 0.002463
1.000000 0.003969 0.002463
1.000000 0.003969 0.002463
1.000000 0.003969 0.002463
0.002463 0.004471 0.002463
0.002965 0.004471 0.002463
0.003467 0.004471 0.002463
0.003969 0.004471 0.002463
0.004471 0.004471 0.002463
0.005037 0.004471 0.002463
0.005787 0.004471 0.002463
0.006781 0.004471 0.002463
0.008100 0.004471 0.002463
0.009849 0.004471 0.002463
0.012170 0.004471 0.002463
0.015248 0.004471 0.002463
0.019330 0.004471 0.002463
0.024743 0.004471 0.002463
0.031925 0.004471 0.002463
0.041450 0.004471 0.002463
0.054084 0.004471 0.002463
0.070841 0.004471 0.002463
0.093067 0.004471 0.002463
0.122546 0.004471 0.002463
0.161648 0.004471 0.002463
0.213510 0.004471 0.002463
0.282298 0.004471 0.002463
0.373538 0.004471 0.002463
0.494555 0.004471 0.002463
0.655068 0.004471 0.002463
0.867968 0.004471 0.002463
1.000000 0.004471 0.002463
1.000000 0.004471 0.002463
1.000000 0.004471 0.002463
1.000000 0.004471 0.002463
1.000000 0.004471 0.002463
0.002463 0.005037 0.002463
0.002965 0.005037 0.002463
0.003467 0.005037 0.002463
0.003969 0.005037 0.002463
0.004471 0.005037 0.002463
0.005037 0.005037 0.002463
0.005787 0.005037 0.002463
0.006781 0.005037 0.002463
0.008100 0.005037 0.002463
0.009849 0.005037 0.002463
0.012170 0.005037 0.002463
0.015248 0.005037 0.002463
0.019330 0.005037 0.002463
0.024743 0.005037 0.002463
0.031925 0.005037 0.002463
0.041450 0.005037 0.002463
0.054084 0.005037 0.002463
0.070841 0.005037 0.002463
0.093067 0.005037 0.002463
0.122546 0.005037 0.002463
0.161648 0.005037 0.002463
0.213510 0.005037 0.002463
0.282298 0.005037 0.002463
0.373538 0.005037 0.002463
0.494555 0.005037 0.002463
0.655068 0.005037 0.002463
0.867968 0.005037 0.002463
1.000000 0.005037 0.002463
1.000000 0.005037 0.002463
1.000000 0.005037 0.002463
1.000000 0.005037 0.002463
1.000000 0.005037 0.002463
0.002463 0.005787 0.002463
0.002965 0.005787 0.002463
0.003467 0.005787 0.002463
0.003969 0.005787 0.002463
0.004471 0.005787 0.002463
0.005037 0.005787 0.002463
0.005787 0.005787 0.002463
0.006781 0.005787 0.002463
0.008100 0.005787 0.002463
0.009849 0.005787 0.002463
0.012170 0.005787 0.002463
0.015248 0.005787 0.002463
0.019330 0.005787 0.002463
0.024743 0.005787 0.002463
0.031925 0.005787 0.002463
0.041450 0.005787 0.002463
0.054084 0.005787 0.002463
0.070841 0.005787 0.002463
0.093067 0.005787 0.002463
0.122546 0.005787 0.002463
0.161648 0.005787 0.002463
0.213510 0.005787 0.002463
0.282298 0.005787 0.002463
0.373538 0.005787 0.002463
0.494555 0.005787 0.002463
0.655068 0.005787 0.002463
0.867968 0.005787 0.002463
1.000000 0.005787 0.002463
1.000000 0.005787 0.002463
1.000000 0.005787 0.002463
1.000000 0.005787 0.002463
1.000000 0.005787 0.002463
0.002463 0.006781 0.002463
0.002965 0.006781 0.002463
0.003467 0.006781 0.002463
0.003969 0.006781 0.002463
0.004471 0.006781 0.002463
0.005037 0.006781 0.002463
0.005787 0.006781 0.002463
0.006781 0.006781 0.002463
0.008100 0.006781 0.002463
0.009849 0.006781 0.002463
0.012170 0.006781 0.002463
0.015248 0.006781 0.002463
0.019330 0.006781 0.002463
0.024743 0.006781 0.002463
0.031925 0.006781 0.002463
0.041450 0.006781 0.002463
0.054084 0.006781 0.002463
0.070841 0.006781 0.002463
0.093067 0.006781 0.002463
0.122546 0.006781 0.002463
0.161648 0.006781 0.002463
0.213510 0.006781 0.002463
0.282298 0.006781 0.002463
0.373538 0.006781 0.002463
0.494555 0.006781 0.002463
0.655068 0.006781 0.002463
0.867968 0.006781 0.002463
1.000000 0.006781 0.002463
1.000000 0.006781 0.002463
1.000000 0.006781 0.002463
1.000000 0.006781 0.002463
1.000000 0.006781 0.002463
0.002463 0.008100 0.002463
0.002965 0.008100 0.002463
0.003467 0.008100 0.002463
0.003969 0.008100 0.002463
0.004471 0.008100 0.002463
0.005037 0.008100 0.002463
0.005787 0.008100 0.002463
0.006781 0.008100 0.002463
0.008100 0.008100 0.002463
0.009849 0.008100 0.002463
0.012170 0.008100 0.002463
0.015248 0.008100 0.002463
0.019330 0.008100 0.002463
0.024743 0.008100 0.002463
0.031925 0.008100 0.002463
0.041450 0.008100 0.002463
0.054084 0.008100 0.002463
0.070841 0.008100 0.002463
0.093067 0.008100 0.002463
0.122546 0.008100 0.002463
0.161648 0.008100 0.002463
0.213510 0.008100 0.002463
0.282298 0.008100 0.002463
0.373538 0.008100 0.002463
0.494555 0.008100 0.002463
0.655068 0.008100 0.002463
0.867968 0.008100 0.002463
1.000000 0.008100 0.002463
1.000000 0.008100 0.002463
1.000000 0.008100 0.002463
1.000000 0.008100 0.002463
1.000000 0.008100 0.002463
0.002463 0.009849 0.002463
0.002965 0.009849 0.002463
0.003467 0.009849 0.002463
0.003969 0.009849 0.002463
0.004471 0.009849 0.002463
0.005037 0.009849 0.002463
0.005787 0.009849 0.002463
0.006781 0.009849 0.002463
0.008100 0.009849 0.002463
0.009849 0.009849 0.002463
0.012170 0.009849 0.002463
0.015248 0.009849 0.002463
0.019330 0.009849 0.002463
0.024743 0.009849 0.002463
0.031925 0.009849 0.002463
0.041450 0.009849 0.002463
0.054084 0.009849 0.002463
0.070841 0.009849 0.002463
0.093067 0.009849 0.002463
0.122546 0.009849 0.002463
0.161648 0.009849 0.002463
0.213510 0.009849 0.002463
0.282298 0.009849 0.002463
0.373538 0.009849 0.002463
0.494555 0.009849 0.002463
0.655068 0.009849 0.002463
0.867968 0.009849 0.002463
1.000000 0.009849 0.002463
1.000000 0.009849 0.002463
1.000000 0.009849 0.002463
1.000000 0.009849 0.002463
1.000000 0.009849 0.002463
0.002463 0.012170 0.002463
0.002965 0.012170 0.002463
0.003467 0.012170 0.002463
0.003969 0.012170 0.002463
0.004471 0.012170 0.002463
0.005037 0.012170 0.002463
0.005787 0.012170 0.002463
0.006781 0.012170 0.002463
0.008100 0.012170 0.002463
0.009849 0.012170 0.002463
0.012170 0.012170 0.002463
0.015248 0.012170 0.002463
0.019330 0.012170 0.002463
0.024743 0.012170 0.002463
0.031925 0.012170 0.002463
0.041450 0.012170 0.002463
0.054084 0.012170 0.002463
0.070841 0.012170 0.002463
0.093067 0.012170 0.002463
0.122546 0.012170 0.002463
0.161648 0.012170 0.002463
0.213510 0.012170 0.002463
0.282298 0.012170 0.002463
0.373538 0.012170 0.002463
0.494555 0.012170 0.002463
0.655068 0.012170 0.002463
0.867968 0.012170 0.002463
1.000000 0.012170 0.002463
1.000000 0.012170 0.002463
1.000000 0.012170 0.002463
1.000000 0.012170 0.002463
1.000000 0.012170 0.002463
0.002463 0.015248 0.002463
0.002965 0.015248 0.002463
0.003467 0.015248 0.002463
0.003969 0.015248 0.002463
0.004471 0.015248 0.002463
0.005037 0.015248 0.002463
0.005787 0.015248 0.002463
0.006781 0.015248 0.002463
0.008100 0.015248 0.002463
0.009849 0.015248 0.002463
0.012170 0.015248 0.002463
0.015248 0.015248 0.002463
0.019330 0.015248 0.002463
0.024743 0.015248 0.002463
0.031925 0.015248 0.002463
0.041450 0.015248 0.002463
0.054084 0.015248 0.002463
0.070841 0.015248 0.002463
0.093067 0.015248 0.002463
0.122546 0.015248 0.002463
0.161648 0.015248 0.002463
0.213510 0.015248 0.002463
0.282298 0.015248 0.002463
0.373538 0.015248 0.002463
0.494555 0.015248 0.002463
0.655068 0.015248 0.002463
0.867968 0.015248 0.002463
1.000000 0.015248 0.002463
1.000000 0.015248 0.002463
1.000000 0.015248 0.002463
1.000000 0.015248 0.002463
1.000000 0.015248 0.002463
0.002463 0.019330 0.002463
0.002965 0.019330 0.002463
0.003467 0.019330 0.002463
0.003969 0.019330 0.002463
0.004471 0.019330 0.002463
0.005037 0.019330 0.002463
0.005787 0.019330 0.002463
0.006781 0.019330 0.002463
0.008100 0.019330 0.002463
0.009849 0.019330 0.002463
0.012170 0.019330 0.002463
0.015248 0.019330 0.002463
0.019330 0.019330 0.002463
0.024743 0.019330 0.002463
0.031925 0.019330 0.002463
0.041450 0.019330 0.002463
0.054084 0.019330 0.002463
0.070841 0.019330 0.002463
0.093067 0.019330 0.002463
0.122546 0.019330 0.002463
0.161648 0.019330 0.002463
0.213510 0.019330 0.002463
0.282298 0.019330 0.002463
0.373538 0.019330 0.002463
0.494555 0.019330 0.002463
0.655068 0.019330 0.002463
0.867968 0.019330 0.002463
1.000000 0.019330 0.002463
1.000000 0.019330 0.002463
1.000000 0.019330 0.002463
1.000000 0.019330 0.002463
1.000000 0.019330 0.002463
0.002463 0.024743 0.002463
0.002965 0.024743 0.002463
0.003467 0.024743 0.002463
0.003969 0.024743 0.002463
0.004471 0.024743 0.002463
0.005037 0.024743 0.002463
0.005787 0.024743 0.002463
0.006781 0.024743 0.002463
0.008100 0.024743 0.002463
0.009849 0.024743 0.002463
0.012170 0.024743 0.002463
0.015248 0.024743 0.002463
0.019330 0.024743 0.002463
0.024743 0.024743 0.002463
0.031925 0.024743 0.002463
0.041450 0.024743 0.002463
0.054084 0.024743 0.002463
0.070841 0.024743 0.002463
0.093067 0.024743 0.002463
0.122546 0.024743 0.002463
0.161648 0.024743 0.002463
0.213510 0.024743 0.002463
0.282298 0.024743 0.002463
0.373538 0.024743 0.002463
0.494555 0.024743 0.002463
0.655068 0.024743 0.002463
0.867968 0.024743 0.002463
1.000000 0.024743 0.002463
1.000000 0.024743 0.002463
1.000000 0.024743 0.002463
1.000000 0.024743 0.002463
1.000000 0.024743 0.002463
0.002463 0.031925 0.002463
0.002965 0.031925 0.002463
0.003467 0.031925 0.002463
0.003969 0.031925 0.002463
0.004471 0.031925 0.002463
0.005037 0.031925 0.002463
0.005787 0.031925 0.002463
0.006781 0.031925 0.002463
0.008100 0.031925 0.002463
0.009849 0.031925 0.002463
0.012170 0.031925 0.002463
0.015248 0.031925 0.002463
0.019330 0.031925 0.002463
0.024743 0.031925 0.002463
0.031925 0.031925 0.002463
0.041450 0.031925 0.002463
0.054084 0.031925 0.002463
0.070841 0.031925 0.002463
0.093067 0.031925 0.002463
0.122546 0.031925 0.002463
0.161648 0.031925 0.002463
0.213510 0.031925 0.002463
0.282298 0.031925 0.002463
0.373538 0.031925 0.002463
0.494555 0.031925 0.002463
0.655068 0.031925 0.002463
0.867968 0.031925 0.002463
1.000000 0.031925 0.002463
1.000000 0.031925 0.002463
1.000000 0.031925 0.002463
1.000000 0.031925 0.002463
1.000000 0.031925 0.002463
0.002463 0.041450 0.002463
0.002965 0.041450 0.002463
0.003467 0.041450 0.002463
0.003969 0.041450 0.002463
0.004471 0.041450 0.002463
0.005037 0.041450 0.002463
0.005787 0.041450 0.002463
0.006781 0.041450 0.002463
0.008100 0.041450 0.002463
0.009849 0.041450 0.002463
0.012170 0.041450 0.002463
0.015248 0.041450 0.002463
0.019330 0.041450 0.002463
0.024743 0.041450 0.002463
0.031925 0.041450 0.002463
0.041450 0.041450 0.002463
0.054084 0.041450 0.002463
0.070841 0.041450 0.002463
0.093067 0.041450 0.002463
0.122546 0.041450 0.002463
0.161648 0.041450 0.002463
0.213510 0.041450 0.002463
0.282298 0.041450 0.002463
0.373538 0.041450 0.002463
0.494555 0.041450 0.002463
0.655068 0.041450 0.002463
0.867968 0.041450 0.002463
1.000000 0.041450 0.002463
1.000000 0.041450 0.002463
1.000000 0.041450 0.002463
1.000000 0.041450 0.002463
1.000000 0.041450 0.002463
0.002463 0.054084 0.002463
0.002965 0.054084 0.002463
0.003467 0.054084 0.002463
0.003969 0.054084 0.002463
0.004471 0.054084 0.002463
0.005037 0.054084 0.002463
0.005787 0.054084 0.002463
0.006781 0.054084 0.002463
0.008100 0.054084 0.002463
0.009849 0.054084 0.002463
0.012170 0.054084 0.002463
0.015248 0.054084 0.002463
0.019330 0.054084 0.002463
0.024743 0.054084 0.002463
0.031925 0.054084 0.002463
0.041450 0.054084 0.002463
0.054084 0.054084 0.002463
0.070841 0.054084 0.002463
0.093067 0.054084 0.002463
0.122546 0.054084 0.002463
0.161648 0.054084 0.002463
0.213510 0.054084 0.002463
0.282298 0.054084 0.002463
0.373538 0.054084 0.002463
0.494555 0.054084 0.002463
0.655068 0.054084 0.002463
0.867968 0.054084 0.002463
1.000000 0.054084 0.002463
1.000000 0.054084 0.002463
1.000000 0.054084 0.002463
1.000000 0.054084 0.002463
1.000000 0.054084 0.002463
0.002463 0.070841 0.002463
0.002965 0.070841 0.002463
0.003467 0.070841 0.002463
0.003969 0.070841 0.002463
0.004471 0.070841 0.002463
0.005037 0.070841 0.002463
0.005787 0.070841 0.002463
0.006781 0.070841 0.002463
0.008100 0.070841 0.002463
0.009849 0.070841 0.002463
0.012170 0.070841 0.002463
0.015248 0.070841 0.002463
0.019330 0.070841 0.002463
0.024743 0.070841 0.002463
0.031925 0.070841 0.002463
0.041450 0.070841 0.002463
0.054084 0.070841 0.002463
0.070841 0.070841 0.002463
0.093067 0.070841 0.002463
0.122546 0.070841 0.002463
0.161648 0.070841 0.002463
0.213510 0.070841 0.002463
0.282298 0.070841 0.002463
0.373538 0.070841 0.002463
0.494555 0.070841 0.002463
0.655068 0.070841 0.002463
0.867968 0.070841 0.002463
1.000000 0.070841 0.002463
1.000000 0.070841 0.002463
1.000000 0.070841 0.002463
1.000000 0.070841 0.002463
1.000000 0.070841 0.002463
0.002463 0.093067 0.002463
0.002965 0.093067 0.002463
0.003467 0.093067 0.002463
0.003969 0.093067 0.002463
0.004471 0.093067 0.002463
0.005037 0.093067 0.002463
0.005787 0.093067 0.002463
0.006781 0.093067 0.002463
0.008100 0.093067 0.002463
0.009849 0.093067 0.002463
0.012170 0.093067 0.002463
0.015248 0.093067 0.002463
0.019330 0.093067 0.002463
0.024743 0.093067 0.002463
0.031925 0.093067 0.002463
0.041450 0.093067 0.002463
0.054084 0.093067 0.002463
0.070841 0.093067 0.002463
0.093067 0.093067 0.002463
0.122546 0.093067 0.002463
0.161648 0.093067 0.002463
0.213510 0.093067 0.002463
0.282298 0.093067 0.002463
0.373538 0.093067 0.002463
0.494555 0.093067 0.002463
0.655068 0.093067 0.002463
0.867968 0.093067 0.002463
1.000000 0.093067 0.002463
1.000000 0.093067 0.002463
1.000000 0.093067 0.002463
1.000000 0.093067 0.002463
1.000000 0.093067 0.002463
0.002463 0.122546 0.002463
0.002965 0.122546 0.002463
0.003467 0.122546 0.002463
0.003969 0.122546 0.002463
0.004471 0.122546 0.002463
0.005037 0.122546 0.002463
0.005787 0.122546 0.002463
0.006781 0.122546 0.002463
0.008100 0.122546 0.002463
0.009849 0.122546 0.002463
0.012170 0.122546 0.002463
0.015248 0.122546 0.002463
0.019330 0.122546 0.002463
0.024743 0.122546 0.002463
0.031925 0.122546 0.002463
0.041450 0.122546 0.002463
0.054084 0.122546 0.002463
0.070841 0.122546 0.002463
0.093067 0.122546 0.002463
0.122546 0.122546 0.002463
0.161648 0.122546 0.002463
0.213510 0.122546 0.002463
0.282298 0.122546 0.002463
0.373538 0.122546 0.002463
0.494555 0.122546 0.002463
0.655068 0.122546 0.002463
0.867968 0.122546 0.002463
1.000000 0.122546 0.002463
1.000000 0.122546 0.002463
1.000000 0.122546 0.002463
1.000000 0.122546 0.002463
1.000000 0.122546 0.002463
0.002463 0.161648 0.002463
0.002965 0.161648 0.002463
0.003467 0.161648 0.002463
0.003969 0.161648 0.002463
0.004471 0.161648 0.002463
0.005037 0.161648 0.002463
0.005787 0.161648 0.002463
0.006781 0.161648 0.002463
0.008100 0.161648 0.002463
0.009849 0.161648 0.002463
0.012170 0.161648 0.002463
0.015248 0.161648 0.002463
0.019330 0.161648 0.002463
0.024743 0.161648 0.002463
0.031925 0.161648 0.002463
0.041450 0.161648 0.002463
0.054084 0.161648 0.002463
0.070841 0.161648 0.002463
0.093067 0.161648 0.002463
0.122546 0.161648 0.002463
0.161648 0.161648 0.002463
0.213510 0.161648 0.002463
0.282298 0.161648 0.002463
0.373538 0.161648 0.002463
0.494555 0.161648 0.002463
0.655068 0.161648 0.002463
0.867968 0.161648 0.002463
1.000000 0.161648 0.002463
1.000000 0.161648 0.002463
1.000000 0.161648 0.002463
1.000000 0.161648 0.002463
1.000000 0.161648 0.002463
0.002463 0.213510 0.002463
0.002965 0.213510 0.002463
0.003467 0.213510 0.002463
0.003969 0.213510 0.002463
0.004471 0.213510 0.002463
0.005037 0.213510 0.002463
0.005787 0.213510 0.002463
0.006781 0.213510 0.002463
0.008100 0.213510 0.002463
0.009849 0.213510 0.002463
0.012170 0.213510 0.002463
0.015248 0.213510 0.002463
0.019330 0.213510 0.002463
0.024743 0.213510 0.002463
0.031925 0.213510 0.002463
0.041450 0.213510 0.002463
0.054084 0.213510 0.002463
0.070841 0.213510 0.002463
0.093067 0.213510 0.002463
0.122546 0.213510 0.002463
0.161648 0.213510 0.002463
0.213510 0.213510 0.002463
0.282298 0.213510 0.002463
0.373538 0.213510 0.002463
0.494555 0.213510 0.002463
0.655068 0.213510 0.002463
0.867968 0.213510 0.002463
1.000000 0.213510 0.002463
1.000000 0.213510 0.002463
1.000000 0.213510 0.002463
1.000000 0.213510 0.002463
1.000000 0.213510 0.002463
0.002463 0.282298 0.002463
0.002965 0.282298 0.002463
0.003467 0.282298 0.002463
0.003969 0.282298 0.002463
0.004471 0.282298 0.002463
0.005037 0.282298 0.002463
0.005787 0.282298 0.002463
0.006781 0.282298 0.002463
0.008100 0.282298 0.002463
0.009849 0.282298 0.002463
0.012170 0.282298 0.002463
0.015248 0.282298 0.002463
0.019330 0.282298 0.002463
0.024743 0.282298 0.002463
0.031925 0.282298 0.002463
0.041450 0.282298 0.002463
0.054084 0.282298 0.002463
0.070841 0.282298 0.002463
0.093067 0.282298 0.002463
0.122546 0.282298 0.002463
0.161648 0.282298 0.002463
0.213510 0.282298 0.002463
0.282298 0.282298 0.002463
0.373538 0.282298 0.002463
0.494555 0.282298 0.002463
0.655068 0.282298 0.002463
0.867968 0.282298 0.002463
1.000000 0.282298 0.002463
1.000000 0.282298 0.002463
1.000000 0.282298 0.002463
1.000000 0.282298 0.002463
1.000000 0.282298 0.002463
0.002463 0.373538 0.002463
0.002965 0.373538 0.002463
0.003467 0.373538 0.002463
0.003969 0.373538 0.002463
0.004471 0.373538 0.002463
0.005037 0.373538 0.002463
0.005787 0.373538 0.002463
0.006781 0.373538 0.002463
0.008100 0.373538 0.002463
0.009849 0.373538 0.002463
0.012170 0.373538 0.002463
0.015248 0.373538 0.002463
0.019330 0.373538 0.002463
0.024743 0.373538 0.002463
0.031925 0.373538 0.002463
0.041450 0.373538 0.002463
0.054084 0.373538 0.002463
0.070841 0.373538 0.002463
0.093067 0.373538 0.002463
0.122546 0.373538 0.002463
0.161648 0.373538 0.002463
0.213510 0.373538 0.002463
0.282298 0.373538 0.002463
0.373538 0.373538 0.002463
0.494555 0.373538 0.002463
0.655068 0.373538 0.002463
0.867968 0.373538 0.002463
1.000000 0.373538 0.002463
1.000000 0.373538 0.002463
1.000000 0.373538 0.002463
1.000000 0.373538 0.002463
1.000000 0.373538 0.002463
0.002463 0.494555 0.002463
0.002965 0.494555 0.002463
0.003467 0.494555 0.002463
0.003969 0.494555 0.002463
0.004471 0.494555 0.002463
0.005037 0.494555 0.002463
0.005787 0.494555 0.002463
0.006781 0.494555 0.002463
0.008100 0.494555 0.002463
0.009849 0.494555 0.002463
0.012170 0.494555 0.002463
0.015248 0.494555 0.002463
0.019330 0.494555 0.002463
0.024743 0.494555 0.002463
0.031925 0.494555 0.002463
0.041450 0.494555 0.002463
0.054084 0.494555 0.002463
0.070841 0.494555 0.002463
0.093067 0.494555 0.002463
0.122546 0.494555 0.002463
0.161648 0.494555 0.002463
0.213510 0.494555 0.002463
0.282298 0.494555 0.002463
0.373538 0.494555 0.002463
0.494555 0.494555 0.002463
0.655068 0.494555 0.002463
0.867968 0.494555 0.002463
1.000000 0.494555 0.002463
1.000000 0.494555 0.002463
1.000000 0.494555 0.002463
1.000000 0.494555 0.002463
1.000000 0.494555 0.002463
0.002463 0.655068 0.002463
0.002965 0.655068 0.002463
0.003467 0.655068 0.002463
0.003969 0.655068 0.002463
0.004471 0.655068 0.002463
0.005037 0.655068 0.002463
0.005787 0.655068 0.002463
0.006781 0.655068 0.002463
0.008100 0.655068 0.002463
0.009849 0.655068 0.002463
0.012170 0.655068 0.002463
0.015248 0.655068 0.002463
0.019330 0.655068 0.002463
0.024743 0.655068 0.002463
0.031925 0.655068 0.002463
0.041450 0.655068 0.002463
0.054084 0.655068 0.002463
0.070841 0.655068 0.002463
0.093067 0.655068 0.002463
0.122546 0.655068 0.002463
0.161648 0.655068 0.002463
0.213510 0.655068 0.002463
0.282298 0.655068 0.002463
0.373538 0.655068 0.002463
0.494555 0.655068 0.002463
0.655068 0.655068 0.002463
0.867968 0.655068 0.002463
1.000000 0.655068 0.002463
1.000000 0.655068 0.002463
1.000000 0.655068 0.002463
1.000000 0.655068 0.002463
1.000000 0.655068 0.002463
0.002463 0.867968 0.002463
0.002965 0.867968 0.002463
0.003467 0.867968 0.002463
0.003969 0.867968 0.002463
0.004471 0.867968 0.002463
0.005037 0.867968 0.002463
0.005787 0.867968 0.002463
0.006781 0.867968 0.002463
0.008100 0.867968 0.002463
0.009849 0.867968 0.002463
0.012170 0.867968 0.002463
0.015248 0.867968 0.002463
0.019330 0.867968 0.002463
0.024743 0.867968 0.002463
0.031925 0.867968 0.002463
0.041450 0.867968 0.002463
0.054084 0.867968 0.002463
0.070841 0.867968 0.002463
0.093067 0.867968 0.002463
0.122546 0.867968 0.002463
0.161648 0.867968 0.002463
0.213510 0.867968 0.002463
0.282298 0.867968 0.002463
0.373538 0.867968 0.002463
0.494555 0.867968 0.002463
0.655068 0.867968 0.002463
0.867968 0.867968 0.002463
1.000000 0.867968 0.002463
1.000000 0.867968 0.002463
1.000000 0.867968 0.002463
1.000000 0.867968 0.002463
1.000000 0.867968 0.002463
0.002463 1.000000 0.002463
0.002965 1.000000 0.002463
0.003467 1.000000 0.002463
0.003969 1.000000 0.002463
0.004471 1.000000 0.002463
0.005037 1.000000 0.002463
0.005787 1.000000 0.002463
0.006781 1.000000 0.002463
0.008100 1.000000 0.002463
0.009849 1.000000 0.002463
0.012170 1.000000 0.002463
0.015248 1.000000 0.002463
0.019330 1.000000 0.002463
0.024743 1.000000 0.002463
0.031925 1.000000 0.002463
0.041450 1.000000 0.002463
0.054084 1.000000 0.002463
0.070841 1.000000 0.002463
0.093067 1.000000 0.002463
0.122546 1.000000 0.002463
0.161648 1.000000 0.002463
