.nuke/nuke.LUT/logC-2-linear_extended/AlexaV3_EI1600_LogC2Linear_EE_nuke3d.cube
# Alexa conversion LUT, logc2lin. Full in/full out.
# created by alexalutconv (2.07)
LUT_3D_SIZE 5
DOMAIN_MIN 0.000000 0.000000 0.000000
DOMAIN_MAX 0.903226 0.903226 0.903226
0.003658 0.003658 0.003658
0.004335 0.003658 0.003658
0.008480 0.003658 0.003658
0.045394 0.003658 0.003658
0.379261 0.003658 0.003658
0.003658 0.004335 0.003658
0.004335 0.004335 0.003658
0.008480 0.004335 0.003658
0.045394 0.004335 0.003658
0.379261 0.004335 0.003658
0.003658 0.008480 0.003658
0.004335 0.008480 0.003658
0.008480 0.008480 0.003658
0.045394 0.008480 0.003658
0.379261 0.008480 0.003658
0.003658 0.045394 0.003658
0.004335 0.045394 0.003658
0.008480 0.045394 0.003658
0.045394 0.045394 0.003658
0.379261 0.045394 0.003658
0.003658 0.379261 0.003658
0.004335 0.379261 0.003658
0.008480 0.379261 0.003658
0.045394 0.379261 0.003658
0.379261 0.379261 0.003658
0.003658 0.003658 0.004335
0.004335 0.003658 0.004335
0.008480 0.003658 0.004335
0.045394 0.003658 0.004335
0.379261 0.003658 0.004335
0.003658 0.004335 0.004335
0.004335 0.004335 0.004335
0.008480 0.004335 0.004335
0.045394 0.004335 0.004335
0.379261 0.004335 0.004335
0.003658 0.008480 0.004335
0.004335 0.008480 0.004335
0.008480 0.008480 0.004335
0.045394 0.008480 0.004335
0.379261 0.008480 0.004335
0.003658 0.045394 0.004335
0.004335 0.045394 0.004335
0.008480 0.045394 0.004335
0.045394 0.045394 0.004335
0.379261 0.045394 0.004335
0.003658 0.379261 0.004335
0.004335 0.379261 0.004335
0.008480 0.379261 0.004335
0.045394 0.379261 0.004335
0.379261 0.379261 0.004335
0.003658 0.003658 0.008480
0.004335 0.003658 0.008480
0.008480 0.003658 0.008480
0.045394 0.003658 0.008480
0.379261 0.003658 0.008480
0.003658 0.004335 0.008480
0.004335 0.004335 0.008480
0.008480 0.004335 0.008480
0.045394 0.004335 0.008480
0.379261 0.004335 0.008480
0.003658 0.008480 0.008480
0.004335 0.008480 0.008480
0.008480 0.008480 0.008480
0.045394 0.008480 0.008480
0.379261 0.008480 0.008480
0.003658 0.045394 0.008480
0.004335 0.045394 0.008480
0.008480 0.045394 0.008480
0.045394 0.045394 0.008480
0.379261 0.045394 0.008480
0.003658 0.379261 0.008480
0.004335 0.379261 0.008480
0.008480 0.379261 0.008480
0.045394 0.379261 0.008480
0.379261 0.379261 0.008480
0.003658 0.003658 0.045394
0.004335 0.003658 0.045394
0.008480 0.003658 0.045394
0.045394 0.003658 0.045394
0.379261 0.003658 0.045394
0.003658 0.004335 0.045394
0.004335 0.004335 0.045394
0.008480 0.004335 0.045394
0.045394 0.004335 0.045394
0.379261 0.004335 0.045394
0.003658 0.008480 0.045394
0.004335 0.008480 0.045394
0.008480 0.008480 0.045394
0.045394 0.008480 0.045394
0.379261 0.008480 0.045394
0.003658 0.045394 0.045394
0.004335 0.045394 0.045394
0.008480 0.045394 0.045394
0.045394 0.045394 0.045394
0.379261 0.045394 0.045394
0.003658 0.379261 0.045394
0.004335 0.379261 0.045394
0.008480 0.379261 0.045394
0.045394 0.379261 0.045394
0.379261 0.379261 0.045394
0.003658 0.003658 0.379261
0.004335 0.003658 0.379261
0.008480 0.003658 0.379261
0.045394 0.003658 0.379261
0.379261 0.003658 0.379261
0.003658 0.004335 0.379261
0.004335 0.004335 0.379261
0.008480 0.004335 0.379261
0.045394 0.004335 0.379261
0.379261 0.004335 0.379261
0.003658 0.008480 0.379261
0.004335 0.008480 0.379261
0.008480 0.008480 0.379261
0.045394 0.008480 0.379261
0.379261 0.008480 0.379261
0.003658 0.045394 0.379261
0.004335 0.045394 0.379261
0.008480 0.045394 0.379261
0.045394 0.045394 0.379261
0.379261 0.045394 0.379261
0.003658 0.379261 0.379261
0.004335 0.379261 0.379261
0.008480 0.379261 0.379261
0.045394 0.379261 0.379261
0.379261 0.379261 0.379261
