.nuke/nuke.LUT/logC-2-linear_extended/AlexaV3_EI0320_LogC2Linear_EE_nuke3d.cube
# Alexa conversion LUT, logc2lin. Full in/full out.
# created by alexalutconv (2.07)
LUT_3D_SIZE 8
DOMAIN_MIN 0.000000 0.000000 0.000000
DOMAIN_MAX 0.903226 0.903226 0.903226
0.002764 0.002764 0.002764
0.004354 0.002764 0.002764
0.007157 0.002764 0.002764
0.015952 0.002764 0.002764
0.043573 0.002764 0.002764
0.130314 0.002764 0.002764
0.402721 0.002764 0.002764
1.000000 0.002764 0.002764
0.002764 0.004354 0.002764
0.004354 0.004354 0.002764
0.007157 0.004354 0.002764
0.015952 0.004354 0.002764
0.043573 0.004354 0.002764
0.130314 0.004354 0.002764
0.402721 0.004354 0.002764
1.000000 0.004354 0.002764
0.002764 0.007157 0.002764
0.004354 0.007157 0.002764
0.007157 0.007157 0.002764
0.015952 0.007157 0.002764
0.043573 0.007157 0.002764
0.130314 0.007157 0.002764
0.402721 0.007157 0.002764
1.000000 0.007157 0.002764
0.002764 0.015952 0.002764
0.004354 0.015952 0.002764
0.007157 0.015952 0.002764
0.015952 0.015952 0.002764
0.043573 0.015952 0.002764
0.130314 0.015952 0.002764
0.402721 0.015952 0.002764
1.000000 0.015952 0.002764
0.002764 0.043573 0.002764
0.004354 0.043573 0.002764
0.007157 0.043573 0.002764
0.015952 0.043573 0.002764
0.043573 0.043573 0.002764
0.130314 0.043573 0.002764
0.402721 0.043573 0.002764
1.000000 0.043573 0.002764
0.002764 0.130314 0.002764
0.004354 0.130314 0.002764
0.007157 0.130314 0.002764
0.015952 0.130314 0.002764
0.043573 0.130314 0.002764
0.130314 0.130314 0.002764
0.402721 0.130314 0.002764
1.000000 0.130314 0.002764
0.002764 0.402721 0.002764
0.004354 0.402721 0.002764
0.007157 0.402721 0.002764
0.015952 0.402721 0.002764
0.043573 0.402721 0.002764
0.130314 0.402721 0.002764
0.402721 0.402721 0.002764
1.000000 0.402721 0.002764
0.002764 1.000000 0.002764
0.004354 1.000000 0.002764
0.007157 1.000000 0.002764
0.015952 1.000000 0.002764
0.043573 1.000000 0.002764
0.130314 1.000000 0.002764
0.402721 1.000000 0.002764
1.000000 1.000000 0.002764
0.002764 0.002764 0.004354
0.004354 0.002764 0.004354
0.007157 0.002764 0.004354
0.015952 0.002764 0.004354
0.043573 0.002764 0.004354
0.130314 0.002764 0.004354
0.402721 0.002764 0.004354
1.000000 0.002764 0.004354
0.002764 0.004354 0.004354
0.004354 0.004354 0.004354
0.007157 0.004354 0.004354
0.015952 0.004354 0.004354
0.043573 0.004354 0.004354
0.130314 0.004354 0.004354
0.402721 0.004354 0.004354
1.000000 0.004354 0.004354
0.002764 0.007157 0.004354
0.004354 0.007157 0.004354
0.007157 0.007157 0.004354
0.015952 0.007157 0.004354
0.043573 0.007157 0.004354
0.130314 0.007157 0.004354
0.402721 0.007157 0.004354
1.000000 0.007157 0.004354
0.002764 0.015952 0.004354
0.004354 0.015952 0.004354
0.007157 0.015952 0.004354
0.015952 0.015952 0.004354
0.043573 0.015952 0.004354
0.130314 0.015952 0.004354
0.402721 0.015952 0.004354
1.000000 0.015952 0.004354
0.002764 0.043573 0.004354
0.004354 0.043573 0.004354
0.007157 0.043573 0.004354
0.015952 0.043573 0.004354
0.043573 0.043573 0.004354
0.130314 0.043573 0.004354
0.402721 0.043573 0.004354
1.000000 0.043573 0.004354
0.002764 0.130314 0.004354
0.004354 0.130314 0.004354
0.007157 0.130314 0.004354
0.015952 0.130314 0.004354
0.043573 0.130314 0.004354
0.130314 0.130314 0.004354
0.402721 0.130314 0.004354
1.000000 0.130314 0.004354
0.002764 0.402721 0.004354
0.004354 0.402721 0.004354
0.007157 0.402721 0.004354
0.015952 0.402721 0.004354
0.043573 0.402721 0.004354
0.130314 0.402721 0.004354
0.402721 0.402721 0.004354
1.000000 0.402721 0.004354
0.002764 1.000000 0.004354
0.004354 1.000000 0.004354
0.007157 1.000000 0.004354
0.015952 1.000000 0.004354
0.043573 1.000000 0.004354
0.130314 1.000000 0.004354
0.402721 1.000000 0.004354
1.000000 1.000000 0.004354
0.002764 0.002764 0.007157
0.004354 0.002764 0.007157
0.007157 0.002764 0.007157
0.015952 0.002764 0.007157
0.043573 0.002764 0.007157
0.130314 0.002764 0.007157
0.402721 0.002764 0.007157
1.000000 0.002764 0.007157
0.002764 0.004354 0.007157
0.004354 0.004354 0.007157
0.007157 0.004354 0.007157
0.015952 0.004354 0.007157
0.043573 0.004354 0.007157
0.130314 0.004354 0.007157
0.402721 0.004354 0.007157
1.000000 0.004354 0.007157
0.002764 0.007157 0.007157
0.004354 0.007157 0.007157
0.007157 0.007157 0.007157
0.015952 0.007157 0.007157
0.043573 0.007157 0.007157
0.130314 0.007157 0.007157
0.402721 0.007157 0.007157
1.000000 0.007157 0.007157
0.002764 0.015952 0.007157
0.004354 0.015952 0.007157
0.007157 0.015952 0.007157
0.015952 0.015952 0.007157
0.043573 0.015952 0.007157
0.130314 0.015952 0.007157
0.402721 0.015952 0.007157
1.000000 0.015952 0.007157
0.002764 0.043573 0.007157
0.004354 0.043573 0.007157
0.007157 0.043573 0.007157
0.015952 0.043573 0.007157
0.043573 0.043573 0.007157
0.130314 0.043573 0.007157
0.402721 0.043573 0.007157
1.000000 0.043573 0.007157
0.002764 0.130314 0.007157
0.004354 0.130314 0.007157
0.007157 0.130314 0.007157
0.015952 0.130314 0.007157
0.043573 0.130314 0.007157
0.130314 0.130314 0.007157
0.402721 0.130314 0.007157
1.000000 0.130314 0.007157
0.002764 0.402721 0.007157
0.004354 0.402721 0.007157
0.007157 0.402721 0.007157
0.015952 0.402721 0.007157
0.043573 0.402721 0.007157
0.130314 0.402721 0.007157
0.402721 0.402721 0.007157
1.000000 0.402721 0.007157
0.002764 1.000000 0.007157
0.004354 1.000000 0.007157
0.007157 1.000000 0.007157
0.015952 1.000000 0.007157
0.043573 1.000000 0.007157
0.130314 1.000000 0.007157
0.402721 1.000000 0.007157
1.000000 1.000000 0.007157
0.002764 0.002764 0.015952
0.004354 0.002764 0.015952
0.007157 0.002764 0.015952
0.015952 0.002764 0.015952
0.043573 0.002764 0.015952
0.130314 0.002764 0.015952
0.402721 0.002764 0.015952
1.000000 0.002764 0.015952
0.002764 0.004354 0.015952
0.004354 0.004354 0.015952
0.007157 0.004354 0.015952
0.015952 0.004354 0.015952
0.043573 0.004354 0.015952
0.130314 0.004354 0.015952
0.402721 0.004354 0.015952
1.000000 0.004354 0.015952
0.002764 0.007157 0.015952
0.004354 0.007157 0.015952
0.007157 0.007157 0.015952
0.015952 0.007157 0.015952
0.043573 0.007157 0.015952
0.130314 0.007157 0.015952
0.402721 0.007157 0.015952
1.000000 0.007157 0.015952
0.002764 0.015952 0.015952
0.004354 0.015952 0.015952
0.007157 0.015952 0.015952
0.015952 0.015952 0.015952
0.043573 0.015952 0.015952
0.130314 0.015952 0.015952
0.402721 0.015952 0.015952
1.000000 0.015952 0.015952
0.002764 0.043573 0.015952
0.004354 0.043573 0.015952
0.007157 0.043573 0.015952
0.015952 0.043573 0.015952
0.043573 0.043573 0.015952
0.130314 0.043573 0.015952
0.402721 0.043573 0.015952
1.000000 0.043573 0.015952
0.002764 0.130314 0.015952
0.004354 0.130314 0.015952
0.007157 0.130314 0.015952
0.015952 0.130314 0.015952
0.043573 0.130314 0.015952
0.130314 0.130314 0.015952
0.402721 0.130314 0.015952
1.000000 0.130314 0.015952
0.002764 0.402721 0.015952
0.004354 0.402721 0.015952
0.007157 0.402721 0.015952
0.015952 0.402721 0.015952
0.043573 0.402721 0.015952
0.130314 0.402721 0.015952
0.402721 0.402721 0.015952
1.000000 0.402721 0.015952
0.002764 1.000000 0.015952
0.004354 1.000000 0.015952
0.007157 1.000000 0.015952
0.015952 1.000000 0.015952
0.043573 1.000000 0.015952
0.130314 1.000000 0.015952
0.402721 1.000000 0.015952
1.000000 1.000000 0.015952
0.002764 0.002764 0.043573
0.004354 0.002764 0.043573
0.007157 0.002764 0.043573
0.015952 0.002764 0.043573
0.043573 0.002764 0.043573
0.130314 0.002764 0.043573
0.402721 0.002764 0.043573
1.000000 0.002764 0.043573
0.002764 0.004354 0.043573
0.004354 0.004354 0.043573
0.007157 0.004354 0.043573
0.015952 0.004354 0.043573
0.043573 0.004354 0.043573
0.130314 0.004354 0.043573
0.402721 0.004354 0.043573
1.000000 0.004354 0.043573
0.002764 0.007157 0.043573
0.004354 0.007157 0.043573
0.007157 0.007157 0.043573
0.015952 0.007157 0.043573
0.043573 0.007157 0.043573
0.130314 0.007157 0.043573
0.402721 0.007157 0.043573
1.000000 0.007157 0.043573
0.002764 0.015952 0.043573
0.004354 0.015952 0.043573
0.007157 0.015952 0.043573
0.015952 0.015952 0.043573
0.043573 0.015952 0.043573
0.130314 0.015952 0.043573
0.402721 0.015952 0.043573
1.000000 0.015952 0.043573
0.002764 0.043573 0.043573
0.004354 0.043573 0.043573
0.007157 0.043573 0.043573
0.015952 0.043573 0.043573
0.043573 0.043573 0.043573
0.130314 0.043573 0.043573
0.402721 0.043573 0.043573
1.000000 0.043573 0.043573
0.002764 0.130314 0.043573
0.004354 0.130314 0.043573
0.007157 0.130314 0.043573
0.015952 0.130314 0.043573
0.043573 0.130314 0.043573
0.130314 0.130314 0.043573
0.402721 0.130314 0.043573
1.000000 0.130314 0.043573
0.002764 0.402721 0.043573
0.004354 0.402721 0.043573
0.007157 0.402721 0.043573
0.015952 0.402721 0.043573
0.043573 0.402721 0.043573
0.130314 0.402721 0.043573
0.402721 0.402721 0.043573
1.000000 0.402721 0.043573
0.002764 1.000000 0.043573
0.004354 1.000000 0.043573
0.007157 1.000000 0.043573
0.015952 1.000000 0.043573
0.043573 1.000000 0.043573
0.130314 1.000000 0.043573
0.402721 1.000000 0.043573
1.000000 1.000000 0.043573
0.002764 0.002764 0.130314
0.004354 0.002764 0.130314
0.007157 0.002764 0.130314
0.015952 0.002764 0.130314
0.043573 0.002764 0.130314
0.130314 0.002764 0.130314
0.402721 0.002764 0.130314
1.000000 0.002764 0.130314
0.002764 0.004354 0.130314
0.004354 0.004354 0.130314
0.007157 0.004354 0.130314
0.015952 0.004354 0.130314
0.043573 0.004354 0.130314
0.130314 0.004354 0.130314
0.402721 0.004354 0.130314
1.000000 0.004354 0.130314
0.002764 0.007157 0.130314
0.004354 0.007157 0.130314
0.007157 0.007157 0.130314
0.015952 0.007157 0.130314
0.043573 0.007157 0.130314
0.130314 0.007157 0.130314
0.402721 0.007157 0.130314
1.000000 0.007157 0.130314
0.002764 0.015952 0.130314
0.004354 0.015952 0.130314
0.007157 0.015952 0.130314
0.015952 0.015952 0.130314
0.043573 0.015952 0.130314
0.130314 0.015952 0.130314
0.402721 0.015952 0.130314
1.000000 0.015952 0.130314
0.002764 0.043573 0.130314
0.004354 0.043573 0.130314
0.007157 0.043573 0.130314
0.015952 0.043573 0.130314
0.043573 0.043573 0.130314
0.130314 0.043573 0.130314
0.402721 0.043573 0.130314
1.000000 0.043573 0.130314
0.002764 0.130314 0.130314
0.004354 0.130314 0.130314
0.007157 0.130314 0.130314
0.015952 0.130314 0.130314
0.043573 0.130314 0.130314
0.130314 0.130314 0.130314
0.402721 0.130314 0.130314
1.000000 0.130314 0.130314
0.002764 0.402721 0.130314
0.004354 0.402721 0.130314
0.007157 0.402721 0.130314
0.015952 0.402721 0.130314
0.043573 0.402721 0.130314
0.130314 0.402721 0.130314
0.402721 0.402721 0.130314
1.000000 0.402721 0.130314
0.002764 1.000000 0.130314
0.004354 1.000000 0.130314
0.007157 1.000000 0.130314
0.015952 1.000000 0.130314
0.043573 1.000000 0.130314
0.130314 1.000000 0.130314
0.402721 1.000000 0.130314
1.000000 1.000000 0.130314
0.002764 0.002764 0.402721
0.004354 0.002764 0.402721
0.007157 0.002764 0.402721
0.015952 0.002764 0.402721
0.043573 0.002764 0.402721
0.130314 0.002764 0.402721
0.402721 0.002764 0.402721
1.000000 0.002764 0.402721
0.002764 0.004354 0.402721
0.004354 0.004354 0.402721
0.007157 0.004354 0.402721
0.015952 0.004354 0.402721
0.043573 0.004354 0.402721
0.130314 0.004354 0.402721
0.402721 0.004354 0.402721
1.000000 0.004354 0.402721
0.002764 0.007157 0.402721
0.004354 0.007157 0.402721
0.007157 0.007157 0.402721
0.015952 0.007157 0.402721
0.043573 0.007157 0.402721
0.130314 0.007157 0.402721
0.402721 0.007157 0.402721
1.000000 0.007157 0.402721
0.002764 0.015952 0.402721
0.004354 0.015952 0.402721
0.007157 0.015952 0.402721
0.015952 0.015952 0.402721
0.043573 0.015952 0.402721
0.130314 0.015952 0.402721
0.402721 0.015952 0.402721
1.000000 0.015952 0.402721
0.002764 0.043573 0.402721
0.004354 0.043573 0.402721
0.007157 0.043573 0.402721
0.015952 0.043573 0.402721
0.043573 0.043573 0.402721
0.130314 0.043573 0.402721
0.402721 0.043573 0.402721
1.000000 0.043573 0.402721
0.002764 0.130314 0.402721
0.004354 0.130314 0.402721
0.007157 0.130314 0.402721
0.015952 0.130314 0.402721
0.043573 0.130314 0.402721
0.130314 0.130314 0.402721
0.402721 0.130314 0.402721
1.000000 0.130314 0.402721
0.002764 0.402721 0.402721
0.004354 0.402721 0.402721
0.007157 0.402721 0.402721
0.015952 0.402721 0.402721
0.043573 0.402721 0.402721
0.130314 0.402721 0.402721
0.402721 0.402721 0.402721
1.000000 0.402721 0.402721
0.002764 1.000000 0.402721
0.004354 1.000000 0.402721
0.007157 1.000000 0.402721
0.015952 1.000000 0.402721
0.043573 1.000000 0.402721
0.130314 1.000000 0.402721
0.402721 1.000000 0.402721
1.000000 1.000000 0.402721
0.002764 0.002764 1.000000
0.004354 0.002764 1.000000
0.007157 0.002764 1.000000
0.015952 0.002764 1.000000
0.043573 0.002764 1.000000
0.130314 0.002764 1.000000
0.402721 0.002764 1.000000
1.000000 0.002764 1.000000
0.002764 0.004354 1.000000
0.004354 0.004354 1.000000
0.007157 0.004354 1.000000
0.015952 0.004354 1.000000
0.043573 0.004354 1.000000
0.130314 0.004354 1.000000
0.402721 0.004354 1.000000
1.000000 0.004354 1.000000
0.002764 0.007157 1.000000
0.004354 0.007157 1.000000
0.007157 0.007157 1.000000
0.015952 0.007157 1.000000
0.043573 0.007157 1.000000
0.130314 0.007157 1.000000
0.402721 0.007157 1.000000
1.000000 0.007157 1.000000
0.002764 0.015952 1.000000
0.004354 0.015952 1.000000
0.007157 0.015952 1.000000
0.015952 0.015952 1.000000
0.043573 0.015952 1.000000
0.130314 0.015952 1.000000
0.402721 0.015952 1.000000
1.000000 0.015952 1.000000
0.002764 0.043573 1.000000
0.004354 0.043573 1.000000
0.007157 0.043573 1.000000
0.015952 0.043573 1.000000
0.043573 0.043573 1.000000
0.130314 0.043573 1.000000
0.402721 0.043573 1.000000
1.000000 0.043573 1.000000
0.002764 0.130314 1.000000
0.004354 0.130314 1.000000
0.007157 0.130314 1.000000
0.015952 0.130314 1.000000
0.043573 0.130314 1.000000
0.130314 0.130314 1.000000
0.402721 0.130314 1.000000
1.000000 0.130314 1.000000
0.002764 0.402721 1.000000
0.004354 0.402721 1.000000
0.007157 0.402721 1.000000
0.015952 0.402721 1.000000
0.043573 0.402721 1.000000
0.130314 0.402721 1.000000
0.402721 0.402721 1.000000
1.000000 0.402721 1.000000
0.002764 1.000000 1.000000
0.004354 1.000000 1.000000
0.007157 1.000000 1.000000
0.015952 1.000000 1.000000
0.043573 1.000000 1.000000
0.130314 1.000000 1.000000
0.402721 1.000000 1.000000
1.000000 1.000000 1.000000
