.nuke/nuke.LUT/logC-2-linear_extended/AlexaV3_EI3200_LogC2Linear_EE_nuke3d.cube
# Alexa conversion LUT, logc2lin. Full in/full out.
# created by alexalutconv (2.07)
LUT_3D_SIZE 8
DOMAIN_MIN 0.000000 0.000000 0.000000
DOMAIN_MAX 0.903226 0.903226 0.903226
0.003777 0.003777 0.003777
0.003958 0.003777 0.003777
0.004212 0.003777 0.003777
0.005108 0.003777 0.003777
0.008397 0.003777 0.003777
0.020474 0.003777 0.003777
0.064837 0.003777 0.003777
0.256479 0.003777 0.003777
0.003777 0.003958 0.003777
0.003958 0.003958 0.003777
0.004212 0.003958 0.003777
0.005108 0.003958 0.003777
0.008397 0.003958 0.003777
0.020474 0.003958 0.003777
0.064837 0.003958 0.003777
0.256479 0.003958 0.003777
0.003777 0.004212 0.003777
0.003958 0.004212 0.003777
0.004212 0.004212 0.003777
0.005108 0.004212 0.003777
0.008397 0.004212 0.003777
0.020474 0.004212 0.003777
0.064837 0.004212 0.003777
0.256479 0.004212 0.003777
0.003777 0.005108 0.003777
0.003958 0.005108 0.003777
0.004212 0.005108 0.003777
0.005108 0.005108 0.003777
0.008397 0.005108 0.003777
0.020474 0.005108 0.003777
0.064837 0.005108 0.003777
0.256479 0.005108 0.003777
0.003777 0.008397 0.003777
0.003958 0.008397 0.003777
0.004212 0.008397 0.003777
0.005108 0.008397 0.003777
0.008397 0.008397 0.003777
0.020474 0.008397 0.003777
0.064837 0.008397 0.003777
0.256479 0.008397 0.003777
0.003777 0.020474 0.003777
0.003958 0.020474 0.003777
0.004212 0.020474 0.003777
0.005108 0.020474 0.003777
0.008397 0.020474 0.003777
0.020474 0.020474 0.003777
0.064837 0.020474 0.003777
0.256479 0.020474 0.003777
0.003777 0.064837 0.003777
0.003958 0.064837 0.003777
0.004212 0.064837 0.003777
0.005108 0.064837 0.003777
0.008397 0.064837 0.003777
0.020474 0.064837 0.003777
0.064837 0.064837 0.003777
0.256479 0.064837 0.003777
0.003777 0.256479 0.003777
0.003958 0.256479 0.003777
0.004212 0.256479 0.003777
0.005108 0.256479 0.003777
0.008397 0.256479 0.003777
0.020474 0.256479 0.003777
0.064837 0.256479 0.003777
0.256479 0.256479 0.003777
0.003777 0.003777 0.003958
0.003958 0.003777 0.003958
0.004212 0.003777 0.003958
0.005108 0.003777 0.003958
0.008397 0.003777 0.003958
0.020474 0.003777 0.003958
0.064837 0.003777 0.003958
0.256479 0.003777 0.003958
0.003777 0.003958 0.003958
0.003958 0.003958 0.003958
0.004212 0.003958 0.003958
0.005108 0.003958 0.003958
0.008397 0.003958 0.003958
0.020474 0.003958 0.003958
0.064837 0.003958 0.003958
0.256479 0.003958 0.003958
0.003777 0.004212 0.003958
0.003958 0.004212 0.003958
0.004212 0.004212 0.003958
0.005108 0.004212 0.003958
0.008397 0.004212 0.003958
0.020474 0.004212 0.003958
0.064837 0.004212 0.003958
0.256479 0.004212 0.003958
0.003777 0.005108 0.003958
0.003958 0.005108 0.003958
0.004212 0.005108 0.003958
0.005108 0.005108 0.003958
0.008397 0.005108 0.003958
0.020474 0.005108 0.003958
0.064837 0.005108 0.003958
0.256479 0.005108 0.003958
0.003777 0.008397 0.003958
0.003958 0.008397 0.003958
0.004212 0.008397 0.003958
0.005108 0.008397 0.003958
0.008397 0.008397 0.003958
0.020474 0.008397 0.003958
0.064837 0.008397 0.003958
0.256479 0.008397 0.003958
0.003777 0.020474 0.003958
0.003958 0.020474 0.003958
0.004212 0.020474 0.003958
0.005108 0.020474 0.003958
0.008397 0.020474 0.003958
0.020474 0.020474 0.003958
0.064837 0.020474 0.003958
0.256479 0.020474 0.003958
0.003777 0.064837 0.003958
0.003958 0.064837 0.003958
0.004212 0.064837 0.003958
0.005108 0.064837 0.003958
0.008397 0.064837 0.003958
0.020474 0.064837 0.003958
0.064837 0.064837 0.003958
0.256479 0.064837 0.003958
0.003777 0.256479 0.003958
0.003958 0.256479 0.003958
0.004212 0.256479 0.003958
0.005108 0.256479 0.003958
0.008397 0.256479 0.003958
0.020474 0.256479 0.003958
0.064837 0.256479 0.003958
0.256479 0.256479 0.003958
0.003777 0.003777 0.004212
0.003958 0.003777 0.004212
0.004212 0.003777 0.004212
0.005108 0.003777 0.004212
0.008397 0.003777 0.004212
0.020474 0.003777 0.004212
0.064837 0.003777 0.004212
0.256479 0.003777 0.004212
0.003777 0.003958 0.004212
0.003958 0.003958 0.004212
0.004212 0.003958 0.004212
0.005108 0.003958 0.004212
0.008397 0.003958 0.004212
0.020474 0.003958 0.004212
0.064837 0.003958 0.004212
0.256479 0.003958 0.004212
0.003777 0.004212 0.004212
0.003958 0.004212 0.004212
0.004212 0.004212 0.004212
0.005108 0.004212 0.004212
0.008397 0.004212 0.004212
0.020474 0.004212 0.004212
0.064837 0.004212 0.004212
0.256479 0.004212 0.004212
0.003777 0.005108 0.004212
0.003958 0.005108 0.004212
0.004212 0.005108 0.004212
0.005108 0.005108 0.004212
0.008397 0.005108 0.004212
0.020474 0.005108 0.004212
0.064837 0.005108 0.004212
0.256479 0.005108 0.004212
0.003777 0.008397 0.004212
0.003958 0.008397 0.004212
0.004212 0.008397 0.004212
0.005108 0.008397 0.004212
0.008397 0.008397 0.004212
0.020474 0.008397 0.004212
0.064837 0.008397 0.004212
0.256479 0.008397 0.004212
0.003777 0.020474 0.004212
0.003958 0.020474 0.004212
0.004212 0.020474 0.004212
0.005108 0.020474 0.004212
0.008397 0.020474 0.004212
0.020474 0.020474 0.004212
0.064837 0.020474 0.004212
0.256479 0.020474 0.004212
0.003777 0.064837 0.004212
0.003958 0.064837 0.004212
0.004212 0.064837 0.004212
0.005108 0.064837 0.004212
0.008397 0.064837 0.004212
0.020474 0.064837 0.004212
0.064837 0.064837 0.004212
0.256479 0.064837 0.004212
0.003777 0.256479 0.004212
0.003958 0.256479 0.004212
0.004212 0.256479 0.004212
0.005108 0.256479 0.004212
0.008397 0.256479 0.004212
0.020474 0.256479 0.004212
0.064837 0.256479 0.004212
0.256479 0.256479 0.004212
0.003777 0.003777 0.005108
0.003958 0.003777 0.005108
0.004212 0.003777 0.005108
0.005108 0.003777 0.005108
0.008397 0.003777 0.005108
0.020474 0.003777 0.005108
0.064837 0.003777 0.005108
0.256479 0.003777 0.005108
0.003777 0.003958 0.005108
0.003958 0.003958 0.005108
0.004212 0.003958 0.005108
0.005108 0.003958 0.005108
0.008397 0.003958 0.005108
0.020474 0.003958 0.005108
0.064837 0.003958 0.005108
0.256479 0.003958 0.005108
0.003777 0.004212 0.005108
0.003958 0.004212 0.005108
0.004212 0.004212 0.005108
0.005108 0.004212 0.005108
0.008397 0.004212 0.005108
0.020474 0.004212 0.005108
0.064837 0.004212 0.005108
0.256479 0.004212 0.005108
0.003777 0.005108 0.005108
0.003958 0.005108 0.005108
0.004212 0.005108 0.005108
0.005108 0.005108 0.005108
0.008397 0.005108 0.005108
0.020474 0.005108 0.005108
0.064837 0.005108 0.005108
0.256479 0.005108 0.005108
0.003777 0.008397 0.005108
0.003958 0.008397 0.005108
0.004212 0.008397 0.005108
0.005108 0.008397 0.005108
0.008397 0.008397 0.005108
0.020474 0.008397 0.005108
0.064837 0.008397 0.005108
0.256479 0.008397 0.005108
0.003777 0.020474 0.005108
0.003958 0.020474 0.005108
0.004212 0.020474 0.005108
0.005108 0.020474 0.005108
0.008397 0.020474 0.005108
0.020474 0.020474 0.005108
0.064837 0.020474 0.005108
0.256479 0.020474 0.005108
0.003777 0.064837 0.005108
0.003958 0.064837 0.005108
0.004212 0.064837 0.005108
0.005108 0.064837 0.005108
0.008397 0.064837 0.005108
0.020474 0.064837 0.005108
0.064837 0.064837 0.005108
0.256479 0.064837 0.005108
0.003777 0.256479 0.005108
0.003958 0.256479 0.005108
0.004212 0.256479 0.005108
0.005108 0.256479 0.005108
0.008397 0.256479 0.005108
0.020474 0.256479 0.005108
0.064837 0.256479 0.005108
0.256479 0.256479 0.005108
0.003777 0.003777 0.008397
0.003958 0.003777 0.008397
0.004212 0.003777 0.008397
0.005108 0.003777 0.008397
0.008397 0.003777 0.008397
0.020474 0.003777 0.008397
0.064837 0.003777 0.008397
0.256479 0.003777 0.008397
0.003777 0.003958 0.008397
0.003958 0.003958 0.008397
0.004212 0.003958 0.008397
0.005108 0.003958 0.008397
0.008397 0.003958 0.008397
0.020474 0.003958 0.008397
0.064837 0.003958 0.008397
0.256479 0.003958 0.008397
0.003777 0.004212 0.008397
0.003958 0.004212 0.008397
0.004212 0.004212 0.008397
0.005108 0.004212 0.008397
0.008397 0.004212 0.008397
0.020474 0.004212 0.008397
0.064837 0.004212 0.008397
0.256479 0.004212 0.008397
0.003777 0.005108 0.008397
0.003958 0.005108 0.008397
0.004212 0.005108 0.008397
0.005108 0.005108 0.008397
0.008397 0.005108 0.008397
0.020474 0.005108 0.008397
0.064837 0.005108 0.008397
0.256479 0.005108 0.008397
0.003777 0.008397 0.008397
0.003958 0.008397 0.008397
0.004212 0.008397 0.008397
0.005108 0.008397 0.008397
0.008397 0.008397 0.008397
0.020474 0.008397 0.008397
0.064837 0.008397 0.008397
0.256479 0.008397 0.008397
0.003777 0.020474 0.008397
0.003958 0.020474 0.008397
0.004212 0.020474 0.008397
0.005108 0.020474 0.008397
0.008397 0.020474 0.008397
0.020474 0.020474 0.008397
0.064837 0.020474 0.008397
0.256479 0.020474 0.008397
0.003777 0.064837 0.008397
0.003958 0.064837 0.008397
0.004212 0.064837 0.008397
0.005108 0.064837 0.008397
0.008397 0.064837 0.008397
0.020474 0.064837 0.008397
0.064837 0.064837 0.008397
0.256479 0.064837 0.008397
0.003777 0.256479 0.008397
0.003958 0.256479 0.008397
0.004212 0.256479 0.008397
0.005108 0.256479 0.008397
0.008397 0.256479 0.008397
0.020474 0.256479 0.008397
0.064837 0.256479 0.008397
0.256479 0.256479 0.008397
0.003777 0.003777 0.020474
0.003958 0.003777 0.020474
0.004212 0.003777 0.020474
0.005108 0.003777 0.020474
0.008397 0.003777 0.020474
0.020474 0.003777 0.020474
0.064837 0.003777 0.020474
0.256479 0.003777 0.020474
0.003777 0.003958 0.020474
0.003958 0.003958 0.020474
0.004212 0.003958 0.020474
0.005108 0.003958 0.020474
0.008397 0.003958 0.020474
0.020474 0.003958 0.020474
0.064837 0.003958 0.020474
0.256479 0.003958 0.020474
0.003777 0.004212 0.020474
0.003958 0.004212 0.020474
0.004212 0.004212 0.020474
0.005108 0.004212 0.020474
0.008397 0.004212 0.020474
0.020474 0.004212 0.020474
0.064837 0.004212 0.020474
0.256479 0.004212 0.020474
0.003777 0.005108 0.020474
0.003958 0.005108 0.020474
0.004212 0.005108 0.020474
0.005108 0.005108 0.020474
0.008397 0.005108 0.020474
0.020474 0.005108 0.020474
0.064837 0.005108 0.020474
0.256479 0.005108 0.020474
0.003777 0.008397 0.020474
0.003958 0.008397 0.020474
0.004212 0.008397 0.020474
0.005108 0.008397 0.020474
0.008397 0.008397 0.020474
0.020474 0.008397 0.020474
0.064837 0.008397 0.020474
0.256479 0.008397 0.020474
0.003777 0.020474 0.020474
0.003958 0.020474 0.020474
0.004212 0.020474 0.020474
0.005108 0.020474 0.020474
0.008397 0.020474 0.020474
0.020474 0.020474 0.020474
0.064837 0.020474 0.020474
0.256479 0.020474 0.020474
0.003777 0.064837 0.020474
0.003958 0.064837 0.020474
0.004212 0.064837 0.020474
0.005108 0.064837 0.020474
0.008397 0.064837 0.020474
0.020474 0.064837 0.020474
0.064837 0.064837 0.020474
0.256479 0.064837 0.020474
0.003777 0.256479 0.020474
0.003958 0.256479 0.020474
0.004212 0.256479 0.020474
0.005108 0.256479 0.020474
0.008397 0.256479 0.020474
0.020474 0.256479 0.020474
0.064837 0.256479 0.020474
0.256479 0.256479 0.020474
0.003777 0.003777 0.064837
0.003958 0.003777 0.064837
0.004212 0.003777 0.064837
0.005108 0.003777 0.064837
0.008397 0.003777 0.064837
0.020474 0.003777 0.064837
0.064837 0.003777 0.064837
0.256479 0.003777 0.064837
0.003777 0.003958 0.064837
0.003958 0.003958 0.064837
0.004212 0.003958 0.064837
0.005108 0.003958 0.064837
0.008397 0.003958 0.064837
0.020474 0.003958 0.064837
0.064837 0.003958 0.064837
0.256479 0.003958 0.064837
0.003777 0.004212 0.064837
0.003958 0.004212 0.064837
0.004212 0.004212 0.064837
0.005108 0.004212 0.064837
0.008397 0.004212 0.064837
0.020474 0.004212 0.064837
0.064837 0.004212 0.064837
0.256479 0.004212 0.064837
0.003777 0.005108 0.064837
0.003958 0.005108 0.064837
0.004212 0.005108 0.064837
0.005108 0.005108 0.064837
0.008397 0.005108 0.064837
0.020474 0.005108 0.064837
0.064837 0.005108 0.064837
0.256479 0.005108 0.064837
0.003777 0.008397 0.064837
0.003958 0.008397 0.064837
0.004212 0.008397 0.064837
0.005108 0.008397 0.064837
0.008397 0.008397 0.064837
0.020474 0.008397 0.064837
0.064837 0.008397 0.064837
0.256479 0.008397 0.064837
0.003777 0.020474 0.064837
0.003958 0.020474 0.064837
0.004212 0.020474 0.064837
0.005108 0.020474 0.064837
0.008397 0.020474 0.064837
0.020474 0.020474 0.064837
0.064837 0.020474 0.064837
0.256479 0.020474 0.064837
0.003777 0.064837 0.064837
0.003958 0.064837 0.064837
0.004212 0.064837 0.064837
0.005108 0.064837 0.064837
0.008397 0.064837 0.064837
0.020474 0.064837 0.064837
0.064837 0.064837 0.064837
0.256479 0.064837 0.064837
0.003777 0.256479 0.064837
0.003958 0.256479 0.064837
0.004212 0.256479 0.064837
0.005108 0.256479 0.064837
0.008397 0.256479 0.064837
0.020474 0.256479 0.064837
0.064837 0.256479 0.064837
0.256479 0.256479 0.064837
0.003777 0.003777 0.256479
0.003958 0.003777 0.256479
0.004212 0.003777 0.256479
0.005108 0.003777 0.256479
0.008397 0.003777 0.256479
0.020474 0.003777 0.256479
0.064837 0.003777 0.256479
0.256479 0.003777 0.256479
0.003777 0.003958 0.256479
0.003958 0.003958 0.256479
0.004212 0.003958 0.256479
0.005108 0.003958 0.256479
0.008397 0.003958 0.256479
0.020474 0.003958 0.256479
0.064837 0.003958 0.256479
0.256479 0.003958 0.256479
0.003777 0.004212 0.256479
0.003958 0.004212 0.256479
0.004212 0.004212 0.256479
0.005108 0.004212 0.256479
0.008397 0.004212 0.256479
0.020474 0.004212 0.256479
0.064837 0.004212 0.256479
0.256479 0.004212 0.256479
0.003777 0.005108 0.256479
0.003958 0.005108 0.256479
0.004212 0.005108 0.256479
0.005108 0.005108 0.256479
0.008397 0.005108 0.256479
0.020474 0.005108 0.256479
0.064837 0.005108 0.256479
0.256479 0.005108 0.256479
0.003777 0.008397 0.256479
0.003958 0.008397 0.256479
0.004212 0.008397 0.256479
0.005108 0.008397 0.256479
0.008397 0.008397 0.256479
0.020474 0.008397 0.256479
0.064837 0.008397 0.256479
0.256479 0.008397 0.256479
0.003777 0.020474 0.256479
0.003958 0.020474 0.256479
0.004212 0.020474 0.256479
0.005108 0.020474 0.256479
0.008397 0.020474 0.256479
0.020474 0.020474 0.256479
0.064837 0.020474 0.256479
0.256479 0.020474 0.256479
0.003777 0.064837 0.256479
0.003958 0.064837 0.256479
0.004212 0.064837 0.256479
0.005108 0.064837 0.256479
0.008397 0.064837 0.256479
0.020474 0.064837 0.256479
0.064837 0.064837 0.256479
0.256479 0.064837 0.256479
0.003777 0.256479 0.256479
0.003958 0.256479 0.256479
0.004212 0.256479 0.256479
0.005108 0.256479 0.256479
0.008397 0.256479 0.256479
0.020474 0.256479 0.256479
0.064837 0.256479 0.256479
0.256479 0.256479 0.256479
