.nuke/nuke.LUT/logC-2-linear_extended/AlexaV3_EI0640_LogC2Linear_EE_nuke3d.cube
# Alexa conversion LUT, logc2lin. Full in/full out.
# created by alexalutconv (2.07)
LUT_3D_SIZE 5
DOMAIN_MIN 0.000000 0.000000 0.000000
DOMAIN_MAX 0.903226 0.903226 0.903226
0.003314 0.003314 0.003314
0.004998 0.003314 0.003314
0.015087 0.003314 0.003314
0.095679 0.003314 0.003314
0.739444 0.003314 0.003314
0.003314 0.004998 0.003314
0.004998 0.004998 0.003314
0.015087 0.004998 0.003314
0.095679 0.004998 0.003314
0.739444 0.004998 0.003314
0.003314 0.015087 0.003314
0.004998 0.015087 0.003314
0.015087 0.015087 0.003314
0.095679 0.015087 0.003314
0.739444 0.015087 0.003314
0.003314 0.095679 0.003314
0.004998 0.095679 0.003314
0.015087 0.095679 0.003314
0.095679 0.095679 0.003314
0.739444 0.095679 0.003314
0.003314 0.739444 0.003314
0.004998 0.739444 0.003314
0.015087 0.739444 0.003314
0.095679 0.739444 0.003314
0.739444 0.739444 0.003314
0.003314 0.003314 0.004998
0.004998 0.003314 0.004998
0.015087 0.003314 0.004998
0.095679 0.003314 0.004998
0.739444 0.003314 0.004998
0.003314 0.004998 0.004998
0.004998 0.004998 0.004998
0.015087 0.004998 0.004998
0.095679 0.004998 0.004998
0.739444 0.004998 0.004998
0.003314 0.015087 0.004998
0.004998 0.015087 0.004998
0.015087 0.015087 0.004998
0.095679 0.015087 0.004998
0.739444 0.015087 0.004998
0.003314 0.095679 0.004998
0.004998 0.095679 0.004998
0.015087 0.095679 0.004998
0.095679 0.095679 0.004998
0.739444 0.095679 0.004998
0.003314 0.739444 0.004998
0.004998 0.739444 0.004998
0.015087 0.739444 0.004998
0.095679 0.739444 0.004998
0.739444 0.739444 0.004998
0.003314 0.003314 0.015087
0.004998 0.003314 0.015087
0.015087 0.003314 0.015087
0.095679 0.003314 0.015087
0.739444 0.003314 0.015087
0.003314 0.004998 0.015087
0.004998 0.004998 0.015087
0.015087 0.004998 0.015087
0.095679 0.004998 0.015087
0.739444 0.004998 0.015087
0.003314 0.015087 0.015087
0.004998 0.015087 0.015087
0.015087 0.015087 0.015087
0.095679 0.015087 0.015087
0.739444 0.015087 0.015087
0.003314 0.095679 0.015087
0.004998 0.095679 0.015087
0.015087 0.095679 0.015087
0.095679 0.095679 0.015087
0.739444 0.095679 0.015087
0.003314 0.739444 0.015087
0.004998 0.739444 0.015087
0.015087 0.739444 0.015087
0.095679 0.739444 0.015087
0.739444 0.739444 0.015087
0.003314 0.003314 0.095679
0.004998 0.003314 0.095679
0.015087 0.003314 0.095679
0.095679 0.003314 0.095679
0.739444 0.003314 0.095679
0.003314 0.004998 0.095679
0.004998 0.004998 0.095679
0.015087 0.004998 0.095679
0.095679 0.004998 0.095679
0.739444 0.004998 0.095679
0.003314 0.015087 0.095679
0.004998 0.015087 0.095679
0.015087 0.015087 0.095679
0.095679 0.015087 0.095679
0.739444 0.015087 0.095679
0.003314 0.095679 0.095679
0.004998 0.095679 0.095679
0.015087 0.095679 0.095679
0.095679 0.095679 0.095679
0.739444 0.095679 0.095679
0.003314 0.739444 0.095679
0.004998 0.739444 0.095679
0.015087 0.739444 0.095679
0.095679 0.739444 0.095679
0.739444 0.739444 0.095679
0.003314 0.003314 0.739444
0.004998 0.003314 0.739444
0.015087 0.003314 0.739444
0.095679 0.003314 0.739444
0.739444 0.003314 0.739444
0.003314 0.004998 0.739444
0.004998 0.004998 0.739444
0.015087 0.004998 0.739444
0.095679 0.004998 0.739444
0.739444 0.004998 0.739444
0.003314 0.015087 0.739444
0.004998 0.015087 0.739444
0.015087 0.015087 0.739444
0.095679 0.015087 0.739444
0.739444 0.015087 0.739444
0.003314 0.095679 0.739444
0.004998 0.095679 0.739444
0.015087 0.095679 0.739444
0.095679 0.095679 0.739444
0.739444 0.095679 0.739444
0.003314 0.739444 0.739444
0.004998 0.739444 0.739444
0.015087 0.739444 0.739444
0.095679 0.739444 0.739444
0.739444 0.739444 0.739444
