.nuke/nuke.LUT/logC-2-linear_extended/AlexaV3_EI0800_LogC2Linear_EE_nuke3d.cube
# Alexa conversion LUT, logc2lin. Full in/full out.
# created by alexalutconv (2.07)
LUT_3D_SIZE 32
0.003427 0.003427 0.003427
0.003594 0.003427 0.003427
0.003761 0.003427 0.003427
0.003928 0.003427 0.003427
0.004095 0.003427 0.003427
0.004265 0.003427 0.003427
0.004482 0.003427 0.003427
0.004775 0.003427 0.003427
0.005171 0.003427 0.003427
0.005705 0.003427 0.003427
0.006427 0.003427 0.003427
0.007402 0.003427 0.003427
0.008719 0.003427 0.003427
0.010497 0.003427 0.003427
0.012898 0.003427 0.003427
0.016142 0.003427 0.003427
0.020522 0.003427 0.003427
0.026438 0.003427 0.003427
0.034426 0.003427 0.003427
0.045216 0.003427 0.003427
0.059786 0.003427 0.003427
0.079464 0.003427 0.003427
0.106040 0.003427 0.003427
0.141930 0.003427 0.003427
0.190400 0.003427 0.003427
0.255860 0.003427 0.003427
0.344265 0.003427 0.003427
0.463658 0.003427 0.003427
0.624898 0.003427 0.003427
0.842656 0.003427 0.003427
1.000000 0.003427 0.003427
1.000000 0.003427 0.003427
0.003427 0.003594 0.003427
0.003594 0.003594 0.003427
0.003761 0.003594 0.003427
0.003928 0.003594 0.003427
0.004095 0.003594 0.003427
0.004265 0.003594 0.003427
0.004482 0.003594 0.003427
0.004775 0.003594 0.003427
0.005171 0.003594 0.003427
0.005705 0.003594 0.003427
0.006427 0.003594 0.003427
0.007402 0.003594 0.003427
0.008719 0.003594 0.003427
0.010497 0.003594 0.003427
0.012898 0.003594 0.003427
0.016142 0.003594 0.003427
0.020522 0.003594 0.003427
0.026438 0.003594 0.003427
0.034426 0.003594 0.003427
0.045216 0.003594 0.003427
0.059786 0.003594 0.003427
0.079464 0.003594 0.003427
0.106040 0.003594 0.003427
0.141930 0.003594 0.003427
0.190400 0.003594 0.003427
0.255860 0.003594 0.003427
0.344265 0.003594 0.003427
0.463658 0.003594 0.003427
0.624898 0.003594 0.003427
0.842656 0.003594 0.003427
1.000000 0.003594 0.003427
1.000000 0.003594 0.003427
0.003427 0.003761 0.003427
0.003594 0.003761 0.003427
0.003761 0.003761 0.003427
0.003928 0.003761 0.003427
0.004095 0.003761 0.003427
0.004265 0.003761 0.003427
0.004482 0.003761 0.003427
0.004775 0.003761 0.003427
0.005171 0.003761 0.003427
0.005705 0.003761 0.003427
0.006427 0.003761 0.003427
0.007402 0.003761 0.003427
0.008719 0.003761 0.003427
0.010497 0.003761 0.003427
0.012898 0.003761 0.003427
0.016142 0.003761 0.003427
0.020522 0.003761 0.003427
0.026438 0.003761 0.003427
0.034426 0.003761 0.003427
0.045216 0.003761 0.003427
0.059786 0.003761 0.003427
0.079464 0.003761 0.003427
0.106040 0.003761 0.003427
0.141930 0.003761 0.003427
0.190400 0.003761 0.003427
0.255860 0.003761 0.003427
0.344265 0.003761 0.003427
0.463658 0.003761 0.003427
0.624898 0.003761 0.003427
0.842656 0.003761 0.003427
1.000000 0.003761 0.003427
1.000000 0.003761 0.003427
0.003427 0.003928 0.003427
0.003594 0.003928 0.003427
0.003761 0.003928 0.003427
0.003928 0.003928 0.003427
0.004095 0.003928 0.003427
0.004265 0.003928 0.003427
0.004482 0.003928 0.003427
0.004775 0.003928 0.003427
0.005171 0.003928 0.003427
0.005705 0.003928 0.003427
0.006427 0.003928 0.003427
0.007402 0.003928 0.003427
0.008719 0.003928 0.003427
0.010497 0.003928 0.003427
0.012898 0.003928 0.003427
0.016142 0.003928 0.003427
0.020522 0.003928 0.003427
0.026438 0.003928 0.003427
0.034426 0.003928 0.003427
0.045216 0.003928 0.003427
0.059786 0.003928 0.003427
0.079464 0.003928 0.003427
0.106040 0.003928 0.003427
0.141930 0.003928 0.003427
0.190400 0.003928 0.003427
0.255860 0.003928 0.003427
0.344265 0.003928 0.003427
0.463658 0.003928 0.003427
0.624898 0.003928 0.003427
0.842656 0.003928 0.003427
1.000000 0.003928 0.003427
1.000000 0.003928 0.003427
0.003427 0.004095 0.003427
0.003594 0.004095 0.003427
0.003761 0.004095 0.003427
0.003928 0.004095 0.003427
0.004095 0.004095 0.003427
0.004265 0.004095 0.003427
0.004482 0.004095 0.003427
0.004775 0.004095 0.003427
0.005171 0.004095 0.003427
0.005705 0.004095 0.003427
0.006427 0.004095 0.003427
0.007402 0.004095 0.003427
0.008719 0.004095 0.003427
0.010497 0.004095 0.003427
0.012898 0.004095 0.003427
0.016142 0.004095 0.003427
0.020522 0.004095 0.003427
0.026438 0.004095 0.003427
0.034426 0.004095 0.003427
0.045216 0.004095 0.003427
0.059786 0.004095 0.003427
0.079464 0.004095 0.003427
0.106040 0.004095 0.003427
0.141930 0.004095 0.003427
0.190400 0.004095 0.003427
0.255860 0.004095 0.003427
0.344265 0.004095 0.003427
0.463658 0.004095 0.003427
0.624898 0.004095 0.003427
0.842656 0.004095 0.003427
1.000000 0.004095 0.003427
1.000000 0.004095 0.003427
0.003427 0.004265 0.003427
0.003594 0.004265 0.003427
0.003761 0.004265 0.003427
0.003928 0.004265 0.003427
0.004095 0.004265 0.003427
0.004265 0.004265 0.003427
0.004482 0.004265 0.003427
0.004775 0.004265 0.003427
0.005171 0.004265 0.003427
0.005705 0.004265 0.003427
0.006427 0.004265 0.003427
0.007402 0.004265 0.003427
0.008719 0.004265 0.003427
0.010497 0.004265 0.003427
0.012898 0.004265 0.003427
0.016142 0.004265 0.003427
0.020522 0.004265 0.003427
0.026438 0.004265 0.003427
0.034426 0.004265 0.003427
0.045216 0.004265 0.003427
0.059786 0.004265 0.003427
0.079464 0.004265 0.003427
0.106040 0.004265 0.003427
0.141930 0.004265 0.003427
0.190400 0.004265 0.003427
0.255860 0.004265 0.003427
0.344265 0.004265 0.003427
0.463658 0.004265 0.003427
0.624898 0.004265 0.003427
0.842656 0.004265 0.003427
1.000000 0.004265 0.003427
1.000000 0.004265 0.003427
0.003427 0.004482 0.003427
0.003594 0.004482 0.003427
0.003761 0.004482 0.003427
0.003928 0.004482 0.003427
0.004095 0.004482 0.003427
0.004265 0.004482 0.003427
0.004482 0.004482 0.003427
0.004775 0.004482 0.003427
0.005171 0.004482 0.003427
0.005705 0.004482 0.003427
0.006427 0.004482 0.003427
0.007402 0.004482 0.003427
0.008719 0.004482 0.003427
0.010497 0.004482 0.003427
0.012898 0.004482 0.003427
0.016142 0.004482 0.003427
0.020522 0.004482 0.003427
0.026438 0.004482 0.003427
0.034426 0.004482 0.003427
0.045216 0.004482 0.003427
0.059786 0.004482 0.003427
0.079464 0.004482 0.003427
0.106040 0.004482 0.003427
0.141930 0.004482 0.003427
0.190400 0.004482 0.003427
0.255860 0.004482 0.003427
0.344265 0.004482 0.003427
0.463658 0.004482 0.003427
0.624898 0.004482 0.003427
0.842656 0.004482 0.003427
1.000000 0.004482 0.003427
1.000000 0.004482 0.003427
0.003427 0.004775 0.003427
0.003594 0.004775 0.003427
0.003761 0.004775 0.003427
0.003928 0.004775 0.003427
0.004095 0.004775 0.003427
0.004265 0.004775 0.003427
0.004482 0.004775 0.003427
0.004775 0.004775 0.003427
0.005171 0.004775 0.003427
0.005705 0.004775 0.003427
0.006427 0.004775 0.003427
0.007402 0.004775 0.003427
0.008719 0.004775 0.003427
0.010497 0.004775 0.003427
0.012898 0.004775 0.003427
0.016142 0.004775 0.003427
0.020522 0.004775 0.003427
0.026438 0.004775 0.003427
0.034426 0.004775 0.003427
0.045216 0.004775 0.003427
0.059786 0.004775 0.003427
0.079464 0.004775 0.003427
0.106040 0.004775 0.003427
0.141930 0.004775 0.003427
0.190400 0.004775 0.003427
0.255860 0.004775 0.003427
0.344265 0.004775 0.003427
0.463658 0.004775 0.003427
0.624898 0.004775 0.003427
0.842656 0.004775 0.003427
1.000000 0.004775 0.003427
1.000000 0.004775 0.003427
0.003427 0.005171 0.003427
0.003594 0.005171 0.003427
0.003761 0.005171 0.003427
0.003928 0.005171 0.003427
0.004095 0.005171 0.003427
0.004265 0.005171 0.003427
0.004482 0.005171 0.003427
0.004775 0.005171 0.003427
0.005171 0.005171 0.003427
0.005705 0.005171 0.003427
0.006427 0.005171 0.003427
0.007402 0.005171 0.003427
0.008719 0.005171 0.003427
0.010497 0.005171 0.003427
0.012898 0.005171 0.003427
0.016142 0.005171 0.003427
0.020522 0.005171 0.003427
0.026438 0.005171 0.003427
0.034426 0.005171 0.003427
0.045216 0.005171 0.003427
0.059786 0.005171 0.003427
0.079464 0.005171 0.003427
0.106040 0.005171 0.003427
0.141930 0.005171 0.003427
0.190400 0.005171 0.003427
0.255860 0.005171 0.003427
0.344265 0.005171 0.003427
0.463658 0.005171 0.003427
0.624898 0.005171 0.003427
0.842656 0.005171 0.003427
1.000000 0.005171 0.003427
1.000000 0.005171 0.003427
0.003427 0.005705 0.003427
0.003594 0.005705 0.003427
0.003761 0.005705 0.003427
0.003928 0.005705 0.003427
0.004095 0.005705 0.003427
0.004265 0.005705 0.003427
0.004482 0.005705 0.003427
0.004775 0.005705 0.003427
0.005171 0.005705 0.003427
0.005705 0.005705 0.003427
0.006427 0.005705 0.003427
0.007402 0.005705 0.003427
0.008719 0.005705 0.003427
0.010497 0.005705 0.003427
0.012898 0.005705 0.003427
0.016142 0.005705 0.003427
0.020522 0.005705 0.003427
0.026438 0.005705 0.003427
0.034426 0.005705 0.003427
0.045216 0.005705 0.003427
0.059786 0.005705 0.003427
0.079464 0.005705 0.003427
0.106040 0.005705 0.003427
0.141930 0.005705 0.003427
0.190400 0.005705 0.003427
0.255860 0.005705 0.003427
0.344265 0.005705 0.003427
0.463658 0.005705 0.003427
0.624898 0.005705 0.003427
0.842656 0.005705 0.003427
1.000000 0.005705 0.003427
1.000000 0.005705 0.003427
0.003427 0.006427 0.003427
0.003594 0.006427 0.003427
0.003761 0.006427 0.003427
0.003928 0.006427 0.003427
0.004095 0.006427 0.003427
0.004265 0.006427 0.003427
0.004482 0.006427 0.003427
0.004775 0.006427 0.003427
0.005171 0.006427 0.003427
0.005705 0.006427 0.003427
0.006427 0.006427 0.003427
0.007402 0.006427 0.003427
0.008719 0.006427 0.003427
0.010497 0.006427 0.003427
0.012898 0.006427 0.003427
0.016142 0.006427 0.003427
0.020522 0.006427 0.003427
0.026438 0.006427 0.003427
0.034426 0.006427 0.003427
0.045216 0.006427 0.003427
0.059786 0.006427 0.003427
0.079464 0.006427 0.003427
0.106040 0.006427 0.003427
0.141930 0.006427 0.003427
0.190400 0.006427 0.003427
0.255860 0.006427 0.003427
0.344265 0.006427 0.003427
0.463658 0.006427 0.003427
0.624898 0.006427 0.003427
0.842656 0.006427 0.003427
1.000000 0.006427 0.003427
1.000000 0.006427 0.003427
0.003427 0.007402 0.003427
0.003594 0.007402 0.003427
0.003761 0.007402 0.003427
0.003928 0.007402 0.003427
0.004095 0.007402 0.003427
0.004265 0.007402 0.003427
0.004482 0.007402 0.003427
0.004775 0.007402 0.003427
0.005171 0.007402 0.003427
0.005705 0.007402 0.003427
0.006427 0.007402 0.003427
0.007402 0.007402 0.003427
0.008719 0.007402 0.003427
0.010497 0.007402 0.003427
0.012898 0.007402 0.003427
0.016142 0.007402 0.003427
0.020522 0.007402 0.003427
0.026438 0.007402 0.003427
0.034426 0.007402 0.003427
0.045216 0.007402 0.003427
0.059786 0.007402 0.003427
0.079464 0.007402 0.003427
0.106040 0.007402 0.003427
0.141930 0.007402 0.003427
0.190400 0.007402 0.003427
0.255860 0.007402 0.003427
0.344265 0.007402 0.003427
0.463658 0.007402 0.003427
0.624898 0.007402 0.003427
0.842656 0.007402 0.003427
1.000000 0.007402 0.003427
1.000000 0.007402 0.003427
0.003427 0.008719 0.003427
0.003594 0.008719 0.003427
0.003761 0.008719 0.003427
0.003928 0.008719 0.003427
0.004095 0.008719 0.003427
0.004265 0.008719 0.003427
0.004482 0.008719 0.003427
0.004775 0.008719 0.003427
0.005171 0.008719 0.003427
0.005705 0.008719 0.003427
0.006427 0.008719 0.003427
0.007402 0.008719 0.003427
0.008719 0.008719 0.003427
0.010497 0.008719 0.003427
0.012898 0.008719 0.003427
0.016142 0.008719 0.003427
0.020522 0.008719 0.003427
0.026438 0.008719 0.003427
0.034426 0.008719 0.003427
0.045216 0.008719 0.003427
0.059786 0.008719 0.003427
0.079464 0.008719 0.003427
0.106040 0.008719 0.003427
0.141930 0.008719 0.003427
0.190400 0.008719 0.003427
0.255860 0.008719 0.003427
0.344265 0.008719 0.003427
0.463658 0.008719 0.003427
0.624898 0.008719 0.003427
0.842656 0.008719 0.003427
1.000000 0.008719 0.003427
1.000000 0.008719 0.003427
0.003427 0.010497 0.003427
0.003594 0.010497 0.003427
0.003761 0.010497 0.003427
0.003928 0.010497 0.003427
0.004095 0.010497 0.003427
0.004265 0.010497 0.003427
0.004482 0.010497 0.003427
0.004775 0.010497 0.003427
0.005171 0.010497 0.003427
0.005705 0.010497 0.003427
0.006427 0.010497 0.003427
0.007402 0.010497 0.003427
0.008719 0.010497 0.003427
0.010497 0.010497 0.003427
0.012898 0.010497 0.003427
0.016142 0.010497 0.003427
0.020522 0.010497 0.003427
0.026438 0.010497 0.003427
0.034426 0.010497 0.003427
0.045216 0.010497 0.003427
0.059786 0.010497 0.003427
0.079464 0.010497 0.003427
0.106040 0.010497 0.003427
0.141930 0.010497 0.003427
0.190400 0.010497 0.003427
0.255860 0.010497 0.003427
0.344265 0.010497 0.003427
0.463658 0.010497 0.003427
0.624898 0.010497 0.003427
0.842656 0.010497 0.003427
1.000000 0.010497 0.003427
1.000000 0.010497 0.003427
0.003427 0.012898 0.003427
0.003594 0.012898 0.003427
0.003761 0.012898 0.003427
0.003928 0.012898 0.003427
0.004095 0.012898 0.003427
0.004265 0.012898 0.003427
0.004482 0.012898 0.003427
0.004775 0.012898 0.003427
0.005171 0.012898 0.003427
0.005705 0.012898 0.003427
0.006427 0.012898 0.003427
0.007402 0.012898 0.003427
0.008719 0.012898 0.003427
0.010497 0.012898 0.003427
0.012898 0.012898 0.003427
0.016142 0.012898 0.003427
0.020522 0.012898 0.003427
0.026438 0.012898 0.003427
0.034426 0.012898 0.003427
0.045216 0.012898 0.003427
0.059786 0.012898 0.003427
0.079464 0.012898 0.003427
0.106040 0.012898 0.003427
0.141930 0.012898 0.003427
0.190400 0.012898 0.003427
0.255860 0.012898 0.003427
0.344265 0.012898 0.003427
0.463658 0.012898 0.003427
0.624898 0.012898 0.003427
0.842656 0.012898 0.003427
1.000000 0.012898 0.003427
1.000000 0.012898 0.003427
0.003427 0.016142 0.003427
0.003594 0.016142 0.003427
0.003761 0.016142 0.003427
0.003928 0.016142 0.003427
0.004095 0.016142 0.003427
0.004265 0.016142 0.003427
0.004482 0.016142 0.003427
0.004775 0.016142 0.003427
0.005171 0.016142 0.003427
0.005705 0.016142 0.003427
0.006427 0.016142 0.003427
0.007402 0.016142 0.003427
0.008719 0.016142 0.003427
0.010497 0.016142 0.003427
0.012898 0.016142 0.003427
0.016142 0.016142 0.003427
0.020522 0.016142 0.003427
0.026438 0.016142 0.003427
0.034426 0.016142 0.003427
0.045216 0.016142 0.003427
0.059786 0.016142 0.003427
0.079464 0.016142 0.003427
0.106040 0.016142 0.003427
0.141930 0.016142 0.003427
0.190400 0.016142 0.003427
0.255860 0.016142 0.003427
0.344265 0.016142 0.003427
0.463658 0.016142 0.003427
0.624898 0.016142 0.003427
0.842656 0.016142 0.003427
1.000000 0.016142 0.003427
1.000000 0.016142 0.003427
0.003427 0.020522 0.003427
0.003594 0.020522 0.003427
0.003761 0.020522 0.003427
0.003928 0.020522 0.003427
0.004095 0.020522 0.003427
0.004265 0.020522 0.003427
0.004482 0.020522 0.003427
0.004775 0.020522 0.003427
0.005171 0.020522 0.003427
0.005705 0.020522 0.003427
0.006427 0.020522 0.003427
0.007402 0.020522 0.003427
0.008719 0.020522 0.003427
0.010497 0.020522 0.003427
0.012898 0.020522 0.003427
0.016142 0.020522 0.003427
0.020522 0.020522 0.003427
0.026438 0.020522 0.003427
0.034426 0.020522 0.003427
0.045216 0.020522 0.003427
0.059786 0.020522 0.003427
0.079464 0.020522 0.003427
0.106040 0.020522 0.003427
0.141930 0.020522 0.003427
0.190400 0.020522 0.003427
0.255860 0.020522 0.003427
0.344265 0.020522 0.003427
0.463658 0.020522 0.003427
0.624898 0.020522 0.003427
0.842656 0.020522 0.003427
1.000000 0.020522 0.003427
1.000000 0.020522 0.003427
0.003427 0.026438 0.003427
0.003594 0.026438 0.003427
0.003761 0.026438 0.003427
0.003928 0.026438 0.003427
0.004095 0.026438 0.003427
0.004265 0.026438 0.003427
0.004482 0.026438 0.003427
0.004775 0.026438 0.003427
0.005171 0.026438 0.003427
0.005705 0.026438 0.003427
0.006427 0.026438 0.003427
0.007402 0.026438 0.003427
0.008719 0.026438 0.003427
0.010497 0.026438 0.003427
0.012898 0.026438 0.003427
0.016142 0.026438 0.003427
0.020522 0.026438 0.003427
0.026438 0.026438 0.003427
0.034426 0.026438 0.003427
0.045216 0.026438 0.003427
0.059786 0.026438 0.003427
0.079464 0.026438 0.003427
0.106040 0.026438 0.003427
0.141930 0.026438 0.003427
0.190400 0.026438 0.003427
0.255860 0.026438 0.003427
0.344265 0.026438 0.003427
0.463658 0.026438 0.003427
0.624898 0.026438 0.003427
0.842656 0.026438 0.003427
1.000000 0.026438 0.003427
1.000000 0.026438 0.003427
0.003427 0.034426 0.003427
0.003594 0.034426 0.003427
0.003761 0.034426 0.003427
0.003928 0.034426 0.003427
0.004095 0.034426 0.003427
0.004265 0.034426 0.003427
0.004482 0.034426 0.003427
0.004775 0.034426 0.003427
0.005171 0.034426 0.003427
0.005705 0.034426 0.003427
0.006427 0.034426 0.003427
0.007402 0.034426 0.003427
0.008719 0.034426 0.003427
0.010497 0.034426 0.003427
0.012898 0.034426 0.003427
0.016142 0.034426 0.003427
0.020522 0.034426 0.003427
0.026438 0.034426 0.003427
0.034426 0.034426 0.003427
0.045216 0.034426 0.003427
0.059786 0.034426 0.003427
0.079464 0.034426 0.003427
0.106040 0.034426 0.003427
0.141930 0.034426 0.003427
0.190400 0.034426 0.003427
0.255860 0.034426 0.003427
0.344265 0.034426 0.003427
0.463658 0.034426 0.003427
0.624898 0.034426 0.003427
0.842656 0.034426 0.003427
1.000000 0.034426 0.003427
1.000000 0.034426 0.003427
0.003427 0.045216 0.003427
0.003594 0.045216 0.003427
0.003761 0.045216 0.003427
0.003928 0.045216 0.003427
0.004095 0.045216 0.003427
0.004265 0.045216 0.003427
0.004482 0.045216 0.003427
0.004775 0.045216 0.003427
0.005171 0.045216 0.003427
0.005705 0.045216 0.003427
0.006427 0.045216 0.003427
0.007402 0.045216 0.003427
0.008719 0.045216 0.003427
0.010497 0.045216 0.003427
0.012898 0.045216 0.003427
0.016142 0.045216 0.003427
0.020522 0.045216 0.003427
0.026438 0.045216 0.003427
0.034426 0.045216 0.003427
0.045216 0.045216 0.003427
0.059786 0.045216 0.003427
0.079464 0.045216 0.003427
0.106040 0.045216 0.003427
0.141930 0.045216 0.003427
0.190400 0.045216 0.003427
0.255860 0.045216 0.003427
0.344265 0.045216 0.003427
0.463658 0.045216 0.003427
0.624898 0.045216 0.003427
0.842656 0.045216 0.003427
1.000000 0.045216 0.003427
1.000000 0.045216 0.003427
0.003427 0.059786 0.003427
0.003594 0.059786 0.003427
0.003761 0.059786 0.003427
0.003928 0.059786 0.003427
0.004095 0.059786 0.003427
0.004265 0.059786 0.003427
0.004482 0.059786 0.003427
0.004775 0.059786 0.003427
0.005171 0.059786 0.003427
0.005705 0.059786 0.003427
0.006427 0.059786 0.003427
0.007402 0.059786 0.003427
0.008719 0.059786 0.003427
0.010497 0.059786 0.003427
0.012898 0.059786 0.003427
0.016142 0.059786 0.003427
0.020522 0.059786 0.003427
0.026438 0.059786 0.003427
0.034426 0.059786 0.003427
0.045216 0.059786 0.003427
0.059786 0.059786 0.003427
0.079464 0.059786 0.003427
0.106040 0.059786 0.003427
0.141930 0.059786 0.003427
0.190400 0.059786 0.003427
0.255860 0.059786 0.003427
0.344265 0.059786 0.003427
0.463658 0.059786 0.003427
0.624898 0.059786 0.003427
0.842656 0.059786 0.003427
1.000000 0.059786 0.003427
1.000000 0.059786 0.003427
0.003427 0.079464 0.003427
0.003594 0.079464 0.003427
0.003761 0.079464 0.003427
0.003928 0.079464 0.003427
0.004095 0.079464 0.003427
0.004265 0.079464 0.003427
0.004482 0.079464 0.003427
0.004775 0.079464 0.003427
0.005171 0.079464 0.003427
0.005705 0.079464 0.003427
0.006427 0.079464 0.003427
0.007402 0.079464 0.003427
0.008719 0.079464 0.003427
0.010497 0.079464 0.003427
0.012898 0.079464 0.003427
0.016142 0.079464 0.003427
0.020522 0.079464 0.003427
0.026438 0.079464 0.003427
0.034426 0.079464 0.003427
0.045216 0.079464 0.003427
0.059786 0.079464 0.003427
0.079464 0.079464 0.003427
0.106040 0.079464 0.003427
0.141930 0.079464 0.003427
0.190400 0.079464 0.003427
0.255860 0.079464 0.003427
0.344265 0.079464 0.003427
0.463658 0.079464 0.003427
0.624898 0.079464 0.003427
0.842656 0.079464 0.003427
1.000000 0.079464 0.003427
1.000000 0.079464 0.003427
0.003427 0.106040 0.003427
0.003594 0.106040 0.003427
0.003761 0.106040 0.003427
0.003928 0.106040 0.003427
0.004095 0.106040 0.003427
0.004265 0.106040 0.003427
0.004482 0.106040 0.003427
0.004775 0.106040 0.003427
0.005171 0.106040 0.003427
0.005705 0.106040 0.003427
0.006427 0.106040 0.003427
0.007402 0.106040 0.003427
0.008719 0.106040 0.003427
0.010497 0.106040 0.003427
0.012898 0.106040 0.003427
0.016142 0.106040 0.003427
0.020522 0.106040 0.003427
0.026438 0.106040 0.003427
0.034426 0.106040 0.003427
0.045216 0.106040 0.003427
0.059786 0.106040 0.003427
0.079464 0.106040 0.003427
0.106040 0.106040 0.003427
0.141930 0.106040 0.003427
0.190400 0.106040 0.003427
0.255860 0.106040 0.003427
0.344265 0.106040 0.003427
0.463658 0.106040 0.003427
0.624898 0.106040 0.003427
0.842656 0.106040 0.003427
1.000000 0.106040 0.003427
1.000000 0.106040 0.003427
0.003427 0.141930 0.003427
0.003594 0.141930 0.003427
0.003761 0.141930 0.003427
0.003928 0.141930 0.003427
0.004095 0.141930 0.003427
0.004265 0.141930 0.003427
0.004482 0.141930 0.003427
0.004775 0.141930 0.003427
0.005171 0.141930 0.003427
0.005705 0.141930 0.003427
0.006427 0.141930 0.003427
0.007402 0.141930 0.003427
0.008719 0.141930 0.003427
0.010497 0.141930 0.003427
0.012898 0.141930 0.003427
0.016142 0.141930 0.003427
0.020522 0.141930 0.003427
0.026438 0.141930 0.003427
0.034426 0.141930 0.003427
0.045216 0.141930 0.003427
0.059786 0.141930 0.003427
0.079464 0.141930 0.003427
0.106040 0.141930 0.003427
0.141930 0.141930 0.003427
0.190400 0.141930 0.003427
0.255860 0.141930 0.003427
0.344265 0.141930 0.003427
0.463658 0.141930 0.003427
0.624898 0.141930 0.003427
0.842656 0.141930 0.003427
1.000000 0.141930 0.003427
1.000000 0.141930 0.003427
0.003427 0.190400 0.003427
0.003594 0.190400 0.003427
0.003761 0.190400 0.003427
0.003928 0.190400 0.003427
0.004095 0.190400 0.003427
0.004265 0.190400 0.003427
0.004482 0.190400 0.003427
0.004775 0.190400 0.003427
0.005171 0.190400 0.003427
0.005705 0.190400 0.003427
0.006427 0.190400 0.003427
0.007402 0.190400 0.003427
0.008719 0.190400 0.003427
0.010497 0.190400 0.003427
0.012898 0.190400 0.003427
0.016142 0.190400 0.003427
0.020522 0.190400 0.003427
0.026438 0.190400 0.003427
0.034426 0.190400 0.003427
0.045216 0.190400 0.003427
0.059786 0.190400 0.003427
0.079464 0.190400 0.003427
0.106040 0.190400 0.003427
0.141930 0.190400 0.003427
0.190400 0.190400 0.003427
0.255860 0.190400 0.003427
0.344265 0.190400 0.003427
0.463658 0.190400 0.003427
0.624898 0.190400 0.003427
0.842656 0.190400 0.003427
1.000000 0.190400 0.003427
1.000000 0.190400 0.003427
0.003427 0.255860 0.003427
0.003594 0.255860 0.003427
0.003761 0.255860 0.003427
0.003928 0.255860 0.003427
0.004095 0.255860 0.003427
0.004265 0.255860 0.003427
0.004482 0.255860 0.003427
0.004775 0.255860 0.003427
0.005171 0.255860 0.003427
0.005705 0.255860 0.003427
0.006427 0.255860 0.003427
0.007402 0.255860 0.003427
0.008719 0.255860 0.003427
0.010497 0.255860 0.003427
0.012898 0.255860 0.003427
0.016142 0.255860 0.003427
0.020522 0.255860 0.003427
0.026438 0.255860 0.003427
0.034426 0.255860 0.003427
0.045216 0.255860 0.003427
0.059786 0.255860 0.003427
0.079464 0.255860 0.003427
0.106040 0.255860 0.003427
0.141930 0.255860 0.003427
0.190400 0.255860 0.003427
0.255860 0.255860 0.003427
0.344265 0.255860 0.003427
0.463658 0.255860 0.003427
0.624898 0.255860 0.003427
0.842656 0.255860 0.003427
1.000000 0.255860 0.003427
1.000000 0.255860 0.003427
0.003427 0.344265 0.003427
0.003594 0.344265 0.003427
0.003761 0.344265 0.003427
0.003928 0.344265 0.003427
0.004095 0.344265 0.003427
0.004265 0.344265 0.003427
0.004482 0.344265 0.003427
0.004775 0.344265 0.003427
0.005171 0.344265 0.003427
0.005705 0.344265 0.003427
0.006427 0.344265 0.003427
0.007402 0.344265 0.003427
0.008719 0.344265 0.003427
0.010497 0.344265 0.003427
0.012898 0.344265 0.003427
0.016142 0.344265 0.003427
0.020522 0.344265 0.003427
0.026438 0.344265 0.003427
0.034426 0.344265 0.003427
0.045216 0.344265 0.003427
0.059786 0.344265 0.003427
0.079464 0.344265 0.003427
0.106040 0.344265 0.003427
0.141930 0.344265 0.003427
0.190400 0.344265 0.003427
0.255860 0.344265 0.003427
0.344265 0.344265 0.003427
0.463658 0.344265 0.003427
0.624898 0.344265 0.003427
0.842656 0.344265 0.003427
1.000000 0.344265 0.003427
1.000000 0.344265 0.003427
0.003427 0.463658 0.003427
0.003594 0.463658 0.003427
0.003761 0.463658 0.003427
0.003928 0.463658 0.003427
0.004095 0.463658 0.003427
0.004265 0.463658 0.003427
0.004482 0.463658 0.003427
0.004775 0.463658 0.003427
0.005171 0.463658 0.003427
0.005705 0.463658 0.003427
0.006427 0.463658 0.003427
0.007402 0.463658 0.003427
0.008719 0.463658 0.003427
0.010497 0.463658 0.003427
0.012898 0.463658 0.003427
0.016142 0.463658 0.003427
0.020522 0.463658 0.003427
0.026438 0.463658 0.003427
0.034426 0.463658 0.003427
0.045216 0.463658 0.003427
0.059786 0.463658 0.003427
