.nuke/nuke.LUT/logC-2-linear_extended/AlexaV3_EI2000_LogC2Linear_EE_nuke3d.cube
# Alexa conversion LUT, logc2lin. Full in/full out.
# created by alexalutconv (2.07)
LUT_3D_SIZE 5
DOMAIN_MIN 0.000000 0.000000 0.000000
DOMAIN_MAX 0.903226 0.903226 0.903226
0.003705 0.003705 0.003705
0.004248 0.003705 0.003705
0.007586 0.003705 0.003705
0.038164 0.003705 0.003705
0.334906 0.003705 0.003705
0.003705 0.004248 0.003705
0.004248 0.004248 0.003705
0.007586 0.004248 0.003705
0.038164 0.004248 0.003705
0.334906 0.004248 0.003705
0.003705 0.007586 0.003705
0.004248 0.007586 0.003705
0.007586 0.007586 0.003705
0.038164 0.007586 0.003705
0.334906 0.007586 0.003705
0.003705 0.038164 0.003705
0.004248 0.038164 0.003705
0.007586 0.038164 0.003705
0.038164 0.038164 0.003705
0.334906 0.038164 0.003705
0.003705 0.334906 0.003705
0.004248 0.334906 0.003705
0.007586 0.334906 0.003705
0.038164 0.334906 0.003705
0.334906 0.334906 0.003705
0.003705 0.003705 0.004248
0.004248 0.003705 0.004248
0.007586 0.003705 0.004248
0.038164 0.003705 0.004248
0.334906 0.003705 0.004248
0.003705 0.004248 0.004248
0.004248 0.004248 0.004248
0.007586 0.004248 0.004248
0.038164 0.004248 0.004248
0.334906 0.004248 0.004248
0.003705 0.007586 0.004248
0.004248 0.007586 0.004248
0.007586 0.007586 0.004248
0.038164 0.007586 0.004248
0.334906 0.007586 0.004248
0.003705 0.038164 0.004248
0.004248 0.038164 0.004248
0.007586 0.038164 0.004248
0.038164 0.038164 0.004248
0.334906 0.038164 0.004248
0.003705 0.334906 0.004248
0.004248 0.334906 0.004248
0.007586 0.334906 0.004248
0.038164 0.334906 0.004248
0.334906 0.334906 0.004248
0.003705 0.003705 0.007586
0.004248 0.003705 0.007586
0.007586 0.003705 0.007586
0.038164 0.003705 0.007586
0.334906 0.003705 0.007586
0.003705 0.004248 0.007586
0.004248 0.004248 0.007586
0.007586 0.004248 0.007586
0.038164 0.004248 0.007586
0.334906 0.004248 0.007586
0.003705 0.007586 0.007586
0.004248 0.007586 0.007586
0.007586 0.007586 0.007586
0.038164 0.007586 0.007586
0.334906 0.007586 0.007586
0.003705 0.038164 0.007586
0.004248 0.038164 0.007586
0.007586 0.038164 0.007586
0.038164 0.038164 0.007586
0.334906 0.038164 0.007586
0.003705 0.334906 0.007586
0.004248 0.334906 0.007586
0.007586 0.334906 0.007586
0.038164 0.334906 0.007586
0.334906 0.334906 0.007586
0.003705 0.003705 0.038164
0.004248 0.003705 0.038164
0.007586 0.003705 0.038164
0.038164 0.003705 0.038164
0.334906 0.003705 0.038164
0.003705 0.004248 0.038164
0.004248 0.004248 0.038164
0.007586 0.004248 0.038164
0.038164 0.004248 0.038164
0.334906 0.004248 0.038164
0.003705 0.007586 0.038164
0.004248 0.007586 0.038164
0.007586 0.007586 0.038164
0.038164 0.007586 0.038164
0.334906 0.007586 0.038164
0.003705 0.038164 0.038164
0.004248 0.038164 0.038164
0.007586 0.038164 0.038164
0.038164 0.038164 0.038164
0.334906 0.038164 0.038164
0.003705 0.334906 0.038164
0.004248 0.334906 0.038164
0.007586 0.334906 0.038164
0.038164 0.334906 0.038164
0.334906 0.334906 0.038164
0.003705 0.003705 0.334906
0.004248 0.003705 0.334906
0.007586 0.003705 0.334906
0.038164 0.003705 0.334906
0.334906 0.003705 0.334906
0.003705 0.004248 0.334906
0.004248 0.004248 0.334906
0.007586 0.004248 0.334906
0.038164 0.004248 0.334906
0.334906 0.004248 0.334906
0.003705 0.007586 0.334906
0.004248 0.007586 0.334906
0.007586 0.007586 0.334906
0.038164 0.007586 0.334906
0.334906 0.007586 0.334906
0.003705 0.038164 0.334906
0.004248 0.038164 0.334906
0.007586 0.038164 0.334906
0.038164 0.038164 0.334906
0.334906 0.038164 0.334906
0.003705 0.334906 0.334906
0.004248 0.334906 0.334906
0.007586 0.334906 0.334906
0.038164 0.334906 0.334906
0.334906 0.334906 0.334906
