.nuke/nuke.LUT/logC-2-linear_extended/AlexaV3_EI3200_LogC2Linear_EE_nuke3d.cube
# Alexa conversion LUT, logc2lin. Full in/full out.
# created by alexalutconv (2.07)
LUT_3D_SIZE 5
DOMAIN_MIN 0.000000 0.000000 0.000000
DOMAIN_MAX 0.903226 0.903226 0.903226
0.003777 0.003777 0.003777
0.004119 0.003777 0.003777
0.006235 0.003777 0.003777
0.026854 0.003777 0.003777
0.256479 0.003777 0.003777
0.003777 0.004119 0.003777
0.004119 0.004119 0.003777
0.006235 0.004119 0.003777
0.026854 0.004119 0.003777
0.256479 0.004119 0.003777
0.003777 0.006235 0.003777
0.004119 0.006235 0.003777
0.006235 0.006235 0.003777
0.026854 0.006235 0.003777
0.256479 0.006235 0.003777
0.003777 0.026854 0.003777
0.004119 0.026854 0.003777
0.006235 0.026854 0.003777
0.026854 0.026854 0.003777
0.256479 0.026854 0.003777
0.003777 0.256479 0.003777
0.004119 0.256479 0.003777
0.006235 0.256479 0.003777
0.026854 0.256479 0.003777
0.256479 0.256479 0.003777
0.003777 0.003777 0.004119
0.004119 0.003777 0.004119
0.006235 0.003777 0.004119
0.026854 0.003777 0.004119
0.256479 0.003777 0.004119
0.003777 0.004119 0.004119
0.004119 0.004119 0.004119
0.006235 0.004119 0.004119
0.026854 0.004119 0.004119
0.256479 0.004119 0.004119
0.003777 0.006235 0.004119
0.004119 0.006235 0.004119
0.006235 0.006235 0.004119
0.026854 0.006235 0.004119
0.256479 0.006235 0.004119
0.003777 0.026854 0.004119
0.004119 0.026854 0.004119
0.006235 0.026854 0.004119
0.026854 0.026854 0.004119
0.256479 0.026854 0.004119
0.003777 0.256479 0.004119
0.004119 0.256479 0.004119
0.006235 0.256479 0.004119
0.026854 0.256479 0.004119
0.256479 0.256479 0.004119
0.003777 0.003777 0.006235
0.004119 0.003777 0.006235
0.006235 0.003777 0.006235
0.026854 0.003777 0.006235
0.256479 0.003777 0.006235
0.003777 0.004119 0.006235
0.004119 0.004119 0.006235
0.006235 0.004119 0.006235
0.026854 0.004119 0.006235
0.256479 0.004119 0.006235
0.003777 0.006235 0.006235
0.004119 0.006235 0.006235
0.006235 0.006235 0.006235
0.026854 0.006235 0.006235
0.256479 0.006235 0.006235
0.003777 0.026854 0.006235
0.004119 0.026854 0.006235
0.006235 0.026854 0.006235
0.026854 0.026854 0.006235
0.256479 0.026854 0.006235
0.003777 0.256479 0.006235
0.004119 0.256479 0.006235
0.006235 0.256479 0.006235
0.026854 0.256479 0.006235
0.256479 0.256479 0.006235
0.003777 0.003777 0.026854
0.004119 0.003777 0.026854
0.006235 0.003777 0.026854
0.026854 0.003777 0.026854
0.256479 0.003777 0.026854
0.003777 0.004119 0.026854
0.004119 0.004119 0.026854
0.006235 0.004119 0.026854
0.026854 0.004119 0.026854
0.256479 0.004119 0.026854
0.003777 0.006235 0.026854
0.004119 0.006235 0.026854
0.006235 0.006235 0.026854
0.026854 0.006235 0.026854
0.256479 0.006235 0.026854
0.003777 0.026854 0.026854
0.004119 0.026854 0.026854
0.006235 0.026854 0.026854
0.026854 0.026854 0.026854
0.256479 0.026854 0.026854
0.003777 0.256479 0.026854
0.004119 0.256479 0.026854
0.006235 0.256479 0.026854
0.026854 0.256479 0.026854
0.256479 0.256479 0.026854
0.003777 0.003777 0.256479
0.004119 0.003777 0.256479
0.006235 0.003777 0.256479
0.026854 0.003777 0.256479
0.256479 0.003777 0.256479
0.003777 0.004119 0.256479
0.004119 0.004119 0.256479
0.006235 0.004119 0.256479
0.026854 0.004119 0.256479
0.256479 0.004119 0.256479
0.003777 0.006235 0.256479
0.004119 0.006235 0.256479
0.006235 0.006235 0.256479
0.026854 0.006235 0.256479
0.256479 0.006235 0.256479
0.003777 0.026854 0.256479
0.004119 0.026854 0.256479
0.006235 0.026854 0.256479
0.026854 0.026854 0.256479
0.256479 0.026854 0.256479
0.003777 0.256479 0.256479
0.004119 0.256479 0.256479
0.006235 0.256479 0.256479
0.026854 0.256479 0.256479
0.256479 0.256479 0.256479
