.nuke/nuke.LUT/logC-2-linear_extended/AlexaV3_EI0400_LogC2Linear_EE_nuke3d.cube
# Alexa conversion LUT, logc2lin. Full in/full out.
# created by alexalutconv (2.07)
LUT_3D_SIZE 32
0.002982 0.002982 0.002982
0.003304 0.002982 0.002982
0.003625 0.002982 0.002982
0.003947 0.002982 0.002982
0.004268 0.002982 0.002982
0.004614 0.002982 0.002982
0.005069 0.002982 0.002982
0.005676 0.002982 0.002982
0.006488 0.002982 0.002982
0.007573 0.002982 0.002982
0.009021 0.002982 0.002982
0.010956 0.002982 0.002982
0.013540 0.002982 0.002982
0.016992 0.002982 0.002982
0.021602 0.002982 0.002982
0.027761 0.002982 0.002982
0.035987 0.002982 0.002982
0.046974 0.002982 0.002982
0.061651 0.002982 0.002982
0.081254 0.002982 0.002982
0.107438 0.002982 0.002982
0.142414 0.002982 0.002982
0.189130 0.002982 0.002982
0.251530 0.002982 0.002982
0.334880 0.002982 0.002982
0.446210 0.002982 0.002982
0.594917 0.002982 0.002982
0.793546 0.002982 0.002982
1.000000 0.002982 0.002982
1.000000 0.002982 0.002982
1.000000 0.002982 0.002982
1.000000 0.002982 0.002982
0.002982 0.003304 0.002982
0.003304 0.003304 0.002982
0.003625 0.003304 0.002982
0.003947 0.003304 0.002982
0.004268 0.003304 0.002982
0.004614 0.003304 0.002982
0.005069 0.003304 0.002982
0.005676 0.003304 0.002982
0.006488 0.003304 0.002982
0.007573 0.003304 0.002982
0.009021 0.003304 0.002982
0.010956 0.003304 0.002982
0.013540 0.003304 0.002982
0.016992 0.003304 0.002982
0.021602 0.003304 0.002982
0.027761 0.003304 0.002982
0.035987 0.003304 0.002982
0.046974 0.003304 0.002982
0.061651 0.003304 0.002982
0.081254 0.003304 0.002982
0.107438 0.003304 0.002982
0.142414 0.003304 0.002982
0.189130 0.003304 0.002982
0.251530 0.003304 0.002982
0.334880 0.003304 0.002982
0.446210 0.003304 0.002982
0.594917 0.003304 0.002982
0.793546 0.003304 0.002982
1.000000 0.003304 0.002982
1.000000 0.003304 0.002982
1.000000 0.003304 0.002982
1.000000 0.003304 0.002982
0.002982 0.003625 0.002982
0.003304 0.003625 0.002982
0.003625 0.003625 0.002982
0.003947 0.003625 0.002982
0.004268 0.003625 0.002982
0.004614 0.003625 0.002982
0.005069 0.003625 0.002982
0.005676 0.003625 0.002982
0.006488 0.003625 0.002982
0.007573 0.003625 0.002982
0.009021 0.003625 0.002982
0.010956 0.003625 0.002982
0.013540 0.003625 0.002982
0.016992 0.003625 0.002982
0.021602 0.003625 0.002982
0.027761 0.003625 0.002982
0.035987 0.003625 0.002982
0.046974 0.003625 0.002982
0.061651 0.003625 0.002982
0.081254 0.003625 0.002982
0.107438 0.003625 0.002982
0.142414 0.003625 0.002982
0.189130 0.003625 0.002982
0.251530 0.003625 0.002982
0.334880 0.003625 0.002982
0.446210 0.003625 0.002982
0.594917 0.003625 0.002982
0.793546 0.003625 0.002982
1.000000 0.003625 0.002982
1.000000 0.003625 0.002982
1.000000 0.003625 0.002982
1.000000 0.003625 0.002982
0.002982 0.003947 0.002982
0.003304 0.003947 0.002982
0.003625 0.003947 0.002982
0.003947 0.003947 0.002982
0.004268 0.003947 0.002982
0.004614 0.003947 0.002982
0.005069 0.003947 0.002982
0.005676 0.003947 0.002982
0.006488 0.003947 0.002982
0.007573 0.003947 0.002982
0.009021 0.003947 0.002982
0.010956 0.003947 0.002982
0.013540 0.003947 0.002982
0.016992 0.003947 0.002982
0.021602 0.003947 0.002982
0.027761 0.003947 0.002982
0.035987 0.003947 0.002982
0.046974 0.003947 0.002982
0.061651 0.003947 0.002982
0.081254 0.003947 0.002982
0.107438 0.003947 0.002982
0.142414 0.003947 0.002982
0.189130 0.003947 0.002982
0.251530 0.003947 0.002982
0.334880 0.003947 0.002982
0.446210 0.003947 0.002982
0.594917 0.003947 0.002982
0.793546 0.003947 0.002982
1.000000 0.003947 0.002982
1.000000 0.003947 0.002982
1.000000 0.003947 0.002982
1.000000 0.003947 0.002982
0.002982 0.004268 0.002982
0.003304 0.004268 0.002982
0.003625 0.004268 0.002982
0.003947 0.004268 0.002982
0.004268 0.004268 0.002982
0.004614 0.004268 0.002982
0.005069 0.004268 0.002982
0.005676 0.004268 0.002982
0.006488 0.004268 0.002982
0.007573 0.004268 0.002982
0.009021 0.004268 0.002982
0.010956 0.004268 0.002982
0.013540 0.004268 0.002982
0.016992 0.004268 0.002982
0.021602 0.004268 0.002982
0.027761 0.004268 0.002982
0.035987 0.004268 0.002982
0.046974 0.004268 0.002982
0.061651 0.004268 0.002982
0.081254 0.004268 0.002982
0.107438 0.004268 0.002982
0.142414 0.004268 0.002982
0.189130 0.004268 0.002982
0.251530 0.004268 0.002982
0.334880 0.004268 0.002982
0.446210 0.004268 0.002982
0.594917 0.004268 0.002982
0.793546 0.004268 0.002982
1.000000 0.004268 0.002982
1.000000 0.004268 0.002982
1.000000 0.004268 0.002982
1.000000 0.004268 0.002982
0.002982 0.004614 0.002982
0.003304 0.004614 0.002982
0.003625 0.004614 0.002982
0.003947 0.004614 0.002982
0.004268 0.004614 0.002982
0.004614 0.004614 0.002982
0.005069 0.004614 0.002982
0.005676 0.004614 0.002982
0.006488 0.004614 0.002982
0.007573 0.004614 0.002982
0.009021 0.004614 0.002982
0.010956 0.004614 0.002982
0.013540 0.004614 0.002982
0.016992 0.004614 0.002982
0.021602 0.004614 0.002982
0.027761 0.004614 0.002982
0.035987 0.004614 0.002982
0.046974 0.004614 0.002982
0.061651 0.004614 0.002982
0.081254 0.004614 0.002982
0.107438 0.004614 0.002982
0.142414 0.004614 0.002982
0.189130 0.004614 0.002982
0.251530 0.004614 0.002982
0.334880 0.004614 0.002982
0.446210 0.004614 0.002982
0.594917 0.004614 0.002982
0.793546 0.004614 0.002982
1.000000 0.004614 0.002982
1.000000 0.004614 0.002982
1.000000 0.004614 0.002982
1.000000 0.004614 0.002982
0.002982 0.005069 0.002982
0.003304 0.005069 0.002982
0.003625 0.005069 0.002982
0.003947 0.005069 0.002982
0.004268 0.005069 0.002982
0.004614 0.005069 0.002982
0.005069 0.005069 0.002982
0.005676 0.005069 0.002982
0.006488 0.005069 0.002982
0.007573 0.005069 0.002982
0.009021 0.005069 0.002982
0.010956 0.005069 0.002982
0.013540 0.005069 0.002982
0.016992 0.005069 0.002982
0.021602 0.005069 0.002982
0.027761 0.005069 0.002982
0.035987 0.005069 0.002982
0.046974 0.005069 0.002982
0.061651 0.005069 0.002982
0.081254 0.005069 0.002982
0.107438 0.005069 0.002982
0.142414 0.005069 0.002982
0.189130 0.005069 0.002982
0.251530 0.005069 0.002982
0.334880 0.005069 0.002982
0.446210 0.005069 0.002982
0.594917 0.005069 0.002982
0.793546 0.005069 0.002982
1.000000 0.005069 0.002982
1.000000 0.005069 0.002982
1.000000 0.005069 0.002982
1.000000 0.005069 0.002982
0.002982 0.005676 0.002982
0.003304 0.005676 0.002982
0.003625 0.005676 0.002982
0.003947 0.005676 0.002982
0.004268 0.005676 0.002982
0.004614 0.005676 0.002982
0.005069 0.005676 0.002982
0.005676 0.005676 0.002982
0.006488 0.005676 0.002982
0.007573 0.005676 0.002982
0.009021 0.005676 0.002982
0.010956 0.005676 0.002982
0.013540 0.005676 0.002982
0.016992 0.005676 0.002982
0.021602 0.005676 0.002982
0.027761 0.005676 0.002982
0.035987 0.005676 0.002982
0.046974 0.005676 0.002982
0.061651 0.005676 0.002982
0.081254 0.005676 0.002982
0.107438 0.005676 0.002982
0.142414 0.005676 0.002982
0.189130 0.005676 0.002982
0.251530 0.005676 0.002982
0.334880 0.005676 0.002982
0.446210 0.005676 0.002982
0.594917 0.005676 0.002982
0.793546 0.005676 0.002982
1.000000 0.005676 0.002982
1.000000 0.005676 0.002982
1.000000 0.005676 0.002982
1.000000 0.005676 0.002982
0.002982 0.006488 0.002982
0.003304 0.006488 0.002982
0.003625 0.006488 0.002982
0.003947 0.006488 0.002982
0.004268 0.006488 0.002982
0.004614 0.006488 0.002982
0.005069 0.006488 0.002982
0.005676 0.006488 0.002982
0.006488 0.006488 0.002982
0.007573 0.006488 0.002982
0.009021 0.006488 0.002982
0.010956 0.006488 0.002982
0.013540 0.006488 0.002982
0.016992 0.006488 0.002982
0.021602 0.006488 0.002982
0.027761 0.006488 0.002982
0.035987 0.006488 0.002982
0.046974 0.006488 0.002982
0.061651 0.006488 0.002982
0.081254 0.006488 0.002982
0.107438 0.006488 0.002982
0.142414 0.006488 0.002982
0.189130 0.006488 0.002982
0.251530 0.006488 0.002982
0.334880 0.006488 0.002982
0.446210 0.006488 0.002982
0.594917 0.006488 0.002982
0.793546 0.006488 0.002982
1.000000 0.006488 0.002982
1.000000 0.006488 0.002982
1.000000 0.006488 0.002982
1.000000 0.006488 0.002982
0.002982 0.007573 0.002982
0.003304 0.007573 0.002982
0.003625 0.007573 0.002982
0.003947 0.007573 0.002982
0.004268 0.007573 0.002982
0.004614 0.007573 0.002982
0.005069 0.007573 0.002982
0.005676 0.007573 0.002982
0.006488 0.007573 0.002982
0.007573 0.007573 0.002982
0.009021 0.007573 0.002982
0.010956 0.007573 0.002982
0.013540 0.007573 0.002982
0.016992 0.007573 0.002982
0.021602 0.007573 0.002982
0.027761 0.007573 0.002982
0.035987 0.007573 0.002982
0.046974 0.007573 0.002982
0.061651 0.007573 0.002982
0.081254 0.007573 0.002982
0.107438 0.007573 0.002982
0.142414 0.007573 0.002982
0.189130 0.007573 0.002982
0.251530 0.007573 0.002982
0.334880 0.007573 0.002982
0.446210 0.007573 0.002982
0.594917 0.007573 0.002982
0.793546 0.007573 0.002982
1.000000 0.007573 0.002982
1.000000 0.007573 0.002982
1.000000 0.007573 0.002982
1.000000 0.007573 0.002982
0.002982 0.009021 0.002982
0.003304 0.009021 0.002982
0.003625 0.009021 0.002982
0.003947 0.009021 0.002982
0.004268 0.009021 0.002982
0.004614 0.009021 0.002982
0.005069 0.009021 0.002982
0.005676 0.009021 0.002982
0.006488 0.009021 0.002982
0.007573 0.009021 0.002982
0.009021 0.009021 0.002982
0.010956 0.009021 0.002982
0.013540 0.009021 0.002982
0.016992 0.009021 0.002982
0.021602 0.009021 0.002982
0.027761 0.009021 0.002982
0.035987 0.009021 0.002982
0.046974 0.009021 0.002982
0.061651 0.009021 0.002982
0.081254 0.009021 0.002982
0.107438 0.009021 0.002982
0.142414 0.009021 0.002982
0.189130 0.009021 0.002982
0.251530 0.009021 0.002982
0.334880 0.009021 0.002982
0.446210 0.009021 0.002982
0.594917 0.009021 0.002982
0.793546 0.009021 0.002982
1.000000 0.009021 0.002982
1.000000 0.009021 0.002982
1.000000 0.009021 0.002982
1.000000 0.009021 0.002982
0.002982 0.010956 0.002982
0.003304 0.010956 0.002982
0.003625 0.010956 0.002982
0.003947 0.010956 0.002982
0.004268 0.010956 0.002982
0.004614 0.010956 0.002982
0.005069 0.010956 0.002982
0.005676 0.010956 0.002982
0.006488 0.010956 0.002982
0.007573 0.010956 0.002982
0.009021 0.010956 0.002982
0.010956 0.010956 0.002982
0.013540 0.010956 0.002982
0.016992 0.010956 0.002982
0.021602 0.010956 0.002982
0.027761 0.010956 0.002982
0.035987 0.010956 0.002982
0.046974 0.010956 0.002982
0.061651 0.010956 0.002982
0.081254 0.010956 0.002982
0.107438 0.010956 0.002982
0.142414 0.010956 0.002982
0.189130 0.010956 0.002982
0.251530 0.010956 0.002982
0.334880 0.010956 0.002982
0.446210 0.010956 0.002982
0.594917 0.010956 0.002982
0.793546 0.010956 0.002982
1.000000 0.010956 0.002982
1.000000 0.010956 0.002982
1.000000 0.010956 0.002982
1.000000 0.010956 0.002982
0.002982 0.013540 0.002982
0.003304 0.013540 0.002982
0.003625 0.013540 0.002982
0.003947 0.013540 0.002982
0.004268 0.013540 0.002982
0.004614 0.013540 0.002982
0.005069 0.013540 0.002982
0.005676 0.013540 0.002982
0.006488 0.013540 0.002982
0.007573 0.013540 0.002982
0.009021 0.013540 0.002982
0.010956 0.013540 0.002982
0.013540 0.013540 0.002982
0.016992 0.013540 0.002982
0.021602 0.013540 0.002982
0.027761 0.013540 0.002982
0.035987 0.013540 0.002982
0.046974 0.013540 0.002982
0.061651 0.013540 0.002982
0.081254 0.013540 0.002982
0.107438 0.013540 0.002982
0.142414 0.013540 0.002982
0.189130 0.013540 0.002982
0.251530 0.013540 0.002982
0.334880 0.013540 0.002982
0.446210 0.013540 0.002982
0.594917 0.013540 0.002982
0.793546 0.013540 0.002982
1.000000 0.013540 0.002982
1.000000 0.013540 0.002982
1.000000 0.013540 0.002982
1.000000 0.013540 0.002982
0.002982 0.016992 0.002982
0.003304 0.016992 0.002982
0.003625 0.016992 0.002982
0.003947 0.016992 0.002982
0.004268 0.016992 0.002982
0.004614 0.016992 0.002982
0.005069 0.016992 0.002982
0.005676 0.016992 0.002982
0.006488 0.016992 0.002982
0.007573 0.016992 0.002982
0.009021 0.016992 0.002982
0.010956 0.016992 0.002982
0.013540 0.016992 0.002982
0.016992 0.016992 0.002982
0.021602 0.016992 0.002982
0.027761 0.016992 0.002982
0.035987 0.016992 0.002982
0.046974 0.016992 0.002982
0.061651 0.016992 0.002982
0.081254 0.016992 0.002982
0.107438 0.016992 0.002982
0.142414 0.016992 0.002982
0.189130 0.016992 0.002982
0.251530 0.016992 0.002982
0.334880 0.016992 0.002982
0.446210 0.016992 0.002982
0.594917 0.016992 0.002982
0.793546 0.016992 0.002982
1.000000 0.016992 0.002982
1.000000 0.016992 0.002982
1.000000 0.016992 0.002982
1.000000 0.016992 0.002982
0.002982 0.021602 0.002982
0.003304 0.021602 0.002982
0.003625 0.021602 0.002982
0.003947 0.021602 0.002982
0.004268 0.021602 0.002982
0.004614 0.021602 0.002982
0.005069 0.021602 0.002982
0.005676 0.021602 0.002982
0.006488 0.021602 0.002982
0.007573 0.021602 0.002982
0.009021 0.021602 0.002982
0.010956 0.021602 0.002982
0.013540 0.021602 0.002982
0.016992 0.021602 0.002982
0.021602 0.021602 0.002982
0.027761 0.021602 0.002982
0.035987 0.021602 0.002982
0.046974 0.021602 0.002982
0.061651 0.021602 0.002982
0.081254 0.021602 0.002982
0.107438 0.021602 0.002982
0.142414 0.021602 0.002982
0.189130 0.021602 0.002982
0.251530 0.021602 0.002982
0.334880 0.021602 0.002982
0.446210 0.021602 0.002982
0.594917 0.021602 0.002982
0.793546 0.021602 0.002982
1.000000 0.021602 0.002982
1.000000 0.021602 0.002982
1.000000 0.021602 0.002982
1.000000 0.021602 0.002982
0.002982 0.027761 0.002982
0.003304 0.027761 0.002982
0.003625 0.027761 0.002982
0.003947 0.027761 0.002982
0.004268 0.027761 0.002982
0.004614 0.027761 0.002982
0.005069 0.027761 0.002982
0.005676 0.027761 0.002982
0.006488 0.027761 0.002982
0.007573 0.027761 0.002982
0.009021 0.027761 0.002982
0.010956 0.027761 0.002982
0.013540 0.027761 0.002982
0.016992 0.027761 0.002982
0.021602 0.027761 0.002982
0.027761 0.027761 0.002982
0.035987 0.027761 0.002982
0.046974 0.027761 0.002982
0.061651 0.027761 0.002982
0.081254 0.027761 0.002982
0.107438 0.027761 0.002982
0.142414 0.027761 0.002982
0.189130 0.027761 0.002982
0.251530 0.027761 0.002982
0.334880 0.027761 0.002982
0.446210 0.027761 0.002982
0.594917 0.027761 0.002982
0.793546 0.027761 0.002982
1.000000 0.027761 0.002982
1.000000 0.027761 0.002982
1.000000 0.027761 0.002982
1.000000 0.027761 0.002982
0.002982 0.035987 0.002982
0.003304 0.035987 0.002982
0.003625 0.035987 0.002982
0.003947 0.035987 0.002982
0.004268 0.035987 0.002982
0.004614 0.035987 0.002982
0.005069 0.035987 0.002982
0.005676 0.035987 0.002982
0.006488 0.035987 0.002982
0.007573 0.035987 0.002982
0.009021 0.035987 0.002982
0.010956 0.035987 0.002982
0.013540 0.035987 0.002982
0.016992 0.035987 0.002982
0.021602 0.035987 0.002982
0.027761 0.035987 0.002982
0.035987 0.035987 0.002982
0.046974 0.035987 0.002982
0.061651 0.035987 0.002982
0.081254 0.035987 0.002982
0.107438 0.035987 0.002982
0.142414 0.035987 0.002982
0.189130 0.035987 0.002982
0.251530 0.035987 0.002982
0.334880 0.035987 0.002982
0.446210 0.035987 0.002982
0.594917 0.035987 0.002982
0.793546 0.035987 0.002982
1.000000 0.035987 0.002982
1.000000 0.035987 0.002982
1.000000 0.035987 0.002982
1.000000 0.035987 0.002982
0.002982 0.046974 0.002982
0.003304 0.046974 0.002982
0.003625 0.046974 0.002982
0.003947 0.046974 0.002982
0.004268 0.046974 0.002982
0.004614 0.046974 0.002982
0.005069 0.046974 0.002982
0.005676 0.046974 0.002982
0.006488 0.046974 0.002982
0.007573 0.046974 0.002982
0.009021 0.046974 0.002982
0.010956 0.046974 0.002982
0.013540 0.046974 0.002982
0.016992 0.046974 0.002982
0.021602 0.046974 0.002982
0.027761 0.046974 0.002982
0.035987 0.046974 0.002982
0.046974 0.046974 0.002982
0.061651 0.046974 0.002982
0.081254 0.046974 0.002982
0.107438 0.046974 0.002982
0.142414 0.046974 0.002982
0.189130 0.046974 0.002982
0.251530 0.046974 0.002982
0.334880 0.046974 0.002982
0.446210 0.046974 0.002982
0.594917 0.046974 0.002982
0.793546 0.046974 0.002982
1.000000 0.046974 0.002982
1.000000 0.046974 0.002982
1.000000 0.046974 0.002982
1.000000 0.046974 0.002982
0.002982 0.061651 0.002982
0.003304 0.061651 0.002982
0.003625 0.061651 0.002982
0.003947 0.061651 0.002982
0.004268 0.061651 0.002982
0.004614 0.061651 0.002982
0.005069 0.061651 0.002982
0.005676 0.061651 0.002982
0.006488 0.061651 0.002982
0.007573 0.061651 0.002982
0.009021 0.061651 0.002982
0.010956 0.061651 0.002982
0.013540 0.061651 0.002982
0.016992 0.061651 0.002982
0.021602 0.061651 0.002982
0.027761 0.061651 0.002982
0.035987 0.061651 0.002982
0.046974 0.061651 0.002982
0.061651 0.061651 0.002982
0.081254 0.061651 0.002982
0.107438 0.061651 0.002982
0.142414 0.061651 0.002982
0.189130 0.061651 0.002982
0.251530 0.061651 0.002982
0.334880 0.061651 0.002982
0.446210 0.061651 0.002982
0.594917 0.061651 0.002982
0.793546 0.061651 0.002982
1.000000 0.061651 0.002982
1.000000 0.061651 0.002982
1.000000 0.061651 0.002982
1.000000 0.061651 0.002982
0.002982 0.081254 0.002982
0.003304 0.081254 0.002982
0.003625 0.081254 0.002982
0.003947 0.081254 0.002982
0.004268 0.081254 0.002982
0.004614 0.081254 0.002982
0.005069 0.081254 0.002982
0.005676 0.081254 0.002982
0.006488 0.081254 0.002982
0.007573 0.081254 0.002982
0.009021 0.081254 0.002982
0.010956 0.081254 0.002982
0.013540 0.081254 0.002982
0.016992 0.081254 0.002982
0.021602 0.081254 0.002982
0.027761 0.081254 0.002982
0.035987 0.081254 0.002982
0.046974 0.081254 0.002982
0.061651 0.081254 0.002982
0.081254 0.081254 0.002982
0.107438 0.081254 0.002982
0.142414 0.081254 0.002982
0.189130 0.081254 0.002982
0.251530 0.081254 0.002982
0.334880 0.081254 0.002982
0.446210 0.081254 0.002982
0.594917 0.081254 0.002982
0.793546 0.081254 0.002982
1.000000 0.081254 0.002982
1.000000 0.081254 0.002982
1.000000 0.081254 0.002982
1.000000 0.081254 0.002982
0.002982 0.107438 0.002982
0.003304 0.107438 0.002982
0.003625 0.107438 0.002982
0.003947 0.107438 0.002982
0.004268 0.107438 0.002982
0.004614 0.107438 0.002982
0.005069 0.107438 0.002982
0.005676 0.107438 0.002982
0.006488 0.107438 0.002982
0.007573 0.107438 0.002982
0.009021 0.107438 0.002982
0.010956 0.107438 0.002982
0.013540 0.107438 0.002982
0.016992 0.107438 0.002982
0.021602 0.107438 0.002982
0.027761 0.107438 0.002982
0.035987 0.107438 0.002982
0.046974 0.107438 0.002982
0.061651 0.107438 0.002982
0.081254 0.107438 0.002982
0.107438 0.107438 0.002982
0.142414 0.107438 0.002982
0.189130 0.107438 0.002982
0.251530 0.107438 0.002982
0.334880 0.107438 0.002982
0.446210 0.107438 0.002982
0.594917 0.107438 0.002982
0.793546 0.107438 0.002982
1.000000 0.107438 0.002982
1.000000 0.107438 0.002982
1.000000 0.107438 0.002982
1.000000 0.107438 0.002982
0.002982 0.142414 0.002982
0.003304 0.142414 0.002982
0.003625 0.142414 0.002982
0.003947 0.142414 0.002982
0.004268 0.142414 0.002982
0.004614 0.142414 0.002982
0.005069 0.142414 0.002982
0.005676 0.142414 0.002982
0.006488 0.142414 0.002982
0.007573 0.142414 0.002982
0.009021 0.142414 0.002982
0.010956 0.142414 0.002982
0.013540 0.142414 0.002982
0.016992 0.142414 0.002982
0.021602 0.142414 0.002982
0.027761 0.142414 0.002982
0.035987 0.142414 0.002982
0.046974 0.142414 0.002982
0.061651 0.142414 0.002982
0.081254 0.142414 0.002982
0.107438 0.142414 0.002982
0.142414 0.142414 0.002982
0.189130 0.142414 0.002982
0.251530 0.142414 0.002982
0.334880 0.142414 0.002982
0.446210 0.142414 0.002982
0.594917 0.142414 0.002982
0.793546 0.142414 0.002982
1.000000 0.142414 0.002982
1.000000 0.142414 0.002982
1.000000 0.142414 0.002982
1.000000 0.142414 0.002982
0.002982 0.189130 0.002982
0.003304 0.189130 0.002982
0.003625 0.189130 0.002982
0.003947 0.189130 0.002982
0.004268 0.189130 0.002982
0.004614 0.189130 0.002982
0.005069 0.189130 0.002982
0.005676 0.189130 0.002982
0.006488 0.189130 0.002982
0.007573 0.189130 0.002982
0.009021 0.189130 0.002982
0.010956 0.189130 0.002982
0.013540 0.189130 0.002982
0.016992 0.189130 0.002982
0.021602 0.189130 0.002982
0.027761 0.189130 0.002982
0.035987 0.189130 0.002982
0.046974 0.189130 0.002982
0.061651 0.189130 0.002982
0.081254 0.189130 0.002982
0.107438 0.189130 0.002982
0.142414 0.189130 0.002982
0.189130 0.189130 0.002982
0.251530 0.189130 0.002982
0.334880 0.189130 0.002982
0.446210 0.189130 0.002982
0.594917 0.189130 0.002982
0.793546 0.189130 0.002982
1.000000 0.189130 0.002982
1.000000 0.189130 0.002982
1.000000 0.189130 0.002982
1.000000 0.189130 0.002982
0.002982 0.251530 0.002982
0.003304 0.251530 0.002982
0.003625 0.251530 0.002982
0.003947 0.251530 0.002982
0.004268 0.251530 0.002982
0.004614 0.251530 0.002982
0.005069 0.251530 0.002982
0.005676 0.251530 0.002982
0.006488 0.251530 0.002982
0.007573 0.251530 0.002982
0.009021 0.251530 0.002982
0.010956 0.251530 0.002982
0.013540 0.251530 0.002982
0.016992 0.251530 0.002982
0.021602 0.251530 0.002982
0.027761 0.251530 0.002982
0.035987 0.251530 0.002982
0.046974 0.251530 0.002982
0.061651 0.251530 0.002982
0.081254 0.251530 0.002982
0.107438 0.251530 0.002982
0.142414 0.251530 0.002982
0.189130 0.251530 0.002982
0.251530 0.251530 0.002982
0.334880 0.251530 0.002982
0.446210 0.251530 0.002982
0.594917 0.251530 0.002982
0.793546 0.251530 0.002982
1.000000 0.251530 0.002982
1.000000 0.251530 0.002982
1.000000 0.251530 0.002982
1.000000 0.251530 0.002982
0.002982 0.334880 0.002982
0.003304 0.334880 0.002982
0.003625 0.334880 0.002982
0.003947 0.334880 0.002982
0.004268 0.334880 0.002982
0.004614 0.334880 0.002982
0.005069 0.334880 0.002982
0.005676 0.334880 0.002982
0.006488 0.334880 0.002982
0.007573 0.334880 0.002982
0.009021 0.334880 0.002982
0.010956 0.334880 0.002982
0.013540 0.334880 0.002982
0.016992 0.334880 0.002982
0.021602 0.334880 0.002982
0.027761 0.334880 0.002982
0.035987 0.334880 0.002982
0.046974 0.334880 0.002982
0.061651 0.334880 0.002982
0.081254 0.334880 0.002982
0.107438 0.334880 0.002982
0.142414 0.334880 0.002982
0.189130 0.334880 0.002982
0.251530 0.334880 0.002982
0.334880 0.334880 0.002982
0.446210 0.334880 0.002982
0.594917 0.334880 0.002982
0.793546 0.334880 0.002982
1.000000 0.334880 0.002982
1.000000 0.334880 0.002982
1.000000 0.334880 0.002982
1.000000 0.334880 0.002982
0.002982 0.446210 0.002982
0.003304 0.446210 0.002982
0.003625 0.446210 0.002982
0.003947 0.446210 0.002982
0.004268 0.446210 0.002982
0.004614 0.446210 0.002982
0.005069 0.446210 0.002982
0.005676 0.446210 0.002982
0.006488 0.446210 0.002982
0.007573 0.446210 0.002982
0.009021 0.446210 0.002982
0.010956 0.446210 0.002982
0.013540 0.446210 0.002982
0.016992 0.446210 0.002982
0.021602 0.446210 0.002982
0.027761 0.446210 0.002982
0.035987 0.446210 0.002982
0.046974 0.446210 0.002982
0.061651 0.446210 0.002982
0.081254 0.446210 0.002982
0.107438 0.446210 0.002982
0.142414 0.446210 0.002982
0.189130 0.446210 0.002982
0.251530 0.446210 0.002982
0.334880 0.446210 0.002982
0.446210 0.446210 0.002982
0.594917 0.446210 0.002982
0.793546 0.446210 0.002982
1.000000 0.446210 0.002982
1.000000 0.446210 0.002982
1.000000 0.446210 0.002982
1.000000 0.446210 0.002982
0.002982 0.594917 0.002982
0.003304 0.594917 0.002982
0.003625 0.594917 0.002982
0.003947 0.594917 0.002982
0.004268 0.594917 0.002982
0.004614 0.594917 0.002982
0.005069 0.594917 0.002982
0.005676 0.594917 0.002982
0.006488 0.594917 0.002982
0.007573 0.594917 0.002982
0.009021 0.594917 0.002982
0.010956 0.594917 0.002982
0.013540 0.594917 0.002982
0.016992 0.594917 0.002982
0.021602 0.594917 0.002982
0.027761 0.594917 0.002982
0.035987 0.594917 0.002982
0.046974 0.594917 0.002982
0.061651 0.594917 0.002982
0.081254 0.594917 0.002982
0.107438 0.594917 0.002982
0.142414 0.594917 0.002982
0.189130 0.594917 0.002982
0.251530 0.594917 0.002982
0.334880 0.594917 0.002982
0.446210 0.594917 0.002982
0.594917 0.594917 0.002982
0.793546 0.594917 0.002982
1.000000 0.594917 0.002982
1.000000 0.594917 0.002982
1.000000 0.594917 0.002982
1.000000 0.594917 0.002982
0.002982 0.793546 0.002982
0.003304 0.793546 0.002982
0.003625 0.793546 0.002982
0.003947 0.793546 0.002982
0.004268 0.793546 0.002982
0.004614 0.793546 0.002982
0.005069 0.793546 0.002982
0.005676 0.793546 0.002982
0.006488 0.793546 0.002982
0.007573 0.793546 0.002982
0.009021 0.793546 0.002982
0.010956 0.793546 0.002982
0.013540 0.793546 0.002982
0.016992 0.793546 0.002982
0.021602 0.793546 0.002982
0.027761 0.793546 0.002982
0.035987 0.793546 0.002982
0.046974 0.793546 0.002982
0.061651 0.793546 0.002982
0.081254 0.793546 0.002982
0.107438 0.793546 0.002982
