.nuke/nuke.LUT/logC-2-linear_extended/AlexaV3_EI0250_LogC2Linear_EE_nuke3d.cube
# Alexa conversion LUT, logc2lin. Full in/full out.
# created by alexalutconv (2.07)
LUT_3D_SIZE 5
DOMAIN_MIN 0.000000 0.000000 0.000000
DOMAIN_MAX 0.903226 0.903226 0.903226
0.002463 0.002463 0.002463
0.006781 0.002463 0.002463
0.031925 0.002463 0.002463
0.213510 0.002463 0.002463
1.000000 0.002463 0.002463
0.002463 0.006781 0.002463
0.006781 0.006781 0.002463
0.031925 0.006781 0.002463
0.213510 0.006781 0.002463
1.000000 0.006781 0.002463
0.002463 0.031925 0.002463
0.006781 0.031925 0.002463
0.031925 0.031925 0.002463
0.213510 0.031925 0.002463
1.000000 0.031925 0.002463
0.002463 0.213510 0.002463
0.006781 0.213510 0.002463
0.031925 0.213510 0.002463
0.213510 0.213510 0.002463
1.000000 0.213510 0.002463
0.002463 1.000000 0.002463
0.006781 1.000000 0.002463
0.031925 1.000000 0.002463
0.213510 1.000000 0.002463
1.000000 1.000000 0.002463
0.002463 0.002463 0.006781
0.006781 0.002463 0.006781
0.031925 0.002463 0.006781
0.213510 0.002463 0.006781
1.000000 0.002463 0.006781
0.002463 0.006781 0.006781
0.006781 0.006781 0.006781
0.031925 0.006781 0.006781
0.213510 0.006781 0.006781
1.000000 0.006781 0.006781
0.002463 0.031925 0.006781
0.006781 0.031925 0.006781
0.031925 0.031925 0.006781
0.213510 0.031925 0.006781
1.000000 0.031925 0.006781
0.002463 0.213510 0.006781
0.006781 0.213510 0.006781
0.031925 0.213510 0.006781
0.213510 0.213510 0.006781
1.000000 0.213510 0.006781
0.002463 1.000000 0.006781
0.006781 1.000000 0.006781
0.031925 1.000000 0.006781
0.213510 1.000000 0.006781
1.000000 1.000000 0.006781
0.002463 0.002463 0.031925
0.006781 0.002463 0.031925
0.031925 0.002463 0.031925
0.213510 0.002463 0.031925
1.000000 0.002463 0.031925
0.002463 0.006781 0.031925
0.006781 0.006781 0.031925
0.031925 0.006781 0.031925
0.213510 0.006781 0.031925
1.000000 0.006781 0.031925
0.002463 0.031925 0.031925
0.006781 0.031925 0.031925
0.031925 0.031925 0.031925
0.213510 0.031925 0.031925
1.000000 0.031925 0.031925
0.002463 0.213510 0.031925
0.006781 0.213510 0.031925
0.031925 0.213510 0.031925
0.213510 0.213510 0.031925
1.000000 0.213510 0.031925
0.002463 1.000000 0.031925
0.006781 1.000000 0.031925
0.031925 1.000000 0.031925
0.213510 1.000000 0.031925
1.000000 1.000000 0.031925
0.002463 0.002463 0.213510
0.006781 0.002463 0.213510
0.031925 0.002463 0.213510
0.213510 0.002463 0.213510
1.000000 0.002463 0.213510
0.002463 0.006781 0.213510
0.006781 0.006781 0.213510
0.031925 0.006781 0.213510
0.213510 0.006781 0.213510
1.000000 0.006781 0.213510
0.002463 0.031925 0.213510
0.006781 0.031925 0.213510
0.031925 0.031925 0.213510
0.213510 0.031925 0.213510
1.000000 0.031925 0.213510
0.002463 0.213510 0.213510
0.006781 0.213510 0.213510
0.031925 0.213510 0.213510
0.213510 0.213510 0.213510
1.000000 0.213510 0.213510
0.002463 1.000000 0.213510
0.006781 1.000000 0.213510
0.031925 1.000000 0.213510
0.213510 1.000000 0.213510
1.000000 1.000000 0.213510
0.002463 0.002463 1.000000
0.006781 0.002463 1.000000
0.031925 0.002463 1.000000
0.213510 0.002463 1.000000
1.000000 0.002463 1.000000
0.002463 0.006781 1.000000
0.006781 0.006781 1.000000
0.031925 0.006781 1.000000
0.213510 0.006781 1.000000
1.000000 0.006781 1.000000
0.002463 0.031925 1.000000
0.006781 0.031925 1.000000
0.031925 0.031925 1.000000
0.213510 0.031925 1.000000
1.000000 0.031925 1.000000
0.002463 0.213510 1.000000
0.006781 0.213510 1.000000
0.031925 0.213510 1.000000
0.213510 0.213510 1.000000
1.000000 0.213510 1.000000
0.002463 1.000000 1.000000
0.006781 1.000000 1.000000
0.031925 1.000000 1.000000
0.213510 1.000000 1.000000
1.000000 1.000000 1.000000
