.nuke/nuke.LUT/logC-2-linear_extended/AlexaV3_EI0500_LogC2Linear_EE_nuke3d.cube
# Alexa conversion LUT, logc2lin. Full in/full out.
# created by alexalutconv (2.07)
LUT_3D_SIZE 8
DOMAIN_MIN 0.000000 0.000000 0.000000
DOMAIN_MAX 0.903226 0.903226 0.903226
0.003158 0.003158 0.003158
0.004200 0.003158 0.003158
0.005958 0.003158 0.003158
0.011611 0.003158 0.003158
0.029858 0.003158 0.003158
0.088747 0.003158 0.003158
0.278812 0.003158 0.003158
0.892243 0.003158 0.003158
0.003158 0.004200 0.003158
0.004200 0.004200 0.003158
0.005958 0.004200 0.003158
0.011611 0.004200 0.003158
0.029858 0.004200 0.003158
0.088747 0.004200 0.003158
0.278812 0.004200 0.003158
0.892243 0.004200 0.003158
0.003158 0.005958 0.003158
0.004200 0.005958 0.003158
0.005958 0.005958 0.003158
0.011611 0.005958 0.003158
0.029858 0.005958 0.003158
0.088747 0.005958 0.003158
0.278812 0.005958 0.003158
0.892243 0.005958 0.003158
0.003158 0.011611 0.003158
0.004200 0.011611 0.003158
0.005958 0.011611 0.003158
0.011611 0.011611 0.003158
0.029858 0.011611 0.003158
0.088747 0.011611 0.003158
0.278812 0.011611 0.003158
0.892243 0.011611 0.003158
0.003158 0.029858 0.003158
0.004200 0.029858 0.003158
0.005958 0.029858 0.003158
0.011611 0.029858 0.003158
0.029858 0.029858 0.003158
0.088747 0.029858 0.003158
0.278812 0.029858 0.003158
0.892243 0.029858 0.003158
0.003158 0.088747 0.003158
0.004200 0.088747 0.003158
0.005958 0.088747 0.003158
0.011611 0.088747 0.003158
0.029858 0.088747 0.003158
0.088747 0.088747 0.003158
0.278812 0.088747 0.003158
0.892243 0.088747 0.003158
0.003158 0.278812 0.003158
0.004200 0.278812 0.003158
0.005958 0.278812 0.003158
0.011611 0.278812 0.003158
0.029858 0.278812 0.003158
0.088747 0.278812 0.003158
0.278812 0.278812 0.003158
0.892243 0.278812 0.003158
0.003158 0.892243 0.003158
0.004200 0.892243 0.003158
0.005958 0.892243 0.003158
0.011611 0.892243 0.003158
0.029858 0.892243 0.003158
0.088747 0.892243 0.003158
0.278812 0.892243 0.003158
0.892243 0.892243 0.003158
0.003158 0.003158 0.004200
0.004200 0.003158 0.004200
0.005958 0.003158 0.004200
0.011611 0.003158 0.004200
0.029858 0.003158 0.004200
0.088747 0.003158 0.004200
0.278812 0.003158 0.004200
0.892243 0.003158 0.004200
0.003158 0.004200 0.004200
0.004200 0.004200 0.004200
0.005958 0.004200 0.004200
0.011611 0.004200 0.004200
0.029858 0.004200 0.004200
0.088747 0.004200 0.004200
0.278812 0.004200 0.004200
0.892243 0.004200 0.004200
0.003158 0.005958 0.004200
0.004200 0.005958 0.004200
0.005958 0.005958 0.004200
0.011611 0.005958 0.004200
0.029858 0.005958 0.004200
0.088747 0.005958 0.004200
0.278812 0.005958 0.004200
0.892243 0.005958 0.004200
0.003158 0.011611 0.004200
0.004200 0.011611 0.004200
0.005958 0.011611 0.004200
0.011611 0.011611 0.004200
0.029858 0.011611 0.004200
0.088747 0.011611 0.004200
0.278812 0.011611 0.004200
0.892243 0.011611 0.004200
0.003158 0.029858 0.004200
0.004200 0.029858 0.004200
0.005958 0.029858 0.004200
0.011611 0.029858 0.004200
0.029858 0.029858 0.004200
0.088747 0.029858 0.004200
0.278812 0.029858 0.004200
0.892243 0.029858 0.004200
0.003158 0.088747 0.004200
0.004200 0.088747 0.004200
0.005958 0.088747 0.004200
0.011611 0.088747 0.004200
0.029858 0.088747 0.004200
0.088747 0.088747 0.004200
0.278812 0.088747 0.004200
0.892243 0.088747 0.004200
0.003158 0.278812 0.004200
0.004200 0.278812 0.004200
0.005958 0.278812 0.004200
0.011611 0.278812 0.004200
0.029858 0.278812 0.004200
0.088747 0.278812 0.004200
0.278812 0.278812 0.004200
0.892243 0.278812 0.004200
0.003158 0.892243 0.004200
0.004200 0.892243 0.004200
0.005958 0.892243 0.004200
0.011611 0.892243 0.004200
0.029858 0.892243 0.004200
0.088747 0.892243 0.004200
0.278812 0.892243 0.004200
0.892243 0.892243 0.004200
0.003158 0.003158 0.005958
0.004200 0.003158 0.005958
0.005958 0.003158 0.005958
0.011611 0.003158 0.005958
0.029858 0.003158 0.005958
0.088747 0.003158 0.005958
0.278812 0.003158 0.005958
0.892243 0.003158 0.005958
0.003158 0.004200 0.005958
0.004200 0.004200 0.005958
0.005958 0.004200 0.005958
0.011611 0.004200 0.005958
0.029858 0.004200 0.005958
0.088747 0.004200 0.005958
0.278812 0.004200 0.005958
0.892243 0.004200 0.005958
0.003158 0.005958 0.005958
0.004200 0.005958 0.005958
0.005958 0.005958 0.005958
0.011611 0.005958 0.005958
0.029858 0.005958 0.005958
0.088747 0.005958 0.005958
0.278812 0.005958 0.005958
0.892243 0.005958 0.005958
0.003158 0.011611 0.005958
0.004200 0.011611 0.005958
0.005958 0.011611 0.005958
0.011611 0.011611 0.005958
0.029858 0.011611 0.005958
0.088747 0.011611 0.005958
0.278812 0.011611 0.005958
0.892243 0.011611 0.005958
0.003158 0.029858 0.005958
0.004200 0.029858 0.005958
0.005958 0.029858 0.005958
0.011611 0.029858 0.005958
0.029858 0.029858 0.005958
0.088747 0.029858 0.005958
0.278812 0.029858 0.005958
0.892243 0.029858 0.005958
0.003158 0.088747 0.005958
0.004200 0.088747 0.005958
0.005958 0.088747 0.005958
0.011611 0.088747 0.005958
0.029858 0.088747 0.005958
0.088747 0.088747 0.005958
0.278812 0.088747 0.005958
0.892243 0.088747 0.005958
0.003158 0.278812 0.005958
0.004200 0.278812 0.005958
0.005958 0.278812 0.005958
0.011611 0.278812 0.005958
0.029858 0.278812 0.005958
0.088747 0.278812 0.005958
0.278812 0.278812 0.005958
0.892243 0.278812 0.005958
0.003158 0.892243 0.005958
0.004200 0.892243 0.005958
0.005958 0.892243 0.005958
0.011611 0.892243 0.005958
0.029858 0.892243 0.005958
0.088747 0.892243 0.005958
0.278812 0.892243 0.005958
0.892243 0.892243 0.005958
0.003158 0.003158 0.011611
0.004200 0.003158 0.011611
0.005958 0.003158 0.011611
0.011611 0.003158 0.011611
0.029858 0.003158 0.011611
0.088747 0.003158 0.011611
0.278812 0.003158 0.011611
0.892243 0.003158 0.011611
0.003158 0.004200 0.011611
0.004200 0.004200 0.011611
0.005958 0.004200 0.011611
0.011611 0.004200 0.011611
0.029858 0.004200 0.011611
0.088747 0.004200 0.011611
0.278812 0.004200 0.011611
0.892243 0.004200 0.011611
0.003158 0.005958 0.011611
0.004200 0.005958 0.011611
0.005958 0.005958 0.011611
0.011611 0.005958 0.011611
0.029858 0.005958 0.011611
0.088747 0.005958 0.011611
0.278812 0.005958 0.011611
0.892243 0.005958 0.011611
0.003158 0.011611 0.011611
0.004200 0.011611 0.011611
0.005958 0.011611 0.011611
0.011611 0.011611 0.011611
0.029858 0.011611 0.011611
0.088747 0.011611 0.011611
0.278812 0.011611 0.011611
0.892243 0.011611 0.011611
0.003158 0.029858 0.011611
0.004200 0.029858 0.011611
0.005958 0.029858 0.011611
0.011611 0.029858 0.011611
0.029858 0.029858 0.011611
0.088747 0.029858 0.011611
0.278812 0.029858 0.011611
0.892243 0.029858 0.011611
0.003158 0.088747 0.011611
0.004200 0.088747 0.011611
0.005958 0.088747 0.011611
0.011611 0.088747 0.011611
0.029858 0.088747 0.011611
0.088747 0.088747 0.011611
0.278812 0.088747 0.011611
0.892243 0.088747 0.011611
0.003158 0.278812 0.011611
0.004200 0.278812 0.011611
0.005958 0.278812 0.011611
0.011611 0.278812 0.011611
0.029858 0.278812 0.011611
0.088747 0.278812 0.011611
0.278812 0.278812 0.011611
0.892243 0.278812 0.011611
0.003158 0.892243 0.011611
0.004200 0.892243 0.011611
0.005958 0.892243 0.011611
0.011611 0.892243 0.011611
0.029858 0.892243 0.011611
0.088747 0.892243 0.011611
0.278812 0.892243 0.011611
0.892243 0.892243 0.011611
0.003158 0.003158 0.029858
0.004200 0.003158 0.029858
0.005958 0.003158 0.029858
0.011611 0.003158 0.029858
0.029858 0.003158 0.029858
0.088747 0.003158 0.029858
0.278812 0.003158 0.029858
0.892243 0.003158 0.029858
0.003158 0.004200 0.029858
0.004200 0.004200 0.029858
0.005958 0.004200 0.029858
0.011611 0.004200 0.029858
0.029858 0.004200 0.029858
0.088747 0.004200 0.029858
0.278812 0.004200 0.029858
0.892243 0.004200 0.029858
0.003158 0.005958 0.029858
0.004200 0.005958 0.029858
0.005958 0.005958 0.029858
0.011611 0.005958 0.029858
0.029858 0.005958 0.029858
0.088747 0.005958 0.029858
0.278812 0.005958 0.029858
0.892243 0.005958 0.029858
0.003158 0.011611 0.029858
0.004200 0.011611 0.029858
0.005958 0.011611 0.029858
0.011611 0.011611 0.029858
0.029858 0.011611 0.029858
0.088747 0.011611 0.029858
0.278812 0.011611 0.029858
0.892243 0.011611 0.029858
0.003158 0.029858 0.029858
0.004200 0.029858 0.029858
0.005958 0.029858 0.029858
0.011611 0.029858 0.029858
0.029858 0.029858 0.029858
0.088747 0.029858 0.029858
0.278812 0.029858 0.029858
0.892243 0.029858 0.029858
0.003158 0.088747 0.029858
0.004200 0.088747 0.029858
0.005958 0.088747 0.029858
0.011611 0.088747 0.029858
0.029858 0.088747 0.029858
0.088747 0.088747 0.029858
0.278812 0.088747 0.029858
0.892243 0.088747 0.029858
0.003158 0.278812 0.029858
0.004200 0.278812 0.029858
0.005958 0.278812 0.029858
0.011611 0.278812 0.029858
0.029858 0.278812 0.029858
0.088747 0.278812 0.029858
0.278812 0.278812 0.029858
0.892243 0.278812 0.029858
0.003158 0.892243 0.029858
0.004200 0.892243 0.029858
0.005958 0.892243 0.029858
0.011611 0.892243 0.029858
0.029858 0.892243 0.029858
0.088747 0.892243 0.029858
0.278812 0.892243 0.029858
0.892243 0.892243 0.029858
0.003158 0.003158 0.088747
0.004200 0.003158 0.088747
0.005958 0.003158 0.088747
0.011611 0.003158 0.088747
0.029858 0.003158 0.088747
0.088747 0.003158 0.088747
0.278812 0.003158 0.088747
0.892243 0.003158 0.088747
0.003158 0.004200 0.088747
0.004200 0.004200 0.088747
0.005958 0.004200 0.088747
0.011611 0.004200 0.088747
0.029858 0.004200 0.088747
0.088747 0.004200 0.088747
0.278812 0.004200 0.088747
0.892243 0.004200 0.088747
0.003158 0.005958 0.088747
0.004200 0.005958 0.088747
0.005958 0.005958 0.088747
0.011611 0.005958 0.088747
0.029858 0.005958 0.088747
0.088747 0.005958 0.088747
0.278812 0.005958 0.088747
0.892243 0.005958 0.088747
0.003158 0.011611 0.088747
0.004200 0.011611 0.088747
0.005958 0.011611 0.088747
0.011611 0.011611 0.088747
0.029858 0.011611 0.088747
0.088747 0.011611 0.088747
0.278812 0.011611 0.088747
0.892243 0.011611 0.088747
0.003158 0.029858 0.088747
0.004200 0.029858 0.088747
0.005958 0.029858 0.088747
0.011611 0.029858 0.088747
0.029858 0.029858 0.088747
0.088747 0.029858 0.088747
0.278812 0.029858 0.088747
0.892243 0.029858 0.088747
0.003158 0.088747 0.088747
0.004200 0.088747 0.088747
0.005958 0.088747 0.088747
0.011611 0.088747 0.088747
0.029858 0.088747 0.088747
0.088747 0.088747 0.088747
0.278812 0.088747 0.088747
0.892243 0.088747 0.088747
0.003158 0.278812 0.088747
0.004200 0.278812 0.088747
0.005958 0.278812 0.088747
0.011611 0.278812 0.088747
0.029858 0.278812 0.088747
0.088747 0.278812 0.088747
0.278812 0.278812 0.088747
0.892243 0.278812 0.088747
0.003158 0.892243 0.088747
0.004200 0.892243 0.088747
0.005958 0.892243 0.088747
0.011611 0.892243 0.088747
0.029858 0.892243 0.088747
0.088747 0.892243 0.088747
0.278812 0.892243 0.088747
0.892243 0.892243 0.088747
0.003158 0.003158 0.278812
0.004200 0.003158 0.278812
0.005958 0.003158 0.278812
0.011611 0.003158 0.278812
0.029858 0.003158 0.278812
0.088747 0.003158 0.278812
0.278812 0.003158 0.278812
0.892243 0.003158 0.278812
0.003158 0.004200 0.278812
0.004200 0.004200 0.278812
0.005958 0.004200 0.278812
0.011611 0.004200 0.278812
0.029858 0.004200 0.278812
0.088747 0.004200 0.278812
0.278812 0.004200 0.278812
0.892243 0.004200 0.278812
0.003158 0.005958 0.278812
0.004200 0.005958 0.278812
0.005958 0.005958 0.278812
0.011611 0.005958 0.278812
0.029858 0.005958 0.278812
0.088747 0.005958 0.278812
0.278812 0.005958 0.278812
0.892243 0.005958 0.278812
0.003158 0.011611 0.278812
0.004200 0.011611 0.278812
0.005958 0.011611 0.278812
0.011611 0.011611 0.278812
0.029858 0.011611 0.278812
0.088747 0.011611 0.278812
0.278812 0.011611 0.278812
0.892243 0.011611 0.278812
0.003158 0.029858 0.278812
0.004200 0.029858 0.278812
0.005958 0.029858 0.278812
0.011611 0.029858 0.278812
0.029858 0.029858 0.278812
0.088747 0.029858 0.278812
0.278812 0.029858 0.278812
0.892243 0.029858 0.278812
0.003158 0.088747 0.278812
0.004200 0.088747 0.278812
0.005958 0.088747 0.278812
0.011611 0.088747 0.278812
0.029858 0.088747 0.278812
0.088747 0.088747 0.278812
0.278812 0.088747 0.278812
0.892243 0.088747 0.278812
0.003158 0.278812 0.278812
0.004200 0.278812 0.278812
0.005958 0.278812 0.278812
0.011611 0.278812 0.278812
0.029858 0.278812 0.278812
0.088747 0.278812 0.278812
0.278812 0.278812 0.278812
0.892243 0.278812 0.278812
0.003158 0.892243 0.278812
0.004200 0.892243 0.278812
0.005958 0.892243 0.278812
0.011611 0.892243 0.278812
0.029858 0.892243 0.278812
0.088747 0.892243 0.278812
0.278812 0.892243 0.278812
0.892243 0.892243 0.278812
0.003158 0.003158 0.892243
0.004200 0.003158 0.892243
0.005958 0.003158 0.892243
0.011611 0.003158 0.892243
0.029858 0.003158 0.892243
0.088747 0.003158 0.892243
0.278812 0.003158 0.892243
0.892243 0.003158 0.892243
0.003158 0.004200 0.892243
0.004200 0.004200 0.892243
0.005958 0.004200 0.892243
0.011611 0.004200 0.892243
0.029858 0.004200 0.892243
0.088747 0.004200 0.892243
0.278812 0.004200 0.892243
0.892243 0.004200 0.892243
0.003158 0.005958 0.892243
0.004200 0.005958 0.892243
0.005958 0.005958 0.892243
0.011611 0.005958 0.892243
0.029858 0.005958 0.892243
0.088747 0.005958 0.892243
0.278812 0.005958 0.892243
0.892243 0.005958 0.892243
0.003158 0.011611 0.892243
0.004200 0.011611 0.892243
0.005958 0.011611 0.892243
0.011611 0.011611 0.892243
0.029858 0.011611 0.892243
0.088747 0.011611 0.892243
0.278812 0.011611 0.892243
0.892243 0.011611 0.892243
0.003158 0.029858 0.892243
0.004200 0.029858 0.892243
0.005958 0.029858 0.892243
0.011611 0.029858 0.892243
0.029858 0.029858 0.892243
0.088747 0.029858 0.892243
0.278812 0.029858 0.892243
0.892243 0.029858 0.892243
0.003158 0.088747 0.892243
0.004200 0.088747 0.892243
0.005958 0.088747 0.892243
0.011611 0.088747 0.892243
0.029858 0.088747 0.892243
0.088747 0.088747 0.892243
0.278812 0.088747 0.892243
0.892243 0.088747 0.892243
0.003158 0.278812 0.892243
0.004200 0.278812 0.892243
0.005958 0.278812 0.892243
0.011611 0.278812 0.892243
0.029858 0.278812 0.892243
0.088747 0.278812 0.892243
0.278812 0.278812 0.892243
0.892243 0.278812 0.892243
0.003158 0.892243 0.892243
0.004200 0.892243 0.892243
0.005958 0.892243 0.892243
0.011611 0.892243 0.892243
0.029858 0.892243 0.892243
0.088747 0.892243 0.892243
0.278812 0.892243 0.892243
0.892243 0.892243 0.892243
