.nuke/nuke.LUT/logC-2-linear_extended/AlexaV3_EI0400_LogC2Linear_EE_nuke3d.cube
# Alexa conversion LUT, logc2lin. Full in/full out.
# created by alexalutconv (2.07)
LUT_3D_SIZE 8
DOMAIN_MIN 0.000000 0.000000 0.000000
DOMAIN_MAX 0.903226 0.903226 0.903226
0.002982 0.002982 0.002982
0.004268 0.002982 0.002982
0.006488 0.002982 0.002982
0.013540 0.002982 0.002982
0.035987 0.002982 0.002982
0.107438 0.002982 0.002982
0.334880 0.002982 0.002982
1.000000 0.002982 0.002982
0.002982 0.004268 0.002982
0.004268 0.004268 0.002982
0.006488 0.004268 0.002982
0.013540 0.004268 0.002982
0.035987 0.004268 0.002982
0.107438 0.004268 0.002982
0.334880 0.004268 0.002982
1.000000 0.004268 0.002982
0.002982 0.006488 0.002982
0.004268 0.006488 0.002982
0.006488 0.006488 0.002982
0.013540 0.006488 0.002982
0.035987 0.006488 0.002982
0.107438 0.006488 0.002982
0.334880 0.006488 0.002982
1.000000 0.006488 0.002982
0.002982 0.013540 0.002982
0.004268 0.013540 0.002982
0.006488 0.013540 0.002982
0.013540 0.013540 0.002982
0.035987 0.013540 0.002982
0.107438 0.013540 0.002982
0.334880 0.013540 0.002982
1.000000 0.013540 0.002982
0.002982 0.035987 0.002982
0.004268 0.035987 0.002982
0.006488 0.035987 0.002982
0.013540 0.035987 0.002982
0.035987 0.035987 0.002982
0.107438 0.035987 0.002982
0.334880 0.035987 0.002982
1.000000 0.035987 0.002982
0.002982 0.107438 0.002982
0.004268 0.107438 0.002982
0.006488 0.107438 0.002982
0.013540 0.107438 0.002982
0.035987 0.107438 0.002982
0.107438 0.107438 0.002982
0.334880 0.107438 0.002982
1.000000 0.107438 0.002982
0.002982 0.334880 0.002982
0.004268 0.334880 0.002982
0.006488 0.334880 0.002982
0.013540 0.334880 0.002982
0.035987 0.334880 0.002982
0.107438 0.334880 0.002982
0.334880 0.334880 0.002982
1.000000 0.334880 0.002982
0.002982 1.000000 0.002982
0.004268 1.000000 0.002982
0.006488 1.000000 0.002982
0.013540 1.000000 0.002982
0.035987 1.000000 0.002982
0.107438 1.000000 0.002982
0.334880 1.000000 0.002982
1.000000 1.000000 0.002982
0.002982 0.002982 0.004268
0.004268 0.002982 0.004268
0.006488 0.002982 0.004268
0.013540 0.002982 0.004268
0.035987 0.002982 0.004268
0.107438 0.002982 0.004268
0.334880 0.002982 0.004268
1.000000 0.002982 0.004268
0.002982 0.004268 0.004268
0.004268 0.004268 0.004268
0.006488 0.004268 0.004268
0.013540 0.004268 0.004268
0.035987 0.004268 0.004268
0.107438 0.004268 0.004268
0.334880 0.004268 0.004268
1.000000 0.004268 0.004268
0.002982 0.006488 0.004268
0.004268 0.006488 0.004268
0.006488 0.006488 0.004268
0.013540 0.006488 0.004268
0.035987 0.006488 0.004268
0.107438 0.006488 0.004268
0.334880 0.006488 0.004268
1.000000 0.006488 0.004268
0.002982 0.013540 0.004268
0.004268 0.013540 0.004268
0.006488 0.013540 0.004268
0.013540 0.013540 0.004268
0.035987 0.013540 0.004268
0.107438 0.013540 0.004268
0.334880 0.013540 0.004268
1.000000 0.013540 0.004268
0.002982 0.035987 0.004268
0.004268 0.035987 0.004268
0.006488 0.035987 0.004268
0.013540 0.035987 0.004268
0.035987 0.035987 0.004268
0.107438 0.035987 0.004268
0.334880 0.035987 0.004268
1.000000 0.035987 0.004268
0.002982 0.107438 0.004268
0.004268 0.107438 0.004268
0.006488 0.107438 0.004268
0.013540 0.107438 0.004268
0.035987 0.107438 0.004268
0.107438 0.107438 0.004268
0.334880 0.107438 0.004268
1.000000 0.107438 0.004268
0.002982 0.334880 0.004268
0.004268 0.334880 0.004268
0.006488 0.334880 0.004268
0.013540 0.334880 0.004268
0.035987 0.334880 0.004268
0.107438 0.334880 0.004268
0.334880 0.334880 0.004268
1.000000 0.334880 0.004268
0.002982 1.000000 0.004268
0.004268 1.000000 0.004268
0.006488 1.000000 0.004268
0.013540 1.000000 0.004268
0.035987 1.000000 0.004268
0.107438 1.000000 0.004268
0.334880 1.000000 0.004268
1.000000 1.000000 0.004268
0.002982 0.002982 0.006488
0.004268 0.002982 0.006488
0.006488 0.002982 0.006488
0.013540 0.002982 0.006488
0.035987 0.002982 0.006488
0.107438 0.002982 0.006488
0.334880 0.002982 0.006488
1.000000 0.002982 0.006488
0.002982 0.004268 0.006488
0.004268 0.004268 0.006488
0.006488 0.004268 0.006488
0.013540 0.004268 0.006488
0.035987 0.004268 0.006488
0.107438 0.004268 0.006488
0.334880 0.004268 0.006488
1.000000 0.004268 0.006488
0.002982 0.006488 0.006488
0.004268 0.006488 0.006488
0.006488 0.006488 0.006488
0.013540 0.006488 0.006488
0.035987 0.006488 0.006488
0.107438 0.006488 0.006488
0.334880 0.006488 0.006488
1.000000 0.006488 0.006488
0.002982 0.013540 0.006488
0.004268 0.013540 0.006488
0.006488 0.013540 0.006488
0.013540 0.013540 0.006488
0.035987 0.013540 0.006488
0.107438 0.013540 0.006488
0.334880 0.013540 0.006488
1.000000 0.013540 0.006488
0.002982 0.035987 0.006488
0.004268 0.035987 0.006488
0.006488 0.035987 0.006488
0.013540 0.035987 0.006488
0.035987 0.035987 0.006488
0.107438 0.035987 0.006488
0.334880 0.035987 0.006488
1.000000 0.035987 0.006488
0.002982 0.107438 0.006488
0.004268 0.107438 0.006488
0.006488 0.107438 0.006488
0.013540 0.107438 0.006488
0.035987 0.107438 0.006488
0.107438 0.107438 0.006488
0.334880 0.107438 0.006488
1.000000 0.107438 0.006488
0.002982 0.334880 0.006488
0.004268 0.334880 0.006488
0.006488 0.334880 0.006488
0.013540 0.334880 0.006488
0.035987 0.334880 0.006488
0.107438 0.334880 0.006488
0.334880 0.334880 0.006488
1.000000 0.334880 0.006488
0.002982 1.000000 0.006488
0.004268 1.000000 0.006488
0.006488 1.000000 0.006488
0.013540 1.000000 0.006488
0.035987 1.000000 0.006488
0.107438 1.000000 0.006488
0.334880 1.000000 0.006488
1.000000 1.000000 0.006488
0.002982 0.002982 0.013540
0.004268 0.002982 0.013540
0.006488 0.002982 0.013540
0.013540 0.002982 0.013540
0.035987 0.002982 0.013540
0.107438 0.002982 0.013540
0.334880 0.002982 0.013540
1.000000 0.002982 0.013540
0.002982 0.004268 0.013540
0.004268 0.004268 0.013540
0.006488 0.004268 0.013540
0.013540 0.004268 0.013540
0.035987 0.004268 0.013540
0.107438 0.004268 0.013540
0.334880 0.004268 0.013540
1.000000 0.004268 0.013540
0.002982 0.006488 0.013540
0.004268 0.006488 0.013540
0.006488 0.006488 0.013540
0.013540 0.006488 0.013540
0.035987 0.006488 0.013540
0.107438 0.006488 0.013540
0.334880 0.006488 0.013540
1.000000 0.006488 0.013540
0.002982 0.013540 0.013540
0.004268 0.013540 0.013540
0.006488 0.013540 0.013540
0.013540 0.013540 0.013540
0.035987 0.013540 0.013540
0.107438 0.013540 0.013540
0.334880 0.013540 0.013540
1.000000 0.013540 0.013540
0.002982 0.035987 0.013540
0.004268 0.035987 0.013540
0.006488 0.035987 0.013540
0.013540 0.035987 0.013540
0.035987 0.035987 0.013540
0.107438 0.035987 0.013540
0.334880 0.035987 0.013540
1.000000 0.035987 0.013540
0.002982 0.107438 0.013540
0.004268 0.107438 0.013540
0.006488 0.107438 0.013540
0.013540 0.107438 0.013540
0.035987 0.107438 0.013540
0.107438 0.107438 0.013540
0.334880 0.107438 0.013540
1.000000 0.107438 0.013540
0.002982 0.334880 0.013540
0.004268 0.334880 0.013540
0.006488 0.334880 0.013540
0.013540 0.334880 0.013540
0.035987 0.334880 0.013540
0.107438 0.334880 0.013540
0.334880 0.334880 0.013540
1.000000 0.334880 0.013540
0.002982 1.000000 0.013540
0.004268 1.000000 0.013540
0.006488 1.000000 0.013540
0.013540 1.000000 0.013540
0.035987 1.000000 0.013540
0.107438 1.000000 0.013540
0.334880 1.000000 0.013540
1.000000 1.000000 0.013540
0.002982 0.002982 0.035987
0.004268 0.002982 0.035987
0.006488 0.002982 0.035987
0.013540 0.002982 0.035987
0.035987 0.002982 0.035987
0.107438 0.002982 0.035987
0.334880 0.002982 0.035987
1.000000 0.002982 0.035987
0.002982 0.004268 0.035987
0.004268 0.004268 0.035987
0.006488 0.004268 0.035987
0.013540 0.004268 0.035987
0.035987 0.004268 0.035987
0.107438 0.004268 0.035987
0.334880 0.004268 0.035987
1.000000 0.004268 0.035987
0.002982 0.006488 0.035987
0.004268 0.006488 0.035987
0.006488 0.006488 0.035987
0.013540 0.006488 0.035987
0.035987 0.006488 0.035987
0.107438 0.006488 0.035987
0.334880 0.006488 0.035987
1.000000 0.006488 0.035987
0.002982 0.013540 0.035987
0.004268 0.013540 0.035987
0.006488 0.013540 0.035987
0.013540 0.013540 0.035987
0.035987 0.013540 0.035987
0.107438 0.013540 0.035987
0.334880 0.013540 0.035987
1.000000 0.013540 0.035987
0.002982 0.035987 0.035987
0.004268 0.035987 0.035987
0.006488 0.035987 0.035987
0.013540 0.035987 0.035987
0.035987 0.035987 0.035987
0.107438 0.035987 0.035987
0.334880 0.035987 0.035987
1.000000 0.035987 0.035987
0.002982 0.107438 0.035987
0.004268 0.107438 0.035987
0.006488 0.107438 0.035987
0.013540 0.107438 0.035987
0.035987 0.107438 0.035987
0.107438 0.107438 0.035987
0.334880 0.107438 0.035987
1.000000 0.107438 0.035987
0.002982 0.334880 0.035987
0.004268 0.334880 0.035987
0.006488 0.334880 0.035987
0.013540 0.334880 0.035987
0.035987 0.334880 0.035987
0.107438 0.334880 0.035987
0.334880 0.334880 0.035987
1.000000 0.334880 0.035987
0.002982 1.000000 0.035987
0.004268 1.000000 0.035987
0.006488 1.000000 0.035987
0.013540 1.000000 0.035987
0.035987 1.000000 0.035987
0.107438 1.000000 0.035987
0.334880 1.000000 0.035987
1.000000 1.000000 0.035987
0.002982 0.002982 0.107438
0.004268 0.002982 0.107438
0.006488 0.002982 0.107438
0.013540 0.002982 0.107438
0.035987 0.002982 0.107438
0.107438 0.002982 0.107438
0.334880 0.002982 0.107438
1.000000 0.002982 0.107438
0.002982 0.004268 0.107438
0.004268 0.004268 0.107438
0.006488 0.004268 0.107438
0.013540 0.004268 0.107438
0.035987 0.004268 0.107438
0.107438 0.004268 0.107438
0.334880 0.004268 0.107438
1.000000 0.004268 0.107438
0.002982 0.006488 0.107438
0.004268 0.006488 0.107438
0.006488 0.006488 0.107438
0.013540 0.006488 0.107438
0.035987 0.006488 0.107438
0.107438 0.006488 0.107438
0.334880 0.006488 0.107438
1.000000 0.006488 0.107438
0.002982 0.013540 0.107438
0.004268 0.013540 0.107438
0.006488 0.013540 0.107438
0.013540 0.013540 0.107438
0.035987 0.013540 0.107438
0.107438 0.013540 0.107438
0.334880 0.013540 0.107438
1.000000 0.013540 0.107438
0.002982 0.035987 0.107438
0.004268 0.035987 0.107438
0.006488 0.035987 0.107438
0.013540 0.035987 0.107438
0.035987 0.035987 0.107438
0.107438 0.035987 0.107438
0.334880 0.035987 0.107438
1.000000 0.035987 0.107438
0.002982 0.107438 0.107438
0.004268 0.107438 0.107438
0.006488 0.107438 0.107438
0.013540 0.107438 0.107438
0.035987 0.107438 0.107438
0.107438 0.107438 0.107438
0.334880 0.107438 0.107438
1.000000 0.107438 0.107438
0.002982 0.334880 0.107438
0.004268 0.334880 0.107438
0.006488 0.334880 0.107438
0.013540 0.334880 0.107438
0.035987 0.334880 0.107438
0.107438 0.334880 0.107438
0.334880 0.334880 0.107438
1.000000 0.334880 0.107438
0.002982 1.000000 0.107438
0.004268 1.000000 0.107438
0.006488 1.000000 0.107438
0.013540 1.000000 0.107438
0.035987 1.000000 0.107438
0.107438 1.000000 0.107438
0.334880 1.000000 0.107438
1.000000 1.000000 0.107438
0.002982 0.002982 0.334880
0.004268 0.002982 0.334880
0.006488 0.002982 0.334880
0.013540 0.002982 0.334880
0.035987 0.002982 0.334880
0.107438 0.002982 0.334880
0.334880 0.002982 0.334880
1.000000 0.002982 0.334880
0.002982 0.004268 0.334880
0.004268 0.004268 0.334880
0.006488 0.004268 0.334880
0.013540 0.004268 0.334880
0.035987 0.004268 0.334880
0.107438 0.004268 0.334880
0.334880 0.004268 0.334880
1.000000 0.004268 0.334880
0.002982 0.006488 0.334880
0.004268 0.006488 0.334880
0.006488 0.006488 0.334880
0.013540 0.006488 0.334880
0.035987 0.006488 0.334880
0.107438 0.006488 0.334880
0.334880 0.006488 0.334880
1.000000 0.006488 0.334880
0.002982 0.013540 0.334880
0.004268 0.013540 0.334880
0.006488 0.013540 0.334880
0.013540 0.013540 0.334880
0.035987 0.013540 0.334880
0.107438 0.013540 0.334880
0.334880 0.013540 0.334880
1.000000 0.013540 0.334880
0.002982 0.035987 0.334880
0.004268 0.035987 0.334880
0.006488 0.035987 0.334880
0.013540 0.035987 0.334880
0.035987 0.035987 0.334880
0.107438 0.035987 0.334880
0.334880 0.035987 0.334880
1.000000 0.035987 0.334880
0.002982 0.107438 0.334880
0.004268 0.107438 0.334880
0.006488 0.107438 0.334880
0.013540 0.107438 0.334880
0.035987 0.107438 0.334880
0.107438 0.107438 0.334880
0.334880 0.107438 0.334880
1.000000 0.107438 0.334880
0.002982 0.334880 0.334880
0.004268 0.334880 0.334880
0.006488 0.334880 0.334880
0.013540 0.334880 0.334880
0.035987 0.334880 0.334880
0.107438 0.334880 0.334880
0.334880 0.334880 0.334880
1.000000 0.334880 0.334880
0.002982 1.000000 0.334880
0.004268 1.000000 0.334880
0.006488 1.000000 0.334880
0.013540 1.000000 0.334880
0.035987 1.000000 0.334880
0.107438 1.000000 0.334880
0.334880 1.000000 0.334880
1.000000 1.000000 0.334880
0.002982 0.002982 1.000000
0.004268 0.002982 1.000000
0.006488 0.002982 1.000000
0.013540 0.002982 1.000000
0.035987 0.002982 1.000000
0.107438 0.002982 1.000000
0.334880 0.002982 1.000000
1.000000 0.002982 1.000000
0.002982 0.004268 1.000000
0.004268 0.004268 1.000000
0.006488 0.004268 1.000000
0.013540 0.004268 1.000000
0.035987 0.004268 1.000000
0.107438 0.004268 1.000000
0.334880 0.004268 1.000000
1.000000 0.004268 1.000000
0.002982 0.006488 1.000000
0.004268 0.006488 1.000000
0.006488 0.006488 1.000000
0.013540 0.006488 1.000000
0.035987 0.006488 1.000000
0.107438 0.006488 1.000000
0.334880 0.006488 1.000000
1.000000 0.006488 1.000000
0.002982 0.013540 1.000000
0.004268 0.013540 1.000000
0.006488 0.013540 1.000000
0.013540 0.013540 1.000000
0.035987 0.013540 1.000000
0.107438 0.013540 1.000000
0.334880 0.013540 1.000000
1.000000 0.013540 1.000000
0.002982 0.035987 1.000000
0.004268 0.035987 1.000000
0.006488 0.035987 1.000000
0.013540 0.035987 1.000000
0.035987 0.035987 1.000000
0.107438 0.035987 1.000000
0.334880 0.035987 1.000000
1.000000 0.035987 1.000000
0.002982 0.107438 1.000000
0.004268 0.107438 1.000000
0.006488 0.107438 1.000000
0.013540 0.107438 1.000000
0.035987 0.107438 1.000000
0.107438 0.107438 1.000000
0.334880 0.107438 1.000000
1.000000 0.107438 1.000000
0.002982 0.334880 1.000000
0.004268 0.334880 1.000000
0.006488 0.334880 1.000000
0.013540 0.334880 1.000000
0.035987 0.334880 1.000000
0.107438 0.334880 1.000000
0.334880 0.334880 1.000000
1.000000 0.334880 1.000000
0.002982 1.000000 1.000000
0.004268 1.000000 1.000000
0.006488 1.000000 1.000000
0.013540 1.000000 1.000000
0.035987 1.000000 1.000000
0.107438 1.000000 1.000000
0.334880 1.000000 1.000000
1.000000 1.000000 1.000000
