.nuke/nuke.LUT/logC-2-linear_extended/AlexaV3_EI0160_LogC2Linear_EE_nuke3d.cube
# Alexa conversion LUT, logc2lin. Full in/full out.
# created by alexalutconv (2.07)
LUT_3D_SIZE 5
DOMAIN_MIN 0.000000 0.000000 0.000000
DOMAIN_MAX 0.903226 0.903226 0.903226
0.001701 0.001701 0.001701
0.008469 0.001701 0.001701
0.047267 0.001701 0.001701
0.315259 0.001701 0.001701
1.000000 0.001701 0.001701
0.001701 0.008469 0.001701
0.008469 0.008469 0.001701
0.047267 0.008469 0.001701
0.315259 0.008469 0.001701
1.000000 0.008469 0.001701
0.001701 0.047267 0.001701
0.008469 0.047267 0.001701
0.047267 0.047267 0.001701
0.315259 0.047267 0.001701
1.000000 0.047267 0.001701
0.001701 0.315259 0.001701
0.008469 0.315259 0.001701
0.047267 0.315259 0.001701
0.315259 0.315259 0.001701
1.000000 0.315259 0.001701
0.001701 1.000000 0.001701
0.008469 1.000000 0.001701
0.047267 1.000000 0.001701
0.315259 1.000000 0.001701
1.000000 1.000000 0.001701
0.001701 0.001701 0.008469
0.008469 0.001701 0.008469
0.047267 0.001701 0.008469
0.315259 0.001701 0.008469
1.000000 0.001701 0.008469
0.001701 0.008469 0.008469
0.008469 0.008469 0.008469
0.047267 0.008469 0.008469
0.315259 0.008469 0.008469
1.000000 0.008469 0.008469
0.001701 0.047267 0.008469
0.008469 0.047267 0.008469
0.047267 0.047267 0.008469
0.315259 0.047267 0.008469
1.000000 0.047267 0.008469
0.001701 0.315259 0.008469
0.008469 0.315259 0.008469
0.047267 0.315259 0.008469
0.315259 0.315259 0.008469
1.000000 0.315259 0.008469
0.001701 1.000000 0.008469
0.008469 1.000000 0.008469
0.047267 1.000000 0.008469
0.315259 1.000000 0.008469
1.000000 1.000000 0.008469
0.001701 0.001701 0.047267
0.008469 0.001701 0.047267
0.047267 0.001701 0.047267
0.315259 0.001701 0.047267
1.000000 0.001701 0.047267
0.001701 0.008469 0.047267
0.008469 0.008469 0.047267
0.047267 0.008469 0.047267
0.315259 0.008469 0.047267
1.000000 0.008469 0.047267
0.001701 0.047267 0.047267
0.008469 0.047267 0.047267
0.047267 0.047267 0.047267
0.315259 0.047267 0.047267
1.000000 0.047267 0.047267
0.001701 0.315259 0.047267
0.008469 0.315259 0.047267
0.047267 0.315259 0.047267
0.315259 0.315259 0.047267
1.000000 0.315259 0.047267
0.001701 1.000000 0.047267
0.008469 1.000000 0.047267
0.047267 1.000000 0.047267
0.315259 1.000000 0.047267
1.000000 1.000000 0.047267
0.001701 0.001701 0.315259
0.008469 0.001701 0.315259
0.047267 0.001701 0.315259
0.315259 0.001701 0.315259
1.000000 0.001701 0.315259
0.001701 0.008469 0.315259
0.008469 0.008469 0.315259
0.047267 0.008469 0.315259
0.315259 0.008469 0.315259
1.000000 0.008469 0.315259
0.001701 0.047267 0.315259
0.008469 0.047267 0.315259
0.047267 0.047267 0.315259
0.315259 0.047267 0.315259
1.000000 0.047267 0.315259
0.001701 0.315259 0.315259
0.008469 0.315259 0.315259
0.047267 0.315259 0.315259
0.315259 0.315259 0.315259
1.000000 0.315259 0.315259
0.001701 1.000000 0.315259
0.008469 1.000000 0.315259
0.047267 1.000000 0.315259
0.315259 1.000000 0.315259
1.000000 1.000000 0.315259
0.001701 0.001701 1.000000
0.008469 0.001701 1.000000
0.047267 0.001701 1.000000
0.315259 0.001701 1.000000
1.000000 0.001701 1.000000
0.001701 0.008469 1.000000
0.008469 0.008469 1.000000
0.047267 0.008469 1.000000
0.315259 0.008469 1.000000
1.000000 0.008469 1.000000
0.001701 0.047267 1.000000
0.008469 0.047267 1.000000
0.047267 0.047267 1.000000
0.315259 0.047267 1.000000
1.000000 0.047267 1.000000
0.001701 0.315259 1.000000
0.008469 0.315259 1.000000
0.047267 0.315259 1.000000
0.315259 0.315259 1.000000
1.000000 0.315259 1.000000
0.001701 1.000000 1.000000
0.008469 1.000000 1.000000
0.047267 1.000000 1.000000
0.315259 1.000000 1.000000
1.000000 1.000000 1.000000
