.nuke/nuke.LUT/logC-2-linear_extended/AlexaV3_EI0160_LogC2Linear_EE_nuke3d.cube
# Alexa conversion LUT, logc2lin. Full in/full out.
# created by alexalutconv (2.07)
LUT_3D_SIZE 8
DOMAIN_MIN 0.000000 0.000000 0.000000
DOMAIN_MAX 0.903226 0.903226 0.903226
0.001701 0.001701 0.001701
0.004771 0.001701 0.001701
0.010557 0.001701 0.001701
0.028019 0.001701 0.001701
0.080702 0.001701 0.001701
0.239661 0.001701 0.001701
0.719279 0.001701 0.001701
1.000000 0.001701 0.001701
0.001701 0.004771 0.001701
0.004771 0.004771 0.001701
0.010557 0.004771 0.001701
0.028019 0.004771 0.001701
0.080702 0.004771 0.001701
0.239661 0.004771 0.001701
0.719279 0.004771 0.001701
1.000000 0.004771 0.001701
0.001701 0.010557 0.001701
0.004771 0.010557 0.001701
0.010557 0.010557 0.001701
0.028019 0.010557 0.001701
0.080702 0.010557 0.001701
0.239661 0.010557 0.001701
0.719279 0.010557 0.001701
1.000000 0.010557 0.001701
0.001701 0.028019 0.001701
0.004771 0.028019 0.001701
0.010557 0.028019 0.001701
0.028019 0.028019 0.001701
0.080702 0.028019 0.001701
0.239661 0.028019 0.001701
0.719279 0.028019 0.001701
1.000000 0.028019 0.001701
0.001701 0.080702 0.001701
0.004771 0.080702 0.001701
0.010557 0.080702 0.001701
0.028019 0.080702 0.001701
0.080702 0.080702 0.001701
0.239661 0.080702 0.001701
0.719279 0.080702 0.001701
1.000000 0.080702 0.001701
0.001701 0.239661 0.001701
0.004771 0.239661 0.001701
0.010557 0.239661 0.001701
0.028019 0.239661 0.001701
0.080702 0.239661 0.001701
0.239661 0.239661 0.001701
0.719279 0.239661 0.001701
1.000000 0.239661 0.001701
0.001701 0.719279 0.001701
0.004771 0.719279 0.001701
0.010557 0.719279 0.001701
0.028019 0.719279 0.001701
0.080702 0.719279 0.001701
0.239661 0.719279 0.001701
0.719279 0.719279 0.001701
1.000000 0.719279 0.001701
0.001701 1.000000 0.001701
0.004771 1.000000 0.001701
0.010557 1.000000 0.001701
0.028019 1.000000 0.001701
0.080702 1.000000 0.001701
0.239661 1.000000 0.001701
0.719279 1.000000 0.001701
1.000000 1.000000 0.001701
0.001701 0.001701 0.004771
0.004771 0.001701 0.004771
0.010557 0.001701 0.004771
0.028019 0.001701 0.004771
0.080702 0.001701 0.004771
0.239661 0.001701 0.004771
0.719279 0.001701 0.004771
1.000000 0.001701 0.004771
0.001701 0.004771 0.004771
0.004771 0.004771 0.004771
0.010557 0.004771 0.004771
0.028019 0.004771 0.004771
0.080702 0.004771 0.004771
0.239661 0.004771 0.004771
0.719279 0.004771 0.004771
1.000000 0.004771 0.004771
0.001701 0.010557 0.004771
0.004771 0.010557 0.004771
0.010557 0.010557 0.004771
0.028019 0.010557 0.004771
0.080702 0.010557 0.004771
0.239661 0.010557 0.004771
0.719279 0.010557 0.004771
1.000000 0.010557 0.004771
0.001701 0.028019 0.004771
0.004771 0.028019 0.004771
0.010557 0.028019 0.004771
0.028019 0.028019 0.004771
0.080702 0.028019 0.004771
0.239661 0.028019 0.004771
0.719279 0.028019 0.004771
1.000000 0.028019 0.004771
0.001701 0.080702 0.004771
0.004771 0.080702 0.004771
0.010557 0.080702 0.004771
0.028019 0.080702 0.004771
0.080702 0.080702 0.004771
0.239661 0.080702 0.004771
0.719279 0.080702 0.004771
1.000000 0.080702 0.004771
0.001701 0.239661 0.004771
0.004771 0.239661 0.004771
0.010557 0.239661 0.004771
0.028019 0.239661 0.004771
0.080702 0.239661 0.004771
0.239661 0.239661 0.004771
0.719279 0.239661 0.004771
1.000000 0.239661 0.004771
0.001701 0.719279 0.004771
0.004771 0.719279 0.004771
0.010557 0.719279 0.004771
0.028019 0.719279 0.004771
0.080702 0.719279 0.004771
0.239661 0.719279 0.004771
0.719279 0.719279 0.004771
1.000000 0.719279 0.004771
0.001701 1.000000 0.004771
0.004771 1.000000 0.004771
0.010557 1.000000 0.004771
0.028019 1.000000 0.004771
0.080702 1.000000 0.004771
0.239661 1.000000 0.004771
0.719279 1.000000 0.004771
1.000000 1.000000 0.004771
0.001701 0.001701 0.010557
0.004771 0.001701 0.010557
0.010557 0.001701 0.010557
0.028019 0.001701 0.010557
0.080702 0.001701 0.010557
0.239661 0.001701 0.010557
0.719279 0.001701 0.010557
1.000000 0.001701 0.010557
0.001701 0.004771 0.010557
0.004771 0.004771 0.010557
0.010557 0.004771 0.010557
0.028019 0.004771 0.010557
0.080702 0.004771 0.010557
0.239661 0.004771 0.010557
0.719279 0.004771 0.010557
1.000000 0.004771 0.010557
0.001701 0.010557 0.010557
0.004771 0.010557 0.010557
0.010557 0.010557 0.010557
0.028019 0.010557 0.010557
0.080702 0.010557 0.010557
0.239661 0.010557 0.010557
0.719279 0.010557 0.010557
1.000000 0.010557 0.010557
0.001701 0.028019 0.010557
0.004771 0.028019 0.010557
0.010557 0.028019 0.010557
0.028019 0.028019 0.010557
0.080702 0.028019 0.010557
0.239661 0.028019 0.010557
0.719279 0.028019 0.010557
1.000000 0.028019 0.010557
0.001701 0.080702 0.010557
0.004771 0.080702 0.010557
0.010557 0.080702 0.010557
0.028019 0.080702 0.010557
0.080702 0.080702 0.010557
0.239661 0.080702 0.010557
0.719279 0.080702 0.010557
1.000000 0.080702 0.010557
0.001701 0.239661 0.010557
0.004771 0.239661 0.010557
0.010557 0.239661 0.010557
0.028019 0.239661 0.010557
0.080702 0.239661 0.010557
0.239661 0.239661 0.010557
0.719279 0.239661 0.010557
1.000000 0.239661 0.010557
0.001701 0.719279 0.010557
0.004771 0.719279 0.010557
0.010557 0.719279 0.010557
0.028019 0.719279 0.010557
0.080702 0.719279 0.010557
0.239661 0.719279 0.010557
0.719279 0.719279 0.010557
1.000000 0.719279 0.010557
0.001701 1.000000 0.010557
0.004771 1.000000 0.010557
0.010557 1.000000 0.010557
0.028019 1.000000 0.010557
0.080702 1.000000 0.010557
0.239661 1.000000 0.010557
0.719279 1.000000 0.010557
1.000000 1.000000 0.010557
0.001701 0.001701 0.028019
0.004771 0.001701 0.028019
0.010557 0.001701 0.028019
0.028019 0.001701 0.028019
0.080702 0.001701 0.028019
0.239661 0.001701 0.028019
0.719279 0.001701 0.028019
1.000000 0.001701 0.028019
0.001701 0.004771 0.028019
0.004771 0.004771 0.028019
0.010557 0.004771 0.028019
0.028019 0.004771 0.028019
0.080702 0.004771 0.028019
0.239661 0.004771 0.028019
0.719279 0.004771 0.028019
1.000000 0.004771 0.028019
0.001701 0.010557 0.028019
0.004771 0.010557 0.028019
0.010557 0.010557 0.028019
0.028019 0.010557 0.028019
0.080702 0.010557 0.028019
0.239661 0.010557 0.028019
0.719279 0.010557 0.028019
1.000000 0.010557 0.028019
0.001701 0.028019 0.028019
0.004771 0.028019 0.028019
0.010557 0.028019 0.028019
0.028019 0.028019 0.028019
0.080702 0.028019 0.028019
0.239661 0.028019 0.028019
0.719279 0.028019 0.028019
1.000000 0.028019 0.028019
0.001701 0.080702 0.028019
0.004771 0.080702 0.028019
0.010557 0.080702 0.028019
0.028019 0.080702 0.028019
0.080702 0.080702 0.028019
0.239661 0.080702 0.028019
0.719279 0.080702 0.028019
1.000000 0.080702 0.028019
0.001701 0.239661 0.028019
0.004771 0.239661 0.028019
0.010557 0.239661 0.028019
0.028019 0.239661 0.028019
0.080702 0.239661 0.028019
0.239661 0.239661 0.028019
0.719279 0.239661 0.028019
1.000000 0.239661 0.028019
0.001701 0.719279 0.028019
0.004771 0.719279 0.028019
0.010557 0.719279 0.028019
0.028019 0.719279 0.028019
0.080702 0.719279 0.028019
0.239661 0.719279 0.028019
0.719279 0.719279 0.028019
1.000000 0.719279 0.028019
0.001701 1.000000 0.028019
0.004771 1.000000 0.028019
0.010557 1.000000 0.028019
0.028019 1.000000 0.028019
0.080702 1.000000 0.028019
0.239661 1.000000 0.028019
0.719279 1.000000 0.028019
1.000000 1.000000 0.028019
0.001701 0.001701 0.080702
0.004771 0.001701 0.080702
0.010557 0.001701 0.080702
0.028019 0.001701 0.080702
0.080702 0.001701 0.080702
0.239661 0.001701 0.080702
0.719279 0.001701 0.080702
1.000000 0.001701 0.080702
0.001701 0.004771 0.080702
0.004771 0.004771 0.080702
0.010557 0.004771 0.080702
0.028019 0.004771 0.080702
0.080702 0.004771 0.080702
0.239661 0.004771 0.080702
0.719279 0.004771 0.080702
1.000000 0.004771 0.080702
0.001701 0.010557 0.080702
0.004771 0.010557 0.080702
0.010557 0.010557 0.080702
0.028019 0.010557 0.080702
0.080702 0.010557 0.080702
0.239661 0.010557 0.080702
0.719279 0.010557 0.080702
1.000000 0.010557 0.080702
0.001701 0.028019 0.080702
0.004771 0.028019 0.080702
0.010557 0.028019 0.080702
0.028019 0.028019 0.080702
0.080702 0.028019 0.080702
0.239661 0.028019 0.080702
0.719279 0.028019 0.080702
1.000000 0.028019 0.080702
0.001701 0.080702 0.080702
0.004771 0.080702 0.080702
0.010557 0.080702 0.080702
0.028019 0.080702 0.080702
0.080702 0.080702 0.080702
0.239661 0.080702 0.080702
0.719279 0.080702 0.080702
1.000000 0.080702 0.080702
0.001701 0.239661 0.080702
0.004771 0.239661 0.080702
0.010557 0.239661 0.080702
0.028019 0.239661 0.080702
0.080702 0.239661 0.080702
0.239661 0.239661 0.080702
0.719279 0.239661 0.080702
1.000000 0.239661 0.080702
0.001701 0.719279 0.080702
0.004771 0.719279 0.080702
0.010557 0.719279 0.080702
0.028019 0.719279 0.080702
0.080702 0.719279 0.080702
0.239661 0.719279 0.080702
0.719279 0.719279 0.080702
1.000000 0.719279 0.080702
0.001701 1.000000 0.080702
0.004771 1.000000 0.080702
0.010557 1.000000 0.080702
0.028019 1.000000 0.080702
0.080702 1.000000 0.080702
0.239661 1.000000 0.080702
0.719279 1.000000 0.080702
1.000000 1.000000 0.080702
0.001701 0.001701 0.239661
0.004771 0.001701 0.239661
0.010557 0.001701 0.239661
0.028019 0.001701 0.239661
0.080702 0.001701 0.239661
0.239661 0.001701 0.239661
0.719279 0.001701 0.239661
1.000000 0.001701 0.239661
0.001701 0.004771 0.239661
0.004771 0.004771 0.239661
0.010557 0.004771 0.239661
0.028019 0.004771 0.239661
0.080702 0.004771 0.239661
0.239661 0.004771 0.239661
0.719279 0.004771 0.239661
1.000000 0.004771 0.239661
0.001701 0.010557 0.239661
0.004771 0.010557 0.239661
0.010557 0.010557 0.239661
0.028019 0.010557 0.239661
0.080702 0.010557 0.239661
0.239661 0.010557 0.239661
0.719279 0.010557 0.239661
1.000000 0.010557 0.239661
0.001701 0.028019 0.239661
0.004771 0.028019 0.239661
0.010557 0.028019 0.239661
0.028019 0.028019 0.239661
0.080702 0.028019 0.239661
0.239661 0.028019 0.239661
0.719279 0.028019 0.239661
1.000000 0.028019 0.239661
0.001701 0.080702 0.239661
0.004771 0.080702 0.239661
0.010557 0.080702 0.239661
0.028019 0.080702 0.239661
0.080702 0.080702 0.239661
0.239661 0.080702 0.239661
0.719279 0.080702 0.239661
1.000000 0.080702 0.239661
0.001701 0.239661 0.239661
0.004771 0.239661 0.239661
0.010557 0.239661 0.239661
0.028019 0.239661 0.239661
0.080702 0.239661 0.239661
0.239661 0.239661 0.239661
0.719279 0.239661 0.239661
1.000000 0.239661 0.239661
0.001701 0.719279 0.239661
0.004771 0.719279 0.239661
0.010557 0.719279 0.239661
0.028019 0.719279 0.239661
0.080702 0.719279 0.239661
0.239661 0.719279 0.239661
0.719279 0.719279 0.239661
1.000000 0.719279 0.239661
0.001701 1.000000 0.239661
0.004771 1.000000 0.239661
0.010557 1.000000 0.239661
0.028019 1.000000 0.239661
0.080702 1.000000 0.239661
0.239661 1.000000 0.239661
0.719279 1.000000 0.239661
1.000000 1.000000 0.239661
0.001701 0.001701 0.719279
0.004771 0.001701 0.719279
0.010557 0.001701 0.719279
0.028019 0.001701 0.719279
0.080702 0.001701 0.719279
0.239661 0.001701 0.719279
0.719279 0.001701 0.719279
1.000000 0.001701 0.719279
0.001701 0.004771 0.719279
0.004771 0.004771 0.719279
0.010557 0.004771 0.719279
0.028019 0.004771 0.719279
0.080702 0.004771 0.719279
0.239661 0.004771 0.719279
0.719279 0.004771 0.719279
1.000000 0.004771 0.719279
0.001701 0.010557 0.719279
0.004771 0.010557 0.719279
0.010557 0.010557 0.719279
0.028019 0.010557 0.719279
0.080702 0.010557 0.719279
0.239661 0.010557 0.719279
0.719279 0.010557 0.719279
1.000000 0.010557 0.719279
0.001701 0.028019 0.719279
0.004771 0.028019 0.719279
0.010557 0.028019 0.719279
0.028019 0.028019 0.719279
0.080702 0.028019 0.719279
0.239661 0.028019 0.719279
0.719279 0.028019 0.719279
1.000000 0.028019 0.719279
0.001701 0.080702 0.719279
0.004771 0.080702 0.719279
0.010557 0.080702 0.719279
0.028019 0.080702 0.719279
0.080702 0.080702 0.719279
0.239661 0.080702 0.719279
0.719279 0.080702 0.719279
1.000000 0.080702 0.719279
0.001701 0.239661 0.719279
0.004771 0.239661 0.719279
0.010557 0.239661 0.719279
0.028019 0.239661 0.719279
0.080702 0.239661 0.719279
0.239661 0.239661 0.719279
0.719279 0.239661 0.719279
1.000000 0.239661 0.719279
0.001701 0.719279 0.719279
0.004771 0.719279 0.719279
0.010557 0.719279 0.719279
0.028019 0.719279 0.719279
0.080702 0.719279 0.719279
0.239661 0.719279 0.719279
0.719279 0.719279 0.719279
1.000000 0.719279 0.719279
0.001701 1.000000 0.719279
0.004771 1.000000 0.719279
0.010557 1.000000 0.719279
0.028019 1.000000 0.719279
0.080702 1.000000 0.719279
0.239661 1.000000 0.719279
0.719279 1.000000 0.719279
1.000000 1.000000 0.719279
0.001701 0.001701 1.000000
0.004771 0.001701 1.000000
0.010557 0.001701 1.000000
0.028019 0.001701 1.000000
0.080702 0.001701 1.000000
0.239661 0.001701 1.000000
0.719279 0.001701 1.000000
1.000000 0.001701 1.000000
0.001701 0.004771 1.000000
0.004771 0.004771 1.000000
0.010557 0.004771 1.000000
0.028019 0.004771 1.000000
0.080702 0.004771 1.000000
0.239661 0.004771 1.000000
0.719279 0.004771 1.000000
1.000000 0.004771 1.000000
0.001701 0.010557 1.000000
0.004771 0.010557 1.000000
0.010557 0.010557 1.000000
0.028019 0.010557 1.000000
0.080702 0.010557 1.000000
0.239661 0.010557 1.000000
0.719279 0.010557 1.000000
1.000000 0.010557 1.000000
0.001701 0.028019 1.000000
0.004771 0.028019 1.000000
0.010557 0.028019 1.000000
0.028019 0.028019 1.000000
0.080702 0.028019 1.000000
0.239661 0.028019 1.000000
0.719279 0.028019 1.000000
1.000000 0.028019 1.000000
0.001701 0.080702 1.000000
0.004771 0.080702 1.000000
0.010557 0.080702 1.000000
0.028019 0.080702 1.000000
0.080702 0.080702 1.000000
0.239661 0.080702 1.000000
0.719279 0.080702 1.000000
1.000000 0.080702 1.000000
0.001701 0.239661 1.000000
0.004771 0.239661 1.000000
0.010557 0.239661 1.000000
0.028019 0.239661 1.000000
0.080702 0.239661 1.000000
0.239661 0.239661 1.000000
0.719279 0.239661 1.000000
1.000000 0.239661 1.000000
0.001701 0.719279 1.000000
0.004771 0.719279 1.000000
0.010557 0.719279 1.000000
0.028019 0.719279 1.000000
0.080702 0.719279 1.000000
0.239661 0.719279 1.000000
0.719279 0.719279 1.000000
1.000000 0.719279 1.000000
0.001701 1.000000 1.000000
0.004771 1.000000 1.000000
0.010557 1.000000 1.000000
0.028019 1.000000 1.000000
0.080702 1.000000 1.000000
0.239661 1.000000 1.000000
0.719279 1.000000 1.000000
1.000000 1.000000 1.000000
