.nuke/nuke.LUT/logC-2-linear_extended/AlexaV3_EI0200_LogC2Linear_EE_nuke3d.cube
# Alexa conversion LUT, logc2lin. Full in/full out.
# created by alexalutconv (2.07)
LUT_3D_SIZE 8
DOMAIN_MIN 0.000000 0.000000 0.000000
DOMAIN_MAX 0.903226 0.903226 0.903226
0.002122 0.002122 0.002122
0.004604 0.002122 0.002122
0.009187 0.002122 0.002122
0.023191 0.002122 0.002122
0.065976 0.002122 0.002122
0.196703 0.002122 0.002122
0.596129 0.002122 0.002122
1.000000 0.002122 0.002122
0.002122 0.004604 0.002122
0.004604 0.004604 0.002122
0.009187 0.004604 0.002122
0.023191 0.004604 0.002122
0.065976 0.004604 0.002122
0.196703 0.004604 0.002122
0.596129 0.004604 0.002122
1.000000 0.004604 0.002122
0.002122 0.009187 0.002122
0.004604 0.009187 0.002122
0.009187 0.009187 0.002122
0.023191 0.009187 0.002122
0.065976 0.009187 0.002122
0.196703 0.009187 0.002122
0.596129 0.009187 0.002122
1.000000 0.009187 0.002122
0.002122 0.023191 0.002122
0.004604 0.023191 0.002122
0.009187 0.023191 0.002122
0.023191 0.023191 0.002122
0.065976 0.023191 0.002122
0.196703 0.023191 0.002122
0.596129 0.023191 0.002122
1.000000 0.023191 0.002122
0.002122 0.065976 0.002122
0.004604 0.065976 0.002122
0.009187 0.065976 0.002122
0.023191 0.065976 0.002122
0.065976 0.065976 0.002122
0.196703 0.065976 0.002122
0.596129 0.065976 0.002122
1.000000 0.065976 0.002122
0.002122 0.196703 0.002122
0.004604 0.196703 0.002122
0.009187 0.196703 0.002122
0.023191 0.196703 0.002122
0.065976 0.196703 0.002122
0.196703 0.196703 0.002122
0.596129 0.196703 0.002122
1.000000 0.196703 0.002122
0.002122 0.596129 0.002122
0.004604 0.596129 0.002122
0.009187 0.596129 0.002122
0.023191 0.596129 0.002122
0.065976 0.596129 0.002122
0.196703 0.596129 0.002122
0.596129 0.596129 0.002122
1.000000 0.596129 0.002122
0.002122 1.000000 0.002122
0.004604 1.000000 0.002122
0.009187 1.000000 0.002122
0.023191 1.000000 0.002122
0.065976 1.000000 0.002122
0.196703 1.000000 0.002122
0.596129 1.000000 0.002122
1.000000 1.000000 0.002122
0.002122 0.002122 0.004604
0.004604 0.002122 0.004604
0.009187 0.002122 0.004604
0.023191 0.002122 0.004604
0.065976 0.002122 0.004604
0.196703 0.002122 0.004604
0.596129 0.002122 0.004604
1.000000 0.002122 0.004604
0.002122 0.004604 0.004604
0.004604 0.004604 0.004604
0.009187 0.004604 0.004604
0.023191 0.004604 0.004604
0.065976 0.004604 0.004604
0.196703 0.004604 0.004604
0.596129 0.004604 0.004604
1.000000 0.004604 0.004604
0.002122 0.009187 0.004604
0.004604 0.009187 0.004604
0.009187 0.009187 0.004604
0.023191 0.009187 0.004604
0.065976 0.009187 0.004604
0.196703 0.009187 0.004604
0.596129 0.009187 0.004604
1.000000 0.009187 0.004604
0.002122 0.023191 0.004604
0.004604 0.023191 0.004604
0.009187 0.023191 0.004604
0.023191 0.023191 0.004604
0.065976 0.023191 0.004604
0.196703 0.023191 0.004604
0.596129 0.023191 0.004604
1.000000 0.023191 0.004604
0.002122 0.065976 0.004604
0.004604 0.065976 0.004604
0.009187 0.065976 0.004604
0.023191 0.065976 0.004604
0.065976 0.065976 0.004604
0.196703 0.065976 0.004604
0.596129 0.065976 0.004604
1.000000 0.065976 0.004604
0.002122 0.196703 0.004604
0.004604 0.196703 0.004604
0.009187 0.196703 0.004604
0.023191 0.196703 0.004604
0.065976 0.196703 0.004604
0.196703 0.196703 0.004604
0.596129 0.196703 0.004604
1.000000 0.196703 0.004604
0.002122 0.596129 0.004604
0.004604 0.596129 0.004604
0.009187 0.596129 0.004604
0.023191 0.596129 0.004604
0.065976 0.596129 0.004604
0.196703 0.596129 0.004604
0.596129 0.596129 0.004604
1.000000 0.596129 0.004604
0.002122 1.000000 0.004604
0.004604 1.000000 0.004604
0.009187 1.000000 0.004604
0.023191 1.000000 0.004604
0.065976 1.000000 0.004604
0.196703 1.000000 0.004604
0.596129 1.000000 0.004604
1.000000 1.000000 0.004604
0.002122 0.002122 0.009187
0.004604 0.002122 0.009187
0.009187 0.002122 0.009187
0.023191 0.002122 0.009187
0.065976 0.002122 0.009187
0.196703 0.002122 0.009187
0.596129 0.002122 0.009187
1.000000 0.002122 0.009187
0.002122 0.004604 0.009187
0.004604 0.004604 0.009187
0.009187 0.004604 0.009187
0.023191 0.004604 0.009187
0.065976 0.004604 0.009187
0.196703 0.004604 0.009187
0.596129 0.004604 0.009187
1.000000 0.004604 0.009187
0.002122 0.009187 0.009187
0.004604 0.009187 0.009187
0.009187 0.009187 0.009187
0.023191 0.009187 0.009187
0.065976 0.009187 0.009187
0.196703 0.009187 0.009187
0.596129 0.009187 0.009187
1.000000 0.009187 0.009187
0.002122 0.023191 0.009187
0.004604 0.023191 0.009187
0.009187 0.023191 0.009187
0.023191 0.023191 0.009187
0.065976 0.023191 0.009187
0.196703 0.023191 0.009187
0.596129 0.023191 0.009187
1.000000 0.023191 0.009187
0.002122 0.065976 0.009187
0.004604 0.065976 0.009187
0.009187 0.065976 0.009187
0.023191 0.065976 0.009187
0.065976 0.065976 0.009187
0.196703 0.065976 0.009187
0.596129 0.065976 0.009187
1.000000 0.065976 0.009187
0.002122 0.196703 0.009187
0.004604 0.196703 0.009187
0.009187 0.196703 0.009187
0.023191 0.196703 0.009187
0.065976 0.196703 0.009187
0.196703 0.196703 0.009187
0.596129 0.196703 0.009187
1.000000 0.196703 0.009187
0.002122 0.596129 0.009187
0.004604 0.596129 0.009187
0.009187 0.596129 0.009187
0.023191 0.596129 0.009187
0.065976 0.596129 0.009187
0.196703 0.596129 0.009187
0.596129 0.596129 0.009187
1.000000 0.596129 0.009187
0.002122 1.000000 0.009187
0.004604 1.000000 0.009187
0.009187 1.000000 0.009187
0.023191 1.000000 0.009187
0.065976 1.000000 0.009187
0.196703 1.000000 0.009187
0.596129 1.000000 0.009187
1.000000 1.000000 0.009187
0.002122 0.002122 0.023191
0.004604 0.002122 0.023191
0.009187 0.002122 0.023191
0.023191 0.002122 0.023191
0.065976 0.002122 0.023191
0.196703 0.002122 0.023191
0.596129 0.002122 0.023191
1.000000 0.002122 0.023191
0.002122 0.004604 0.023191
0.004604 0.004604 0.023191
0.009187 0.004604 0.023191
0.023191 0.004604 0.023191
0.065976 0.004604 0.023191
0.196703 0.004604 0.023191
0.596129 0.004604 0.023191
1.000000 0.004604 0.023191
0.002122 0.009187 0.023191
0.004604 0.009187 0.023191
0.009187 0.009187 0.023191
0.023191 0.009187 0.023191
0.065976 0.009187 0.023191
0.196703 0.009187 0.023191
0.596129 0.009187 0.023191
1.000000 0.009187 0.023191
0.002122 0.023191 0.023191
0.004604 0.023191 0.023191
0.009187 0.023191 0.023191
0.023191 0.023191 0.023191
0.065976 0.023191 0.023191
0.196703 0.023191 0.023191
0.596129 0.023191 0.023191
1.000000 0.023191 0.023191
0.002122 0.065976 0.023191
0.004604 0.065976 0.023191
0.009187 0.065976 0.023191
0.023191 0.065976 0.023191
0.065976 0.065976 0.023191
0.196703 0.065976 0.023191
0.596129 0.065976 0.023191
1.000000 0.065976 0.023191
0.002122 0.196703 0.023191
0.004604 0.196703 0.023191
0.009187 0.196703 0.023191
0.023191 0.196703 0.023191
0.065976 0.196703 0.023191
0.196703 0.196703 0.023191
0.596129 0.196703 0.023191
1.000000 0.196703 0.023191
0.002122 0.596129 0.023191
0.004604 0.596129 0.023191
0.009187 0.596129 0.023191
0.023191 0.596129 0.023191
0.065976 0.596129 0.023191
0.196703 0.596129 0.023191
0.596129 0.596129 0.023191
1.000000 0.596129 0.023191
0.002122 1.000000 0.023191
0.004604 1.000000 0.023191
0.009187 1.000000 0.023191
0.023191 1.000000 0.023191
0.065976 1.000000 0.023191
0.196703 1.000000 0.023191
0.596129 1.000000 0.023191
1.000000 1.000000 0.023191
0.002122 0.002122 0.065976
0.004604 0.002122 0.065976
0.009187 0.002122 0.065976
0.023191 0.002122 0.065976
0.065976 0.002122 0.065976
0.196703 0.002122 0.065976
0.596129 0.002122 0.065976
1.000000 0.002122 0.065976
0.002122 0.004604 0.065976
0.004604 0.004604 0.065976
0.009187 0.004604 0.065976
0.023191 0.004604 0.065976
0.065976 0.004604 0.065976
0.196703 0.004604 0.065976
0.596129 0.004604 0.065976
1.000000 0.004604 0.065976
0.002122 0.009187 0.065976
0.004604 0.009187 0.065976
0.009187 0.009187 0.065976
0.023191 0.009187 0.065976
0.065976 0.009187 0.065976
0.196703 0.009187 0.065976
0.596129 0.009187 0.065976
1.000000 0.009187 0.065976
0.002122 0.023191 0.065976
0.004604 0.023191 0.065976
0.009187 0.023191 0.065976
0.023191 0.023191 0.065976
0.065976 0.023191 0.065976
0.196703 0.023191 0.065976
0.596129 0.023191 0.065976
1.000000 0.023191 0.065976
0.002122 0.065976 0.065976
0.004604 0.065976 0.065976
0.009187 0.065976 0.065976
0.023191 0.065976 0.065976
0.065976 0.065976 0.065976
0.196703 0.065976 0.065976
0.596129 0.065976 0.065976
1.000000 0.065976 0.065976
0.002122 0.196703 0.065976
0.004604 0.196703 0.065976
0.009187 0.196703 0.065976
0.023191 0.196703 0.065976
0.065976 0.196703 0.065976
0.196703 0.196703 0.065976
0.596129 0.196703 0.065976
1.000000 0.196703 0.065976
0.002122 0.596129 0.065976
0.004604 0.596129 0.065976
0.009187 0.596129 0.065976
0.023191 0.596129 0.065976
0.065976 0.596129 0.065976
0.196703 0.596129 0.065976
0.596129 0.596129 0.065976
1.000000 0.596129 0.065976
0.002122 1.000000 0.065976
0.004604 1.000000 0.065976
0.009187 1.000000 0.065976
0.023191 1.000000 0.065976
0.065976 1.000000 0.065976
0.196703 1.000000 0.065976
0.596129 1.000000 0.065976
1.000000 1.000000 0.065976
0.002122 0.002122 0.196703
0.004604 0.002122 0.196703
0.009187 0.002122 0.196703
0.023191 0.002122 0.196703
0.065976 0.002122 0.196703
0.196703 0.002122 0.196703
0.596129 0.002122 0.196703
1.000000 0.002122 0.196703
0.002122 0.004604 0.196703
0.004604 0.004604 0.196703
0.009187 0.004604 0.196703
0.023191 0.004604 0.196703
0.065976 0.004604 0.196703
0.196703 0.004604 0.196703
0.596129 0.004604 0.196703
1.000000 0.004604 0.196703
0.002122 0.009187 0.196703
0.004604 0.009187 0.196703
0.009187 0.009187 0.196703
0.023191 0.009187 0.196703
0.065976 0.009187 0.196703
0.196703 0.009187 0.196703
0.596129 0.009187 0.196703
1.000000 0.009187 0.196703
0.002122 0.023191 0.196703
0.004604 0.023191 0.196703
0.009187 0.023191 0.196703
0.023191 0.023191 0.196703
0.065976 0.023191 0.196703
0.196703 0.023191 0.196703
0.596129 0.023191 0.196703
1.000000 0.023191 0.196703
0.002122 0.065976 0.196703
0.004604 0.065976 0.196703
0.009187 0.065976 0.196703
0.023191 0.065976 0.196703
0.065976 0.065976 0.196703
0.196703 0.065976 0.196703
0.596129 0.065976 0.196703
1.000000 0.065976 0.196703
0.002122 0.196703 0.196703
0.004604 0.196703 0.196703
0.009187 0.196703 0.196703
0.023191 0.196703 0.196703
0.065976 0.196703 0.196703
0.196703 0.196703 0.196703
0.596129 0.196703 0.196703
1.000000 0.196703 0.196703
0.002122 0.596129 0.196703
0.004604 0.596129 0.196703
0.009187 0.596129 0.196703
0.023191 0.596129 0.196703
0.065976 0.596129 0.196703
0.196703 0.596129 0.196703
0.596129 0.596129 0.196703
1.000000 0.596129 0.196703
0.002122 1.000000 0.196703
0.004604 1.000000 0.196703
0.009187 1.000000 0.196703
0.023191 1.000000 0.196703
0.065976 1.000000 0.196703
0.196703 1.000000 0.196703
0.596129 1.000000 0.196703
1.000000 1.000000 0.196703
0.002122 0.002122 0.596129
0.004604 0.002122 0.596129
0.009187 0.002122 0.596129
0.023191 0.002122 0.596129
0.065976 0.002122 0.596129
0.196703 0.002122 0.596129
0.596129 0.002122 0.596129
1.000000 0.002122 0.596129
0.002122 0.004604 0.596129
0.004604 0.004604 0.596129
0.009187 0.004604 0.596129
0.023191 0.004604 0.596129
0.065976 0.004604 0.596129
0.196703 0.004604 0.596129
0.596129 0.004604 0.596129
1.000000 0.004604 0.596129
0.002122 0.009187 0.596129
0.004604 0.009187 0.596129
0.009187 0.009187 0.596129
0.023191 0.009187 0.596129
0.065976 0.009187 0.596129
0.196703 0.009187 0.596129
0.596129 0.009187 0.596129
1.000000 0.009187 0.596129
0.002122 0.023191 0.596129
0.004604 0.023191 0.596129
0.009187 0.023191 0.596129
0.023191 0.023191 0.596129
0.065976 0.023191 0.596129
0.196703 0.023191 0.596129
0.596129 0.023191 0.596129
1.000000 0.023191 0.596129
0.002122 0.065976 0.596129
0.004604 0.065976 0.596129
0.009187 0.065976 0.596129
0.023191 0.065976 0.596129
0.065976 0.065976 0.596129
0.196703 0.065976 0.596129
0.596129 0.065976 0.596129
1.000000 0.065976 0.596129
0.002122 0.196703 0.596129
0.004604 0.196703 0.596129
0.009187 0.196703 0.596129
0.023191 0.196703 0.596129
0.065976 0.196703 0.596129
0.196703 0.196703 0.596129
0.596129 0.196703 0.596129
1.000000 0.196703 0.596129
0.002122 0.596129 0.596129
0.004604 0.596129 0.596129
0.009187 0.596129 0.596129
0.023191 0.596129 0.596129
0.065976 0.596129 0.596129
0.196703 0.596129 0.596129
0.596129 0.596129 0.596129
1.000000 0.596129 0.596129
0.002122 1.000000 0.596129
0.004604 1.000000 0.596129
0.009187 1.000000 0.596129
0.023191 1.000000 0.596129
0.065976 1.000000 0.596129
0.196703 1.000000 0.596129
0.596129 1.000000 0.596129
1.000000 1.000000 0.596129
0.002122 0.002122 1.000000
0.004604 0.002122 1.000000
0.009187 0.002122 1.000000
0.023191 0.002122 1.000000
0.065976 0.002122 1.000000
0.196703 0.002122 1.000000
0.596129 0.002122 1.000000
1.000000 0.002122 1.000000
0.002122 0.004604 1.000000
0.004604 0.004604 1.000000
0.009187 0.004604 1.000000
0.023191 0.004604 1.000000
0.065976 0.004604 1.000000
0.196703 0.004604 1.000000
0.596129 0.004604 1.000000
1.000000 0.004604 1.000000
0.002122 0.009187 1.000000
0.004604 0.009187 1.000000
0.009187 0.009187 1.000000
0.023191 0.009187 1.000000
0.065976 0.009187 1.000000
0.196703 0.009187 1.000000
0.596129 0.009187 1.000000
1.000000 0.009187 1.000000
0.002122 0.023191 1.000000
0.004604 0.023191 1.000000
0.009187 0.023191 1.000000
0.023191 0.023191 1.000000
0.065976 0.023191 1.000000
0.196703 0.023191 1.000000
0.596129 0.023191 1.000000
1.000000 0.023191 1.000000
0.002122 0.065976 1.000000
0.004604 0.065976 1.000000
0.009187 0.065976 1.000000
0.023191 0.065976 1.000000
0.065976 0.065976 1.000000
0.196703 0.065976 1.000000
0.596129 0.065976 1.000000
1.000000 0.065976 1.000000
0.002122 0.196703 1.000000
0.004604 0.196703 1.000000
0.009187 0.196703 1.000000
0.023191 0.196703 1.000000
0.065976 0.196703 1.000000
0.196703 0.196703 1.000000
0.596129 0.196703 1.000000
1.000000 0.196703 1.000000
0.002122 0.596129 1.000000
0.004604 0.596129 1.000000
0.009187 0.596129 1.000000
0.023191 0.596129 1.000000
0.065976 0.596129 1.000000
0.196703 0.596129 1.000000
0.596129 0.596129 1.000000
1.000000 0.596129 1.000000
0.002122 1.000000 1.000000
0.004604 1.000000 1.000000
0.009187 1.000000 1.000000
0.023191 1.000000 1.000000
0.065976 1.000000 1.000000
0.196703 1.000000 1.000000
0.596129 1.000000 1.000000
1.000000 1.000000 1.000000
