.nuke/nuke.LUT/logC-2-linear_extended/AlexaV3_EI0500_LogC2Linear_EE_nuke3d.cube
# Alexa conversion LUT, logc2lin. Full in/full out.
# created by alexalutconv (2.07)
LUT_3D_SIZE 5
DOMAIN_MIN 0.000000 0.000000 0.000000
DOMAIN_MAX 0.903226 0.903226 0.903226
0.003158 0.003158 0.003158
0.005313 0.003158 0.003158
0.018136 0.003158 0.003158
0.117788 0.003158 0.003158
0.892243 0.003158 0.003158
0.003158 0.005313 0.003158
0.005313 0.005313 0.003158
0.018136 0.005313 0.003158
0.117788 0.005313 0.003158
0.892243 0.005313 0.003158
0.003158 0.018136 0.003158
0.005313 0.018136 0.003158
0.018136 0.018136 0.003158
0.117788 0.018136 0.003158
0.892243 0.018136 0.003158
0.003158 0.117788 0.003158
0.005313 0.117788 0.003158
0.018136 0.117788 0.003158
0.117788 0.117788 0.003158
0.892243 0.117788 0.003158
0.003158 0.892243 0.003158
0.005313 0.892243 0.003158
0.018136 0.892243 0.003158
0.117788 0.892243 0.003158
0.892243 0.892243 0.003158
0.003158 0.003158 0.005313
0.005313 0.003158 0.005313
0.018136 0.003158 0.005313
0.117788 0.003158 0.005313
0.892243 0.003158 0.005313
0.003158 0.005313 0.005313
0.005313 0.005313 0.005313
0.018136 0.005313 0.005313
0.117788 0.005313 0.005313
0.892243 0.005313 0.005313
0.003158 0.018136 0.005313
0.005313 0.018136 0.005313
0.018136 0.018136 0.005313
0.117788 0.018136 0.005313
0.892243 0.018136 0.005313
0.003158 0.117788 0.005313
0.005313 0.117788 0.005313
0.018136 0.117788 0.005313
0.117788 0.117788 0.005313
0.892243 0.117788 0.005313
0.003158 0.892243 0.005313
0.005313 0.892243 0.005313
0.018136 0.892243 0.005313
0.117788 0.892243 0.005313
0.892243 0.892243 0.005313
0.003158 0.003158 0.018136
0.005313 0.003158 0.018136
0.018136 0.003158 0.018136
0.117788 0.003158 0.018136
0.892243 0.003158 0.018136
0.003158 0.005313 0.018136
0.005313 0.005313 0.018136
0.018136 0.005313 0.018136
0.117788 0.005313 0.018136
0.892243 0.005313 0.018136
0.003158 0.018136 0.018136
0.005313 0.018136 0.018136
0.018136 0.018136 0.018136
0.117788 0.018136 0.018136
0.892243 0.018136 0.018136
0.003158 0.117788 0.018136
0.005313 0.117788 0.018136
0.018136 0.117788 0.018136
0.117788 0.117788 0.018136
0.892243 0.117788 0.018136
0.003158 0.892243 0.018136
0.005313 0.892243 0.018136
0.018136 0.892243 0.018136
0.117788 0.892243 0.018136
0.892243 0.892243 0.018136
0.003158 0.003158 0.117788
0.005313 0.003158 0.117788
0.018136 0.003158 0.117788
0.117788 0.003158 0.117788
0.892243 0.003158 0.117788
0.003158 0.005313 0.117788
0.005313 0.005313 0.117788
0.018136 0.005313 0.117788
0.117788 0.005313 0.117788
0.892243 0.005313 0.117788
0.003158 0.018136 0.117788
0.005313 0.018136 0.117788
0.018136 0.018136 0.117788
0.117788 0.018136 0.117788
0.892243 0.018136 0.117788
0.003158 0.117788 0.117788
0.005313 0.117788 0.117788
0.018136 0.117788 0.117788
0.117788 0.117788 0.117788
0.892243 0.117788 0.117788
0.003158 0.892243 0.117788
0.005313 0.892243 0.117788
0.018136 0.892243 0.117788
0.117788 0.892243 0.117788
0.892243 0.892243 0.117788
0.003158 0.003158 0.892243
0.005313 0.003158 0.892243
0.018136 0.003158 0.892243
0.117788 0.003158 0.892243
0.892243 0.003158 0.892243
0.003158 0.005313 0.892243
0.005313 0.005313 0.892243
0.018136 0.005313 0.892243
0.117788 0.005313 0.892243
0.892243 0.005313 0.892243
0.003158 0.018136 0.892243
0.005313 0.018136 0.892243
0.018136 0.018136 0.892243
0.117788 0.018136 0.892243
0.892243 0.018136 0.892243
0.003158 0.117788 0.892243
0.005313 0.117788 0.892243
0.018136 0.117788 0.892243
0.117788 0.117788 0.892243
0.892243 0.117788 0.892243
0.003158 0.892243 0.892243
0.005313 0.892243 0.892243
0.018136 0.892243 0.892243
0.117788 0.892243 0.892243
0.892243 0.892243 0.892243
