.nuke/nuke.LUT/logC-2-linear_extended/AlexaV3_EI2560_LogC2Linear_EE_nuke3d.cube
# Alexa conversion LUT, logc2lin. Full in/full out.
# created by alexalutconv (2.07)
LUT_3D_SIZE 5
DOMAIN_MIN 0.000000 0.000000 0.000000
DOMAIN_MAX 0.903226 0.903226 0.903226
0.003747 0.003747 0.003747
0.004173 0.003747 0.003747
0.006800 0.003747 0.003747
0.031650 0.003747 0.003747
0.291319 0.003747 0.003747
0.003747 0.004173 0.003747
0.004173 0.004173 0.003747
0.006800 0.004173 0.003747
0.031650 0.004173 0.003747
0.291319 0.004173 0.003747
0.003747 0.006800 0.003747
0.004173 0.006800 0.003747
0.006800 0.006800 0.003747
0.031650 0.006800 0.003747
0.291319 0.006800 0.003747
0.003747 0.031650 0.003747
0.004173 0.031650 0.003747
0.006800 0.031650 0.003747
0.031650 0.031650 0.003747
0.291319 0.031650 0.003747
0.003747 0.291319 0.003747
0.004173 0.291319 0.003747
0.006800 0.291319 0.003747
0.031650 0.291319 0.003747
0.291319 0.291319 0.003747
0.003747 0.003747 0.004173
0.004173 0.003747 0.004173
0.006800 0.003747 0.004173
0.031650 0.003747 0.004173
0.291319 0.003747 0.004173
0.003747 0.004173 0.004173
0.004173 0.004173 0.004173
0.006800 0.004173 0.004173
0.031650 0.004173 0.004173
0.291319 0.004173 0.004173
0.003747 0.006800 0.004173
0.004173 0.006800 0.004173
0.006800 0.006800 0.004173
0.031650 0.006800 0.004173
0.291319 0.006800 0.004173
0.003747 0.031650 0.004173
0.004173 0.031650 0.004173
0.006800 0.031650 0.004173
0.031650 0.031650 0.004173
0.291319 0.031650 0.004173
0.003747 0.291319 0.004173
0.004173 0.291319 0.004173
0.006800 0.291319 0.004173
0.031650 0.291319 0.004173
0.291319 0.291319 0.004173
0.003747 0.003747 0.006800
0.004173 0.003747 0.006800
0.006800 0.003747 0.006800
0.031650 0.003747 0.006800
0.291319 0.003747 0.006800
0.003747 0.004173 0.006800
0.004173 0.004173 0.006800
0.006800 0.004173 0.006800
0.031650 0.004173 0.006800
0.291319 0.004173 0.006800
0.003747 0.006800 0.006800
0.004173 0.006800 0.006800
0.006800 0.006800 0.006800
0.031650 0.006800 0.006800
0.291319 0.006800 0.006800
0.003747 0.031650 0.006800
0.004173 0.031650 0.006800
0.006800 0.031650 0.006800
0.031650 0.031650 0.006800
0.291319 0.031650 0.006800
0.003747 0.291319 0.006800
0.004173 0.291319 0.006800
0.006800 0.291319 0.006800
0.031650 0.291319 0.006800
0.291319 0.291319 0.006800
0.003747 0.003747 0.031650
0.004173 0.003747 0.031650
0.006800 0.003747 0.031650
0.031650 0.003747 0.031650
0.291319 0.003747 0.031650
0.003747 0.004173 0.031650
0.004173 0.004173 0.031650
0.006800 0.004173 0.031650
0.031650 0.004173 0.031650
0.291319 0.004173 0.031650
0.003747 0.006800 0.031650
0.004173 0.006800 0.031650
0.006800 0.006800 0.031650
0.031650 0.006800 0.031650
0.291319 0.006800 0.031650
0.003747 0.031650 0.031650
0.004173 0.031650 0.031650
0.006800 0.031650 0.031650
0.031650 0.031650 0.031650
0.291319 0.031650 0.031650
0.003747 0.291319 0.031650
0.004173 0.291319 0.031650
0.006800 0.291319 0.031650
0.031650 0.291319 0.031650
0.291319 0.291319 0.031650
0.003747 0.003747 0.291319
0.004173 0.003747 0.291319
0.006800 0.003747 0.291319
0.031650 0.003747 0.291319
0.291319 0.003747 0.291319
0.003747 0.004173 0.291319
0.004173 0.004173 0.291319
0.006800 0.004173 0.291319
0.031650 0.004173 0.291319
0.291319 0.004173 0.291319
0.003747 0.006800 0.291319
0.004173 0.006800 0.291319
0.006800 0.006800 0.291319
0.031650 0.006800 0.291319
0.291319 0.006800 0.291319
0.003747 0.031650 0.291319
0.004173 0.031650 0.291319
0.006800 0.031650 0.291319
0.031650 0.031650 0.291319
0.291319 0.031650 0.291319
0.003747 0.291319 0.291319
0.004173 0.291319 0.291319
0.006800 0.291319 0.291319
0.031650 0.291319 0.291319
0.291319 0.291319 0.291319
