.nuke/nuke.LUT/logC-2-linear_extended/AlexaV3_EI1280_LogC2Linear_EE_nuke3d.cube
# Alexa conversion LUT, logc2lin. Full in/full out.
# created by alexalutconv (2.07)
LUT_3D_SIZE 5
DOMAIN_MIN 0.000000 0.000000 0.000000
DOMAIN_MAX 0.903226 0.903226 0.903226
0.003599 0.003599 0.003599
0.004444 0.003599 0.003599
0.009591 0.003599 0.003599
0.054188 0.003599 0.003599
0.440549 0.003599 0.003599
0.003599 0.004444 0.003599
0.004444 0.004444 0.003599
0.009591 0.004444 0.003599
0.054188 0.004444 0.003599
0.440549 0.004444 0.003599
0.003599 0.009591 0.003599
0.004444 0.009591 0.003599
0.009591 0.009591 0.003599
0.054188 0.009591 0.003599
0.440549 0.009591 0.003599
0.003599 0.054188 0.003599
0.004444 0.054188 0.003599
0.009591 0.054188 0.003599
0.054188 0.054188 0.003599
0.440549 0.054188 0.003599
0.003599 0.440549 0.003599
0.004444 0.440549 0.003599
0.009591 0.440549 0.003599
0.054188 0.440549 0.003599
0.440549 0.440549 0.003599
0.003599 0.003599 0.004444
0.004444 0.003599 0.004444
0.009591 0.003599 0.004444
0.054188 0.003599 0.004444
0.440549 0.003599 0.004444
0.003599 0.004444 0.004444
0.004444 0.004444 0.004444
0.009591 0.004444 0.004444
0.054188 0.004444 0.004444
0.440549 0.004444 0.004444
0.003599 0.009591 0.004444
0.004444 0.009591 0.004444
0.009591 0.009591 0.004444
0.054188 0.009591 0.004444
0.440549 0.009591 0.004444
0.003599 0.054188 0.004444
0.004444 0.054188 0.004444
0.009591 0.054188 0.004444
0.054188 0.054188 0.004444
0.440549 0.054188 0.004444
0.003599 0.440549 0.004444
0.004444 0.440549 0.004444
0.009591 0.440549 0.004444
0.054188 0.440549 0.004444
0.440549 0.440549 0.004444
0.003599 0.003599 0.009591
0.004444 0.003599 0.009591
0.009591 0.003599 0.009591
0.054188 0.003599 0.009591
0.440549 0.003599 0.009591
0.003599 0.004444 0.009591
0.004444 0.004444 0.009591
0.009591 0.004444 0.009591
0.054188 0.004444 0.009591
0.440549 0.004444 0.009591
0.003599 0.009591 0.009591
0.004444 0.009591 0.009591
0.009591 0.009591 0.009591
0.054188 0.009591 0.009591
0.440549 0.009591 0.009591
0.003599 0.054188 0.009591
0.004444 0.054188 0.009591
0.009591 0.054188 0.009591
0.054188 0.054188 0.009591
0.440549 0.054188 0.009591
0.003599 0.440549 0.009591
0.004444 0.440549 0.009591
0.009591 0.440549 0.009591
0.054188 0.440549 0.009591
0.440549 0.440549 0.009591
0.003599 0.003599 0.054188
0.004444 0.003599 0.054188
0.009591 0.003599 0.054188
0.054188 0.003599 0.054188
0.440549 0.003599 0.054188
0.003599 0.004444 0.054188
0.004444 0.004444 0.054188
0.009591 0.004444 0.054188
0.054188 0.004444 0.054188
0.440549 0.004444 0.054188
0.003599 0.009591 0.054188
0.004444 0.009591 0.054188
0.009591 0.009591 0.054188
0.054188 0.009591 0.054188
0.440549 0.009591 0.054188
0.003599 0.054188 0.054188
0.004444 0.054188 0.054188
0.009591 0.054188 0.054188
0.054188 0.054188 0.054188
0.440549 0.054188 0.054188
0.003599 0.440549 0.054188
0.004444 0.440549 0.054188
0.009591 0.440549 0.054188
0.054188 0.440549 0.054188
0.440549 0.440549 0.054188
0.003599 0.003599 0.440549
0.004444 0.003599 0.440549
0.009591 0.003599 0.440549
0.054188 0.003599 0.440549
0.440549 0.003599 0.440549
0.003599 0.004444 0.440549
0.004444 0.004444 0.440549
0.009591 0.004444 0.440549
0.054188 0.004444 0.440549
0.440549 0.004444 0.440549
0.003599 0.009591 0.440549
0.004444 0.009591 0.440549
0.009591 0.009591 0.440549
0.054188 0.009591 0.440549
0.440549 0.009591 0.440549
0.003599 0.054188 0.440549
0.004444 0.054188 0.440549
0.009591 0.054188 0.440549
0.054188 0.054188 0.440549
0.440549 0.054188 0.440549
0.003599 0.440549 0.440549
0.004444 0.440549 0.440549
0.009591 0.440549 0.440549
0.054188 0.440549 0.440549
0.440549 0.440549 0.440549
