.nuke/nuke.LUT/logC-2-linear_extended/AlexaV3_EI0320_LogC2Linear_EE_nuke3d.cube
# Alexa conversion LUT, logc2lin. Full in/full out.
# created by alexalutconv (2.07)
LUT_3D_SIZE 32
0.002764 0.002764 0.002764
0.003162 0.002764 0.002764
0.003559 0.002764 0.002764
0.003956 0.002764 0.002764
0.004354 0.002764 0.002764
0.004789 0.002764 0.002764
0.005366 0.002764 0.002764
0.006134 0.002764 0.002764
0.007157 0.002764 0.002764
0.008517 0.002764 0.002764
0.010329 0.002764 0.002764
0.012741 0.002764 0.002764
0.015952 0.002764 0.002764
0.020226 0.002764 0.002764
0.025915 0.002764 0.002764
0.033490 0.002764 0.002764
0.043573 0.002764 0.002764
0.056995 0.002764 0.002764
0.074863 0.002764 0.002764
0.098650 0.002764 0.002764
0.130314 0.002764 0.002764
0.172467 0.002764 0.002764
0.228580 0.002764 0.002764
0.303280 0.002764 0.002764
0.402721 0.002764 0.002764
0.535098 0.002764 0.002764
0.711321 0.002764 0.002764
0.945909 0.002764 0.002764
1.000000 0.002764 0.002764
1.000000 0.002764 0.002764
1.000000 0.002764 0.002764
1.000000 0.002764 0.002764
0.002764 0.003162 0.002764
0.003162 0.003162 0.002764
0.003559 0.003162 0.002764
0.003956 0.003162 0.002764
0.004354 0.003162 0.002764
0.004789 0.003162 0.002764
0.005366 0.003162 0.002764
0.006134 0.003162 0.002764
0.007157 0.003162 0.002764
0.008517 0.003162 0.002764
0.010329 0.003162 0.002764
0.012741 0.003162 0.002764
0.015952 0.003162 0.002764
0.020226 0.003162 0.002764
0.025915 0.003162 0.002764
0.033490 0.003162 0.002764
0.043573 0.003162 0.002764
0.056995 0.003162 0.002764
0.074863 0.003162 0.002764
0.098650 0.003162 0.002764
0.130314 0.003162 0.002764
0.172467 0.003162 0.002764
0.228580 0.003162 0.002764
0.303280 0.003162 0.002764
0.402721 0.003162 0.002764
0.535098 0.003162 0.002764
0.711321 0.003162 0.002764
0.945909 0.003162 0.002764
1.000000 0.003162 0.002764
1.000000 0.003162 0.002764
1.000000 0.003162 0.002764
1.000000 0.003162 0.002764
0.002764 0.003559 0.002764
0.003162 0.003559 0.002764
0.003559 0.003559 0.002764
0.003956 0.003559 0.002764
0.004354 0.003559 0.002764
0.004789 0.003559 0.002764
0.005366 0.003559 0.002764
0.006134 0.003559 0.002764
0.007157 0.003559 0.002764
0.008517 0.003559 0.002764
0.010329 0.003559 0.002764
0.012741 0.003559 0.002764
0.015952 0.003559 0.002764
0.020226 0.003559 0.002764
0.025915 0.003559 0.002764
0.033490 0.003559 0.002764
0.043573 0.003559 0.002764
0.056995 0.003559 0.002764
0.074863 0.003559 0.002764
0.098650 0.003559 0.002764
0.130314 0.003559 0.002764
0.172467 0.003559 0.002764
0.228580 0.003559 0.002764
0.303280 0.003559 0.002764
0.402721 0.003559 0.002764
0.535098 0.003559 0.002764
0.711321 0.003559 0.002764
0.945909 0.003559 0.002764
1.000000 0.003559 0.002764
1.000000 0.003559 0.002764
1.000000 0.003559 0.002764
1.000000 0.003559 0.002764
0.002764 0.003956 0.002764
0.003162 0.003956 0.002764
0.003559 0.003956 0.002764
0.003956 0.003956 0.002764
0.004354 0.003956 0.002764
0.004789 0.003956 0.002764
0.005366 0.003956 0.002764
0.006134 0.003956 0.002764
0.007157 0.003956 0.002764
0.008517 0.003956 0.002764
0.010329 0.003956 0.002764
0.012741 0.003956 0.002764
0.015952 0.003956 0.002764
0.020226 0.003956 0.002764
0.025915 0.003956 0.002764
0.033490 0.003956 0.002764
0.043573 0.003956 0.002764
0.056995 0.003956 0.002764
0.074863 0.003956 0.002764
0.098650 0.003956 0.002764
0.130314 0.003956 0.002764
0.172467 0.003956 0.002764
0.228580 0.003956 0.002764
0.303280 0.003956 0.002764
0.402721 0.003956 0.002764
0.535098 0.003956 0.002764
0.711321 0.003956 0.002764
0.945909 0.003956 0.002764
1.000000 0.003956 0.002764
1.000000 0.003956 0.002764
1.000000 0.003956 0.002764
1.000000 0.003956 0.002764
0.002764 0.004354 0.002764
0.003162 0.004354 0.002764
0.003559 0.004354 0.002764
0.003956 0.004354 0.002764
0.004354 0.004354 0.002764
0.004789 0.004354 0.002764
0.005366 0.004354 0.002764
0.006134 0.004354 0.002764
0.007157 0.004354 0.002764
0.008517 0.004354 0.002764
0.010329 0.004354 0.002764
0.012741 0.004354 0.002764
0.015952 0.004354 0.002764
0.020226 0.004354 0.002764
0.025915 0.004354 0.002764
0.033490 0.004354 0.002764
0.043573 0.004354 0.002764
0.056995 0.004354 0.002764
0.074863 0.004354 0.002764
0.098650 0.004354 0.002764
0.130314 0.004354 0.002764
0.172467 0.004354 0.002764
0.228580 0.004354 0.002764
0.303280 0.004354 0.002764
0.402721 0.004354 0.002764
0.535098 0.004354 0.002764
0.711321 0.004354 0.002764
0.945909 0.004354 0.002764
1.000000 0.004354 0.002764
1.000000 0.004354 0.002764
1.000000 0.004354 0.002764
1.000000 0.004354 0.002764
0.002764 0.004789 0.002764
0.003162 0.004789 0.002764
0.003559 0.004789 0.002764
0.003956 0.004789 0.002764
0.004354 0.004789 0.002764
0.004789 0.004789 0.002764
0.005366 0.004789 0.002764
0.006134 0.004789 0.002764
0.007157 0.004789 0.002764
0.008517 0.004789 0.002764
0.010329 0.004789 0.002764
0.012741 0.004789 0.002764
0.015952 0.004789 0.002764
0.020226 0.004789 0.002764
0.025915 0.004789 0.002764
0.033490 0.004789 0.002764
0.043573 0.004789 0.002764
0.056995 0.004789 0.002764
0.074863 0.004789 0.002764
0.098650 0.004789 0.002764
0.130314 0.004789 0.002764
0.172467 0.004789 0.002764
0.228580 0.004789 0.002764
0.303280 0.004789 0.002764
0.402721 0.004789 0.002764
0.535098 0.004789 0.002764
0.711321 0.004789 0.002764
0.945909 0.004789 0.002764
1.000000 0.004789 0.002764
1.000000 0.004789 0.002764
1.000000 0.004789 0.002764
1.000000 0.004789 0.002764
0.002764 0.005366 0.002764
0.003162 0.005366 0.002764
0.003559 0.005366 0.002764
0.003956 0.005366 0.002764
0.004354 0.005366 0.002764
0.004789 0.005366 0.002764
0.005366 0.005366 0.002764
0.006134 0.005366 0.002764
0.007157 0.005366 0.002764
0.008517 0.005366 0.002764
0.010329 0.005366 0.002764
0.012741 0.005366 0.002764
0.015952 0.005366 0.002764
0.020226 0.005366 0.002764
0.025915 0.005366 0.002764
0.033490 0.005366 0.002764
0.043573 0.005366 0.002764
0.056995 0.005366 0.002764
0.074863 0.005366 0.002764
0.098650 0.005366 0.002764
0.130314 0.005366 0.002764
0.172467 0.005366 0.002764
0.228580 0.005366 0.002764
0.303280 0.005366 0.002764
0.402721 0.005366 0.002764
0.535098 0.005366 0.002764
0.711321 0.005366 0.002764
0.945909 0.005366 0.002764
1.000000 0.005366 0.002764
1.000000 0.005366 0.002764
1.000000 0.005366 0.002764
1.000000 0.005366 0.002764
0.002764 0.006134 0.002764
0.003162 0.006134 0.002764
0.003559 0.006134 0.002764
0.003956 0.006134 0.002764
0.004354 0.006134 0.002764
0.004789 0.006134 0.002764
0.005366 0.006134 0.002764
0.006134 0.006134 0.002764
0.007157 0.006134 0.002764
0.008517 0.006134 0.002764
0.010329 0.006134 0.002764
0.012741 0.006134 0.002764
0.015952 0.006134 0.002764
0.020226 0.006134 0.002764
0.025915 0.006134 0.002764
0.033490 0.006134 0.002764
0.043573 0.006134 0.002764
0.056995 0.006134 0.002764
0.074863 0.006134 0.002764
0.098650 0.006134 0.002764
0.130314 0.006134 0.002764
0.172467 0.006134 0.002764
0.228580 0.006134 0.002764
0.303280 0.006134 0.002764
0.402721 0.006134 0.002764
0.535098 0.006134 0.002764
0.711321 0.006134 0.002764
0.945909 0.006134 0.002764
1.000000 0.006134 0.002764
1.000000 0.006134 0.002764
1.000000 0.006134 0.002764
1.000000 0.006134 0.002764
0.002764 0.007157 0.002764
0.003162 0.007157 0.002764
0.003559 0.007157 0.002764
0.003956 0.007157 0.002764
0.004354 0.007157 0.002764
0.004789 0.007157 0.002764
0.005366 0.007157 0.002764
0.006134 0.007157 0.002764
0.007157 0.007157 0.002764
0.008517 0.007157 0.002764
0.010329 0.007157 0.002764
0.012741 0.007157 0.002764
0.015952 0.007157 0.002764
0.020226 0.007157 0.002764
0.025915 0.007157 0.002764
0.033490 0.007157 0.002764
0.043573 0.007157 0.002764
0.056995 0.007157 0.002764
0.074863 0.007157 0.002764
0.098650 0.007157 0.002764
0.130314 0.007157 0.002764
0.172467 0.007157 0.002764
0.228580 0.007157 0.002764
0.303280 0.007157 0.002764
0.402721 0.007157 0.002764
0.535098 0.007157 0.002764
0.711321 0.007157 0.002764
0.945909 0.007157 0.002764
1.000000 0.007157 0.002764
1.000000 0.007157 0.002764
1.000000 0.007157 0.002764
1.000000 0.007157 0.002764
0.002764 0.008517 0.002764
0.003162 0.008517 0.002764
0.003559 0.008517 0.002764
0.003956 0.008517 0.002764
0.004354 0.008517 0.002764
0.004789 0.008517 0.002764
0.005366 0.008517 0.002764
0.006134 0.008517 0.002764
0.007157 0.008517 0.002764
0.008517 0.008517 0.002764
0.010329 0.008517 0.002764
0.012741 0.008517 0.002764
0.015952 0.008517 0.002764
0.020226 0.008517 0.002764
0.025915 0.008517 0.002764
0.033490 0.008517 0.002764
0.043573 0.008517 0.002764
0.056995 0.008517 0.002764
0.074863 0.008517 0.002764
0.098650 0.008517 0.002764
0.130314 0.008517 0.002764
0.172467 0.008517 0.002764
0.228580 0.008517 0.002764
0.303280 0.008517 0.002764
0.402721 0.008517 0.002764
0.535098 0.008517 0.002764
0.711321 0.008517 0.002764
0.945909 0.008517 0.002764
1.000000 0.008517 0.002764
1.000000 0.008517 0.002764
1.000000 0.008517 0.002764
1.000000 0.008517 0.002764
0.002764 0.010329 0.002764
0.003162 0.010329 0.002764
0.003559 0.010329 0.002764
0.003956 0.010329 0.002764
0.004354 0.010329 0.002764
0.004789 0.010329 0.002764
0.005366 0.010329 0.002764
0.006134 0.010329 0.002764
0.007157 0.010329 0.002764
0.008517 0.010329 0.002764
0.010329 0.010329 0.002764
0.012741 0.010329 0.002764
0.015952 0.010329 0.002764
0.020226 0.010329 0.002764
0.025915 0.010329 0.002764
0.033490 0.010329 0.002764
0.043573 0.010329 0.002764
0.056995 0.010329 0.002764
0.074863 0.010329 0.002764
0.098650 0.010329 0.002764
0.130314 0.010329 0.002764
0.172467 0.010329 0.002764
0.228580 0.010329 0.002764
0.303280 0.010329 0.002764
0.402721 0.010329 0.002764
0.535098 0.010329 0.002764
0.711321 0.010329 0.002764
0.945909 0.010329 0.002764
1.000000 0.010329 0.002764
1.000000 0.010329 0.002764
1.000000 0.010329 0.002764
1.000000 0.010329 0.002764
0.002764 0.012741 0.002764
0.003162 0.012741 0.002764
0.003559 0.012741 0.002764
0.003956 0.012741 0.002764
0.004354 0.012741 0.002764
0.004789 0.012741 0.002764
0.005366 0.012741 0.002764
0.006134 0.012741 0.002764
0.007157 0.012741 0.002764
0.008517 0.012741 0.002764
0.010329 0.012741 0.002764
0.012741 0.012741 0.002764
0.015952 0.012741 0.002764
0.020226 0.012741 0.002764
0.025915 0.012741 0.002764
0.033490 0.012741 0.002764
0.043573 0.012741 0.002764
0.056995 0.012741 0.002764
0.074863 0.012741 0.002764
0.098650 0.012741 0.002764
0.130314 0.012741 0.002764
0.172467 0.012741 0.002764
0.228580 0.012741 0.002764
0.303280 0.012741 0.002764
0.402721 0.012741 0.002764
0.535098 0.012741 0.002764
0.711321 0.012741 0.002764
0.945909 0.012741 0.002764
1.000000 0.012741 0.002764
1.000000 0.012741 0.002764
1.000000 0.012741 0.002764
1.000000 0.012741 0.002764
0.002764 0.015952 0.002764
0.003162 0.015952 0.002764
0.003559 0.015952 0.002764
0.003956 0.015952 0.002764
0.004354 0.015952 0.002764
0.004789 0.015952 0.002764
0.005366 0.015952 0.002764
0.006134 0.015952 0.002764
0.007157 0.015952 0.002764
0.008517 0.015952 0.002764
0.010329 0.015952 0.002764
0.012741 0.015952 0.002764
0.015952 0.015952 0.002764
0.020226 0.015952 0.002764
0.025915 0.015952 0.002764
0.033490 0.015952 0.002764
0.043573 0.015952 0.002764
0.056995 0.015952 0.002764
0.074863 0.015952 0.002764
0.098650 0.015952 0.002764
0.130314 0.015952 0.002764
0.172467 0.015952 0.002764
0.228580 0.015952 0.002764
0.303280 0.015952 0.002764
0.402721 0.015952 0.002764
0.535098 0.015952 0.002764
0.711321 0.015952 0.002764
0.945909 0.015952 0.002764
1.000000 0.015952 0.002764
1.000000 0.015952 0.002764
1.000000 0.015952 0.002764
1.000000 0.015952 0.002764
0.002764 0.020226 0.002764
0.003162 0.020226 0.002764
0.003559 0.020226 0.002764
0.003956 0.020226 0.002764
0.004354 0.020226 0.002764
0.004789 0.020226 0.002764
0.005366 0.020226 0.002764
0.006134 0.020226 0.002764
0.007157 0.020226 0.002764
0.008517 0.020226 0.002764
0.010329 0.020226 0.002764
0.012741 0.020226 0.002764
0.015952 0.020226 0.002764
0.020226 0.020226 0.002764
0.025915 0.020226 0.002764
0.033490 0.020226 0.002764
0.043573 0.020226 0.002764
0.056995 0.020226 0.002764
0.074863 0.020226 0.002764
0.098650 0.020226 0.002764
0.130314 0.020226 0.002764
0.172467 0.020226 0.002764
0.228580 0.020226 0.002764
0.303280 0.020226 0.002764
0.402721 0.020226 0.002764
0.535098 0.020226 0.002764
0.711321 0.020226 0.002764
0.945909 0.020226 0.002764
1.000000 0.020226 0.002764
1.000000 0.020226 0.002764
1.000000 0.020226 0.002764
1.000000 0.020226 0.002764
0.002764 0.025915 0.002764
0.003162 0.025915 0.002764
0.003559 0.025915 0.002764
0.003956 0.025915 0.002764
0.004354 0.025915 0.002764
0.004789 0.025915 0.002764
0.005366 0.025915 0.002764
0.006134 0.025915 0.002764
0.007157 0.025915 0.002764
0.008517 0.025915 0.002764
0.010329 0.025915 0.002764
0.012741 0.025915 0.002764
0.015952 0.025915 0.002764
0.020226 0.025915 0.002764
0.025915 0.025915 0.002764
0.033490 0.025915 0.002764
0.043573 0.025915 0.002764
0.056995 0.025915 0.002764
0.074863 0.025915 0.002764
0.098650 0.025915 0.002764
0.130314 0.025915 0.002764
0.172467 0.025915 0.002764
0.228580 0.025915 0.002764
0.303280 0.025915 0.002764
0.402721 0.025915 0.002764
0.535098 0.025915 0.002764
0.711321 0.025915 0.002764
0.945909 0.025915 0.002764
1.000000 0.025915 0.002764
1.000000 0.025915 0.002764
1.000000 0.025915 0.002764
1.000000 0.025915 0.002764
0.002764 0.033490 0.002764
0.003162 0.033490 0.002764
0.003559 0.033490 0.002764
0.003956 0.033490 0.002764
0.004354 0.033490 0.002764
0.004789 0.033490 0.002764
0.005366 0.033490 0.002764
0.006134 0.033490 0.002764
0.007157 0.033490 0.002764
0.008517 0.033490 0.002764
0.010329 0.033490 0.002764
0.012741 0.033490 0.002764
0.015952 0.033490 0.002764
0.020226 0.033490 0.002764
0.025915 0.033490 0.002764
0.033490 0.033490 0.002764
0.043573 0.033490 0.002764
0.056995 0.033490 0.002764
0.074863 0.033490 0.002764
0.098650 0.033490 0.002764
0.130314 0.033490 0.002764
0.172467 0.033490 0.002764
0.228580 0.033490 0.002764
0.303280 0.033490 0.002764
0.402721 0.033490 0.002764
0.535098 0.033490 0.002764
0.711321 0.033490 0.002764
0.945909 0.033490 0.002764
1.000000 0.033490 0.002764
1.000000 0.033490 0.002764
1.000000 0.033490 0.002764
1.000000 0.033490 0.002764
0.002764 0.043573 0.002764
0.003162 0.043573 0.002764
0.003559 0.043573 0.002764
0.003956 0.043573 0.002764
0.004354 0.043573 0.002764
0.004789 0.043573 0.002764
0.005366 0.043573 0.002764
0.006134 0.043573 0.002764
0.007157 0.043573 0.002764
0.008517 0.043573 0.002764
0.010329 0.043573 0.002764
0.012741 0.043573 0.002764
0.015952 0.043573 0.002764
0.020226 0.043573 0.002764
0.025915 0.043573 0.002764
0.033490 0.043573 0.002764
0.043573 0.043573 0.002764
0.056995 0.043573 0.002764
0.074863 0.043573 0.002764
0.098650 0.043573 0.002764
0.130314 0.043573 0.002764
0.172467 0.043573 0.002764
0.228580 0.043573 0.002764
0.303280 0.043573 0.002764
0.402721 0.043573 0.002764
0.535098 0.043573 0.002764
0.711321 0.043573 0.002764
0.945909 0.043573 0.002764
1.000000 0.043573 0.002764
1.000000 0.043573 0.002764
1.000000 0.043573 0.002764
1.000000 0.043573 0.002764
0.002764 0.056995 0.002764
0.003162 0.056995 0.002764
0.003559 0.056995 0.002764
0.003956 0.056995 0.002764
0.004354 0.056995 0.002764
0.004789 0.056995 0.002764
0.005366 0.056995 0.002764
0.006134 0.056995 0.002764
0.007157 0.056995 0.002764
0.008517 0.056995 0.002764
0.010329 0.056995 0.002764
0.012741 0.056995 0.002764
0.015952 0.056995 0.002764
0.020226 0.056995 0.002764
0.025915 0.056995 0.002764
0.033490 0.056995 0.002764
0.043573 0.056995 0.002764
0.056995 0.056995 0.002764
0.074863 0.056995 0.002764
0.098650 0.056995 0.002764
0.130314 0.056995 0.002764
0.172467 0.056995 0.002764
0.228580 0.056995 0.002764
0.303280 0.056995 0.002764
0.402721 0.056995 0.002764
0.535098 0.056995 0.002764
0.711321 0.056995 0.002764
0.945909 0.056995 0.002764
1.000000 0.056995 0.002764
1.000000 0.056995 0.002764
1.000000 0.056995 0.002764
1.000000 0.056995 0.002764
0.002764 0.074863 0.002764
0.003162 0.074863 0.002764
0.003559 0.074863 0.002764
0.003956 0.074863 0.002764
0.004354 0.074863 0.002764
0.004789 0.074863 0.002764
0.005366 0.074863 0.002764
0.006134 0.074863 0.002764
0.007157 0.074863 0.002764
0.008517 0.074863 0.002764
0.010329 0.074863 0.002764
0.012741 0.074863 0.002764
0.015952 0.074863 0.002764
0.020226 0.074863 0.002764
0.025915 0.074863 0.002764
0.033490 0.074863 0.002764
0.043573 0.074863 0.002764
0.056995 0.074863 0.002764
0.074863 0.074863 0.002764
0.098650 0.074863 0.002764
0.130314 0.074863 0.002764
0.172467 0.074863 0.002764
0.228580 0.074863 0.002764
0.303280 0.074863 0.002764
0.402721 0.074863 0.002764
0.535098 0.074863 0.002764
0.711321 0.074863 0.002764
0.945909 0.074863 0.002764
1.000000 0.074863 0.002764
1.000000 0.074863 0.002764
1.000000 0.074863 0.002764
1.000000 0.074863 0.002764
0.002764 0.098650 0.002764
0.003162 0.098650 0.002764
0.003559 0.098650 0.002764
0.003956 0.098650 0.002764
0.004354 0.098650 0.002764
0.004789 0.098650 0.002764
0.005366 0.098650 0.002764
0.006134 0.098650 0.002764
0.007157 0.098650 0.002764
0.008517 0.098650 0.002764
0.010329 0.098650 0.002764
0.012741 0.098650 0.002764
0.015952 0.098650 0.002764
0.020226 0.098650 0.002764
0.025915 0.098650 0.002764
0.033490 0.098650 0.002764
0.043573 0.098650 0.002764
0.056995 0.098650 0.002764
0.074863 0.098650 0.002764
0.098650 0.098650 0.002764
0.130314 0.098650 0.002764
0.172467 0.098650 0.002764
0.228580 0.098650 0.002764
0.303280 0.098650 0.002764
0.402721 0.098650 0.002764
0.535098 0.098650 0.002764
0.711321 0.098650 0.002764
0.945909 0.098650 0.002764
1.000000 0.098650 0.002764
1.000000 0.098650 0.002764
1.000000 0.098650 0.002764
1.000000 0.098650 0.002764
0.002764 0.130314 0.002764
0.003162 0.130314 0.002764
0.003559 0.130314 0.002764
0.003956 0.130314 0.002764
0.004354 0.130314 0.002764
0.004789 0.130314 0.002764
0.005366 0.130314 0.002764
0.006134 0.130314 0.002764
0.007157 0.130314 0.002764
0.008517 0.130314 0.002764
0.010329 0.130314 0.002764
0.012741 0.130314 0.002764
0.015952 0.130314 0.002764
0.020226 0.130314 0.002764
0.025915 0.130314 0.002764
0.033490 0.130314 0.002764
0.043573 0.130314 0.002764
0.056995 0.130314 0.002764
0.074863 0.130314 0.002764
0.098650 0.130314 0.002764
0.130314 0.130314 0.002764
0.172467 0.130314 0.002764
0.228580 0.130314 0.002764
0.303280 0.130314 0.002764
0.402721 0.130314 0.002764
0.535098 0.130314 0.002764
0.711321 0.130314 0.002764
0.945909 0.130314 0.002764
1.000000 0.130314 0.002764
1.000000 0.130314 0.002764
1.000000 0.130314 0.002764
1.000000 0.130314 0.002764
0.002764 0.172467 0.002764
0.003162 0.172467 0.002764
0.003559 0.172467 0.002764
0.003956 0.172467 0.002764
0.004354 0.172467 0.002764
0.004789 0.172467 0.002764
0.005366 0.172467 0.002764
0.006134 0.172467 0.002764
0.007157 0.172467 0.002764
0.008517 0.172467 0.002764
0.010329 0.172467 0.002764
0.012741 0.172467 0.002764
0.015952 0.172467 0.002764
0.020226 0.172467 0.002764
0.025915 0.172467 0.002764
0.033490 0.172467 0.002764
0.043573 0.172467 0.002764
0.056995 0.172467 0.002764
0.074863 0.172467 0.002764
0.098650 0.172467 0.002764
0.130314 0.172467 0.002764
0.172467 0.172467 0.002764
0.228580 0.172467 0.002764
0.303280 0.172467 0.002764
0.402721 0.172467 0.002764
0.535098 0.172467 0.002764
0.711321 0.172467 0.002764
0.945909 0.172467 0.002764
1.000000 0.172467 0.002764
1.000000 0.172467 0.002764
1.000000 0.172467 0.002764
1.000000 0.172467 0.002764
0.002764 0.228580 0.002764
0.003162 0.228580 0.002764
0.003559 0.228580 0.002764
0.003956 0.228580 0.002764
0.004354 0.228580 0.002764
0.004789 0.228580 0.002764
0.005366 0.228580 0.002764
0.006134 0.228580 0.002764
0.007157 0.228580 0.002764
0.008517 0.228580 0.002764
0.010329 0.228580 0.002764
0.012741 0.228580 0.002764
0.015952 0.228580 0.002764
0.020226 0.228580 0.002764
0.025915 0.228580 0.002764
0.033490 0.228580 0.002764
0.043573 0.228580 0.002764
0.056995 0.228580 0.002764
0.074863 0.228580 0.002764
0.098650 0.228580 0.002764
0.130314 0.228580 0.002764
0.172467 0.228580 0.002764
0.228580 0.228580 0.002764
0.303280 0.228580 0.002764
0.402721 0.228580 0.002764
0.535098 0.228580 0.002764
0.711321 0.228580 0.002764
0.945909 0.228580 0.002764
1.000000 0.228580 0.002764
1.000000 0.228580 0.002764
1.000000 0.228580 0.002764
1.000000 0.228580 0.002764
0.002764 0.303280 0.002764
0.003162 0.303280 0.002764
0.003559 0.303280 0.002764
0.003956 0.303280 0.002764
0.004354 0.303280 0.002764
0.004789 0.303280 0.002764
0.005366 0.303280 0.002764
0.006134 0.303280 0.002764
0.007157 0.303280 0.002764
0.008517 0.303280 0.002764
0.010329 0.303280 0.002764
0.012741 0.303280 0.002764
0.015952 0.303280 0.002764
0.020226 0.303280 0.002764
0.025915 0.303280 0.002764
0.033490 0.303280 0.002764
0.043573 0.303280 0.002764
0.056995 0.303280 0.002764
0.074863 0.303280 0.002764
0.098650 0.303280 0.002764
0.130314 0.303280 0.002764
0.172467 0.303280 0.002764
0.228580 0.303280 0.002764
0.303280 0.303280 0.002764
0.402721 0.303280 0.002764
0.535098 0.303280 0.002764
0.711321 0.303280 0.002764
0.945909 0.303280 0.002764
1.000000 0.303280 0.002764
1.000000 0.303280 0.002764
1.000000 0.303280 0.002764
1.000000 0.303280 0.002764
0.002764 0.402721 0.002764
0.003162 0.402721 0.002764
0.003559 0.402721 0.002764
0.003956 0.402721 0.002764
0.004354 0.402721 0.002764
0.004789 0.402721 0.002764
0.005366 0.402721 0.002764
0.006134 0.402721 0.002764
0.007157 0.402721 0.002764
0.008517 0.402721 0.002764
0.010329 0.402721 0.002764
0.012741 0.402721 0.002764
0.015952 0.402721 0.002764
0.020226 0.402721 0.002764
0.025915 0.402721 0.002764
0.033490 0.402721 0.002764
0.043573 0.402721 0.002764
0.056995 0.402721 0.002764
0.074863 0.402721 0.002764
0.098650 0.402721 0.002764
0.130314 0.402721 0.002764
0.172467 0.402721 0.002764
0.228580 0.402721 0.002764
0.303280 0.402721 0.002764
0.402721 0.402721 0.002764
0.535098 0.402721 0.002764
0.711321 0.402721 0.002764
0.945909 0.402721 0.002764
1.000000 0.402721 0.002764
1.000000 0.402721 0.002764
1.000000 0.402721 0.002764
1.000000 0.402721 0.002764
0.002764 0.535098 0.002764
0.003162 0.535098 0.002764
0.003559 0.535098 0.002764
0.003956 0.535098 0.002764
0.004354 0.535098 0.002764
0.004789 0.535098 0.002764
0.005366 0.535098 0.002764
0.006134 0.535098 0.002764
0.007157 0.535098 0.002764
0.008517 0.535098 0.002764
0.010329 0.535098 0.002764
0.012741 0.535098 0.002764
0.015952 0.535098 0.002764
0.020226 0.535098 0.002764
0.025915 0.535098 0.002764
0.033490 0.535098 0.002764
0.043573 0.535098 0.002764
0.056995 0.535098 0.002764
0.074863 0.535098 0.002764
0.098650 0.535098 0.002764
0.130314 0.535098 0.002764
0.172467 0.535098 0.002764
0.228580 0.535098 0.002764
0.303280 0.535098 0.002764
0.402721 0.535098 0.002764
0.535098 0.535098 0.002764
0.711321 0.535098 0.002764
0.945909 0.535098 0.002764
1.000000 0.535098 0.002764
1.000000 0.535098 0.002764
1.000000 0.535098 0.002764
1.000000 0.535098 0.002764
0.002764 0.711321 0.002764
0.003162 0.711321 0.002764
0.003559 0.711321 0.002764
0.003956 0.711321 0.002764
0.004354 0.711321 0.002764
0.004789 0.711321 0.002764
0.005366 0.711321 0.002764
0.006134 0.711321 0.002764
0.007157 0.711321 0.002764
0.008517 0.711321 0.002764
0.010329 0.711321 0.002764
0.012741 0.711321 0.002764
0.015952 0.711321 0.002764
0.020226 0.711321 0.002764
0.025915 0.711321 0.002764
0.033490 0.711321 0.002764
0.043573 0.711321 0.002764
0.056995 0.711321 0.002764
0.074863 0.711321 0.002764
0.098650 0.711321 0.002764
0.130314 0.711321 0.002764
0.172467 0.711321 0.002764
0.228580 0.711321 0.002764
0.303280 0.711321 0.002764
0.402721 0.711321 0.002764
0.535098 0.711321 0.002764
0.711321 0.711321 0.002764
0.945909 0.711321 0.002764
1.000000 0.711321 0.002764
1.000000 0.711321 0.002764
1.000000 0.711321 0.002764
1.000000 0.711321 0.002764
0.002764 0.945909 0.002764
0.003162 0.945909 0.002764
0.003559 0.945909 0.002764
0.003956 0.945909 0.002764
0.004354 0.945909 0.002764
0.004789 0.945909 0.002764
0.005366 0.945909 0.002764
0.006134 0.945909 0.002764
0.007157 0.945909 0.002764
0.008517 0.945909 0.002764
0.010329 0.945909 0.002764
0.012741 0.945909 0.002764
0.015952 0.945909 0.002764
0.020226 0.945909 0.002764
0.025915 0.945909 0.002764
0.033490 0.945909 0.002764
0.043573 0.945909 0.002764
0.056995 0.945909 0.002764
0.074863 0.945909 0.002764
0.098650 0.945909 0.002764
0.130314 0.945909 0.002764
