.nuke/nuke.LUT/logC-2-linear_extended/AlexaV3_EI1600_LogC2Linear_EE_nuke3d.cube
# Alexa conversion LUT, logc2lin. Full in/full out.
# created by alexalutconv (2.07)
LUT_3D_SIZE 8
DOMAIN_MIN 0.000000 0.000000 0.000000
DOMAIN_MAX 0.903226 0.903226 0.903226
0.003658 0.003658 0.003658
0.004005 0.003658 0.003658
0.004527 0.003658 0.003658
0.006311 0.003658 0.003658
0.012533 0.003658 0.003658
0.034238 0.003658 0.003658
0.109958 0.003658 0.003658
0.379261 0.003658 0.003658
0.003658 0.004005 0.003658
0.004005 0.004005 0.003658
0.004527 0.004005 0.003658
0.006311 0.004005 0.003658
0.012533 0.004005 0.003658
0.034238 0.004005 0.003658
0.109958 0.004005 0.003658
0.379261 0.004005 0.003658
0.003658 0.004527 0.003658
0.004005 0.004527 0.003658
0.004527 0.004527 0.003658
0.006311 0.004527 0.003658
0.012533 0.004527 0.003658
0.034238 0.004527 0.003658
0.109958 0.004527 0.003658
0.379261 0.004527 0.003658
0.003658 0.006311 0.003658
0.004005 0.006311 0.003658
0.004527 0.006311 0.003658
0.006311 0.006311 0.003658
0.012533 0.006311 0.003658
0.034238 0.006311 0.003658
0.109958 0.006311 0.003658
0.379261 0.006311 0.003658
0.003658 0.012533 0.003658
0.004005 0.012533 0.003658
0.004527 0.012533 0.003658
0.006311 0.012533 0.003658
0.012533 0.012533 0.003658
0.034238 0.012533 0.003658
0.109958 0.012533 0.003658
0.379261 0.012533 0.003658
0.003658 0.034238 0.003658
0.004005 0.034238 0.003658
0.004527 0.034238 0.003658
0.006311 0.034238 0.003658
0.012533 0.034238 0.003658
0.034238 0.034238 0.003658
0.109958 0.034238 0.003658
0.379261 0.034238 0.003658
0.003658 0.109958 0.003658
0.004005 0.109958 0.003658
0.004527 0.109958 0.003658
0.006311 0.109958 0.003658
0.012533 0.109958 0.003658
0.034238 0.109958 0.003658
0.109958 0.109958 0.003658
0.379261 0.109958 0.003658
0.003658 0.379261 0.003658
0.004005 0.379261 0.003658
0.004527 0.379261 0.003658
0.006311 0.379261 0.003658
0.012533 0.379261 0.003658
0.034238 0.379261 0.003658
0.109958 0.379261 0.003658
0.379261 0.379261 0.003658
0.003658 0.003658 0.004005
0.004005 0.003658 0.004005
0.004527 0.003658 0.004005
0.006311 0.003658 0.004005
0.012533 0.003658 0.004005
0.034238 0.003658 0.004005
0.109958 0.003658 0.004005
0.379261 0.003658 0.004005
0.003658 0.004005 0.004005
0.004005 0.004005 0.004005
0.004527 0.004005 0.004005
0.006311 0.004005 0.004005
0.012533 0.004005 0.004005
0.034238 0.004005 0.004005
0.109958 0.004005 0.004005
0.379261 0.004005 0.004005
0.003658 0.004527 0.004005
0.004005 0.004527 0.004005
0.004527 0.004527 0.004005
0.006311 0.004527 0.004005
0.012533 0.004527 0.004005
0.034238 0.004527 0.004005
0.109958 0.004527 0.004005
0.379261 0.004527 0.004005
0.003658 0.006311 0.004005
0.004005 0.006311 0.004005
0.004527 0.006311 0.004005
0.006311 0.006311 0.004005
0.012533 0.006311 0.004005
0.034238 0.006311 0.004005
0.109958 0.006311 0.004005
0.379261 0.006311 0.004005
0.003658 0.012533 0.004005
0.004005 0.012533 0.004005
0.004527 0.012533 0.004005
0.006311 0.012533 0.004005
0.012533 0.012533 0.004005
0.034238 0.012533 0.004005
0.109958 0.012533 0.004005
0.379261 0.012533 0.004005
0.003658 0.034238 0.004005
0.004005 0.034238 0.004005
0.004527 0.034238 0.004005
0.006311 0.034238 0.004005
0.012533 0.034238 0.004005
0.034238 0.034238 0.004005
0.109958 0.034238 0.004005
0.379261 0.034238 0.004005
0.003658 0.109958 0.004005
0.004005 0.109958 0.004005
0.004527 0.109958 0.004005
0.006311 0.109958 0.004005
0.012533 0.109958 0.004005
0.034238 0.109958 0.004005
0.109958 0.109958 0.004005
0.379261 0.109958 0.004005
0.003658 0.379261 0.004005
0.004005 0.379261 0.004005
0.004527 0.379261 0.004005
0.006311 0.379261 0.004005
0.012533 0.379261 0.004005
0.034238 0.379261 0.004005
0.109958 0.379261 0.004005
0.379261 0.379261 0.004005
0.003658 0.003658 0.004527
0.004005 0.003658 0.004527
0.004527 0.003658 0.004527
0.006311 0.003658 0.004527
0.012533 0.003658 0.004527
0.034238 0.003658 0.004527
0.109958 0.003658 0.004527
0.379261 0.003658 0.004527
0.003658 0.004005 0.004527
0.004005 0.004005 0.004527
0.004527 0.004005 0.004527
0.006311 0.004005 0.004527
0.012533 0.004005 0.004527
0.034238 0.004005 0.004527
0.109958 0.004005 0.004527
0.379261 0.004005 0.004527
0.003658 0.004527 0.004527
0.004005 0.004527 0.004527
0.004527 0.004527 0.004527
0.006311 0.004527 0.004527
0.012533 0.004527 0.004527
0.034238 0.004527 0.004527
0.109958 0.004527 0.004527
0.379261 0.004527 0.004527
0.003658 0.006311 0.004527
0.004005 0.006311 0.004527
0.004527 0.006311 0.004527
0.006311 0.006311 0.004527
0.012533 0.006311 0.004527
0.034238 0.006311 0.004527
0.109958 0.006311 0.004527
0.379261 0.006311 0.004527
0.003658 0.012533 0.004527
0.004005 0.012533 0.004527
0.004527 0.012533 0.004527
0.006311 0.012533 0.004527
0.012533 0.012533 0.004527
0.034238 0.012533 0.004527
0.109958 0.012533 0.004527
0.379261 0.012533 0.004527
0.003658 0.034238 0.004527
0.004005 0.034238 0.004527
0.004527 0.034238 0.004527
0.006311 0.034238 0.004527
0.012533 0.034238 0.004527
0.034238 0.034238 0.004527
0.109958 0.034238 0.004527
0.379261 0.034238 0.004527
0.003658 0.109958 0.004527
0.004005 0.109958 0.004527
0.004527 0.109958 0.004527
0.006311 0.109958 0.004527
0.012533 0.109958 0.004527
0.034238 0.109958 0.004527
0.109958 0.109958 0.004527
0.379261 0.109958 0.004527
0.003658 0.379261 0.004527
0.004005 0.379261 0.004527
0.004527 0.379261 0.004527
0.006311 0.379261 0.004527
0.012533 0.379261 0.004527
0.034238 0.379261 0.004527
0.109958 0.379261 0.004527
0.379261 0.379261 0.004527
0.003658 0.003658 0.006311
0.004005 0.003658 0.006311
0.004527 0.003658 0.006311
0.006311 0.003658 0.006311
0.012533 0.003658 0.006311
0.034238 0.003658 0.006311
0.109958 0.003658 0.006311
0.379261 0.003658 0.006311
0.003658 0.004005 0.006311
0.004005 0.004005 0.006311
0.004527 0.004005 0.006311
0.006311 0.004005 0.006311
0.012533 0.004005 0.006311
0.034238 0.004005 0.006311
0.109958 0.004005 0.006311
0.379261 0.004005 0.006311
0.003658 0.004527 0.006311
0.004005 0.004527 0.006311
0.004527 0.004527 0.006311
0.006311 0.004527 0.006311
0.012533 0.004527 0.006311
0.034238 0.004527 0.006311
0.109958 0.004527 0.006311
0.379261 0.004527 0.006311
0.003658 0.006311 0.006311
0.004005 0.006311 0.006311
0.004527 0.006311 0.006311
0.006311 0.006311 0.006311
0.012533 0.006311 0.006311
0.034238 0.006311 0.006311
0.109958 0.006311 0.006311
0.379261 0.006311 0.006311
0.003658 0.012533 0.006311
0.004005 0.012533 0.006311
0.004527 0.012533 0.006311
0.006311 0.012533 0.006311
0.012533 0.012533 0.006311
0.034238 0.012533 0.006311
0.109958 0.012533 0.006311
0.379261 0.012533 0.006311
0.003658 0.034238 0.006311
0.004005 0.034238 0.006311
0.004527 0.034238 0.006311
0.006311 0.034238 0.006311
0.012533 0.034238 0.006311
0.034238 0.034238 0.006311
0.109958 0.034238 0.006311
0.379261 0.034238 0.006311
0.003658 0.109958 0.006311
0.004005 0.109958 0.006311
0.004527 0.109958 0.006311
0.006311 0.109958 0.006311
0.012533 0.109958 0.006311
0.034238 0.109958 0.006311
0.109958 0.109958 0.006311
0.379261 0.109958 0.006311
0.003658 0.379261 0.006311
0.004005 0.379261 0.006311
0.004527 0.379261 0.006311
0.006311 0.379261 0.006311
0.012533 0.379261 0.006311
0.034238 0.379261 0.006311
0.109958 0.379261 0.006311
0.379261 0.379261 0.006311
0.003658 0.003658 0.012533
0.004005 0.003658 0.012533
0.004527 0.003658 0.012533
0.006311 0.003658 0.012533
0.012533 0.003658 0.012533
0.034238 0.003658 0.012533
0.109958 0.003658 0.012533
0.379261 0.003658 0.012533
0.003658 0.004005 0.012533
0.004005 0.004005 0.012533
0.004527 0.004005 0.012533
0.006311 0.004005 0.012533
0.012533 0.004005 0.012533
0.034238 0.004005 0.012533
0.109958 0.004005 0.012533
0.379261 0.004005 0.012533
0.003658 0.004527 0.012533
0.004005 0.004527 0.012533
0.004527 0.004527 0.012533
0.006311 0.004527 0.012533
0.012533 0.004527 0.012533
0.034238 0.004527 0.012533
0.109958 0.004527 0.012533
0.379261 0.004527 0.012533
0.003658 0.006311 0.012533
0.004005 0.006311 0.012533
0.004527 0.006311 0.012533
0.006311 0.006311 0.012533
0.012533 0.006311 0.012533
0.034238 0.006311 0.012533
0.109958 0.006311 0.012533
0.379261 0.006311 0.012533
0.003658 0.012533 0.012533
0.004005 0.012533 0.012533
0.004527 0.012533 0.012533
0.006311 0.012533 0.012533
0.012533 0.012533 0.012533
0.034238 0.012533 0.012533
0.109958 0.012533 0.012533
0.379261 0.012533 0.012533
0.003658 0.034238 0.012533
0.004005 0.034238 0.012533
0.004527 0.034238 0.012533
0.006311 0.034238 0.012533
0.012533 0.034238 0.012533
0.034238 0.034238 0.012533
0.109958 0.034238 0.012533
0.379261 0.034238 0.012533
0.003658 0.109958 0.012533
0.004005 0.109958 0.012533
0.004527 0.109958 0.012533
0.006311 0.109958 0.012533
0.012533 0.109958 0.012533
0.034238 0.109958 0.012533
0.109958 0.109958 0.012533
0.379261 0.109958 0.012533
0.003658 0.379261 0.012533
0.004005 0.379261 0.012533
0.004527 0.379261 0.012533
0.006311 0.379261 0.012533
0.012533 0.379261 0.012533
0.034238 0.379261 0.012533
0.109958 0.379261 0.012533
0.379261 0.379261 0.012533
0.003658 0.003658 0.034238
0.004005 0.003658 0.034238
0.004527 0.003658 0.034238
0.006311 0.003658 0.034238
0.012533 0.003658 0.034238
0.034238 0.003658 0.034238
0.109958 0.003658 0.034238
0.379261 0.003658 0.034238
0.003658 0.004005 0.034238
0.004005 0.004005 0.034238
0.004527 0.004005 0.034238
0.006311 0.004005 0.034238
0.012533 0.004005 0.034238
0.034238 0.004005 0.034238
0.109958 0.004005 0.034238
0.379261 0.004005 0.034238
0.003658 0.004527 0.034238
0.004005 0.004527 0.034238
0.004527 0.004527 0.034238
0.006311 0.004527 0.034238
0.012533 0.004527 0.034238
0.034238 0.004527 0.034238
0.109958 0.004527 0.034238
0.379261 0.004527 0.034238
0.003658 0.006311 0.034238
0.004005 0.006311 0.034238
0.004527 0.006311 0.034238
0.006311 0.006311 0.034238
0.012533 0.006311 0.034238
0.034238 0.006311 0.034238
0.109958 0.006311 0.034238
0.379261 0.006311 0.034238
0.003658 0.012533 0.034238
0.004005 0.012533 0.034238
0.004527 0.012533 0.034238
0.006311 0.012533 0.034238
0.012533 0.012533 0.034238
0.034238 0.012533 0.034238
0.109958 0.012533 0.034238
0.379261 0.012533 0.034238
0.003658 0.034238 0.034238
0.004005 0.034238 0.034238
0.004527 0.034238 0.034238
0.006311 0.034238 0.034238
0.012533 0.034238 0.034238
0.034238 0.034238 0.034238
0.109958 0.034238 0.034238
0.379261 0.034238 0.034238
0.003658 0.109958 0.034238
0.004005 0.109958 0.034238
0.004527 0.109958 0.034238
0.006311 0.109958 0.034238
0.012533 0.109958 0.034238
0.034238 0.109958 0.034238
0.109958 0.109958 0.034238
0.379261 0.109958 0.034238
0.003658 0.379261 0.034238
0.004005 0.379261 0.034238
0.004527 0.379261 0.034238
0.006311 0.379261 0.034238
0.012533 0.379261 0.034238
0.034238 0.379261 0.034238
0.109958 0.379261 0.034238
0.379261 0.379261 0.034238
0.003658 0.003658 0.109958
0.004005 0.003658 0.109958
0.004527 0.003658 0.109958
0.006311 0.003658 0.109958
0.012533 0.003658 0.109958
0.034238 0.003658 0.109958
0.109958 0.003658 0.109958
0.379261 0.003658 0.109958
0.003658 0.004005 0.109958
0.004005 0.004005 0.109958
0.004527 0.004005 0.109958
0.006311 0.004005 0.109958
0.012533 0.004005 0.109958
0.034238 0.004005 0.109958
0.109958 0.004005 0.109958
0.379261 0.004005 0.109958
0.003658 0.004527 0.109958
0.004005 0.004527 0.109958
0.004527 0.004527 0.109958
0.006311 0.004527 0.109958
0.012533 0.004527 0.109958
0.034238 0.004527 0.109958
0.109958 0.004527 0.109958
0.379261 0.004527 0.109958
0.003658 0.006311 0.109958
0.004005 0.006311 0.109958
0.004527 0.006311 0.109958
0.006311 0.006311 0.109958
0.012533 0.006311 0.109958
0.034238 0.006311 0.109958
0.109958 0.006311 0.109958
0.379261 0.006311 0.109958
0.003658 0.012533 0.109958
0.004005 0.012533 0.109958
0.004527 0.012533 0.109958
0.006311 0.012533 0.109958
0.012533 0.012533 0.109958
0.034238 0.012533 0.109958
0.109958 0.012533 0.109958
0.379261 0.012533 0.109958
0.003658 0.034238 0.109958
0.004005 0.034238 0.109958
0.004527 0.034238 0.109958
0.006311 0.034238 0.109958
0.012533 0.034238 0.109958
0.034238 0.034238 0.109958
0.109958 0.034238 0.109958
0.379261 0.034238 0.109958
0.003658 0.109958 0.109958
0.004005 0.109958 0.109958
0.004527 0.109958 0.109958
0.006311 0.109958 0.109958
0.012533 0.109958 0.109958
0.034238 0.109958 0.109958
0.109958 0.109958 0.109958
0.379261 0.109958 0.109958
0.003658 0.379261 0.109958
0.004005 0.379261 0.109958
0.004527 0.379261 0.109958
0.006311 0.379261 0.109958
0.012533 0.379261 0.109958
0.034238 0.379261 0.109958
0.109958 0.379261 0.109958
0.379261 0.379261 0.109958
0.003658 0.003658 0.379261
0.004005 0.003658 0.379261
0.004527 0.003658 0.379261
0.006311 0.003658 0.379261
0.012533 0.003658 0.379261
0.034238 0.003658 0.379261
0.109958 0.003658 0.379261
0.379261 0.003658 0.379261
0.003658 0.004005 0.379261
0.004005 0.004005 0.379261
0.004527 0.004005 0.379261
0.006311 0.004005 0.379261
0.012533 0.004005 0.379261
0.034238 0.004005 0.379261
0.109958 0.004005 0.379261
0.379261 0.004005 0.379261
0.003658 0.004527 0.379261
0.004005 0.004527 0.379261
0.004527 0.004527 0.379261
0.006311 0.004527 0.379261
0.012533 0.004527 0.379261
0.034238 0.004527 0.379261
0.109958 0.004527 0.379261
0.379261 0.004527 0.379261
0.003658 0.006311 0.379261
0.004005 0.006311 0.379261
0.004527 0.006311 0.379261
0.006311 0.006311 0.379261
0.012533 0.006311 0.379261
0.034238 0.006311 0.379261
0.109958 0.006311 0.379261
0.379261 0.006311 0.379261
0.003658 0.012533 0.379261
0.004005 0.012533 0.379261
0.004527 0.012533 0.379261
0.006311 0.012533 0.379261
0.012533 0.012533 0.379261
0.034238 0.012533 0.379261
0.109958 0.012533 0.379261
0.379261 0.012533 0.379261
0.003658 0.034238 0.379261
0.004005 0.034238 0.379261
0.004527 0.034238 0.379261
0.006311 0.034238 0.379261
0.012533 0.034238 0.379261
0.034238 0.034238 0.379261
0.109958 0.034238 0.379261
0.379261 0.034238 0.379261
0.003658 0.109958 0.379261
0.004005 0.109958 0.379261
0.004527 0.109958 0.379261
0.006311 0.109958 0.379261
0.012533 0.109958 0.379261
0.034238 0.109958 0.379261
0.109958 0.109958 0.379261
0.379261 0.109958 0.379261
0.003658 0.379261 0.379261
0.004005 0.379261 0.379261
0.004527 0.379261 0.379261
0.006311 0.379261 0.379261
0.012533 0.379261 0.379261
0.034238 0.379261 0.379261
0.109958 0.379261 0.379261
0.379261 0.379261 0.379261
