.nuke/nuke.LUT/logC-2-linear_extended/AlexaV3_EI1280_LogC2Linear_EE_nuke3d.cube
# Alexa conversion LUT, logc2lin. Full in/full out.
# created by alexalutconv (2.07)
LUT_3D_SIZE 8
DOMAIN_MIN 0.000000 0.000000 0.000000
DOMAIN_MAX 0.903226 0.903226 0.903226
0.003599 0.003599 0.003599
0.004027 0.003599 0.003599
0.004687 0.003599 0.003599
0.006912 0.003599 0.003599
0.014557 0.003599 0.003599
0.040807 0.003599 0.003599
0.130957 0.003599 0.003599
0.440549 0.003599 0.003599
0.003599 0.004027 0.003599
0.004027 0.004027 0.003599
0.004687 0.004027 0.003599
0.006912 0.004027 0.003599
0.014557 0.004027 0.003599
0.040807 0.004027 0.003599
0.130957 0.004027 0.003599
0.440549 0.004027 0.003599
0.003599 0.004687 0.003599
0.004027 0.004687 0.003599
0.004687 0.004687 0.003599
0.006912 0.004687 0.003599
0.014557 0.004687 0.003599
0.040807 0.004687 0.003599
0.130957 0.004687 0.003599
0.440549 0.004687 0.003599
0.003599 0.006912 0.003599
0.004027 0.006912 0.003599
0.004687 0.006912 0.003599
0.006912 0.006912 0.003599
0.014557 0.006912 0.003599
0.040807 0.006912 0.003599
0.130957 0.006912 0.003599
0.440549 0.006912 0.003599
0.003599 0.014557 0.003599
0.004027 0.014557 0.003599
0.004687 0.014557 0.003599
0.006912 0.014557 0.003599
0.014557 0.014557 0.003599
0.040807 0.014557 0.003599
0.130957 0.014557 0.003599
0.440549 0.014557 0.003599
0.003599 0.040807 0.003599
0.004027 0.040807 0.003599
0.004687 0.040807 0.003599
0.006912 0.040807 0.003599
0.014557 0.040807 0.003599
0.040807 0.040807 0.003599
0.130957 0.040807 0.003599
0.440549 0.040807 0.003599
0.003599 0.130957 0.003599
0.004027 0.130957 0.003599
0.004687 0.130957 0.003599
0.006912 0.130957 0.003599
0.014557 0.130957 0.003599
0.040807 0.130957 0.003599
0.130957 0.130957 0.003599
0.440549 0.130957 0.003599
0.003599 0.440549 0.003599
0.004027 0.440549 0.003599
0.004687 0.440549 0.003599
0.006912 0.440549 0.003599
0.014557 0.440549 0.003599
0.040807 0.440549 0.003599
0.130957 0.440549 0.003599
0.440549 0.440549 0.003599
0.003599 0.003599 0.004027
0.004027 0.003599 0.004027
0.004687 0.003599 0.004027
0.006912 0.003599 0.004027
0.014557 0.003599 0.004027
0.040807 0.003599 0.004027
0.130957 0.003599 0.004027
0.440549 0.003599 0.004027
0.003599 0.004027 0.004027
0.004027 0.004027 0.004027
0.004687 0.004027 0.004027
0.006912 0.004027 0.004027
0.014557 0.004027 0.004027
0.040807 0.004027 0.004027
0.130957 0.004027 0.004027
0.440549 0.004027 0.004027
0.003599 0.004687 0.004027
0.004027 0.004687 0.004027
0.004687 0.004687 0.004027
0.006912 0.004687 0.004027
0.014557 0.004687 0.004027
0.040807 0.004687 0.004027
0.130957 0.004687 0.004027
0.440549 0.004687 0.004027
0.003599 0.006912 0.004027
0.004027 0.006912 0.004027
0.004687 0.006912 0.004027
0.006912 0.006912 0.004027
0.014557 0.006912 0.004027
0.040807 0.006912 0.004027
0.130957 0.006912 0.004027
0.440549 0.006912 0.004027
0.003599 0.014557 0.004027
0.004027 0.014557 0.004027
0.004687 0.014557 0.004027
0.006912 0.014557 0.004027
0.014557 0.014557 0.004027
0.040807 0.014557 0.004027
0.130957 0.014557 0.004027
0.440549 0.014557 0.004027
0.003599 0.040807 0.004027
0.004027 0.040807 0.004027
0.004687 0.040807 0.004027
0.006912 0.040807 0.004027
0.014557 0.040807 0.004027
0.040807 0.040807 0.004027
0.130957 0.040807 0.004027
0.440549 0.040807 0.004027
0.003599 0.130957 0.004027
0.004027 0.130957 0.004027
0.004687 0.130957 0.004027
0.006912 0.130957 0.004027
0.014557 0.130957 0.004027
0.040807 0.130957 0.004027
0.130957 0.130957 0.004027
0.440549 0.130957 0.004027
0.003599 0.440549 0.004027
0.004027 0.440549 0.004027
0.004687 0.440549 0.004027
0.006912 0.440549 0.004027
0.014557 0.440549 0.004027
0.040807 0.440549 0.004027
0.130957 0.440549 0.004027
0.440549 0.440549 0.004027
0.003599 0.003599 0.004687
0.004027 0.003599 0.004687
0.004687 0.003599 0.004687
0.006912 0.003599 0.004687
0.014557 0.003599 0.004687
0.040807 0.003599 0.004687
0.130957 0.003599 0.004687
0.440549 0.003599 0.004687
0.003599 0.004027 0.004687
0.004027 0.004027 0.004687
0.004687 0.004027 0.004687
0.006912 0.004027 0.004687
0.014557 0.004027 0.004687
0.040807 0.004027 0.004687
0.130957 0.004027 0.004687
0.440549 0.004027 0.004687
0.003599 0.004687 0.004687
0.004027 0.004687 0.004687
0.004687 0.004687 0.004687
0.006912 0.004687 0.004687
0.014557 0.004687 0.004687
0.040807 0.004687 0.004687
0.130957 0.004687 0.004687
0.440549 0.004687 0.004687
0.003599 0.006912 0.004687
0.004027 0.006912 0.004687
0.004687 0.006912 0.004687
0.006912 0.006912 0.004687
0.014557 0.006912 0.004687
0.040807 0.006912 0.004687
0.130957 0.006912 0.004687
0.440549 0.006912 0.004687
0.003599 0.014557 0.004687
0.004027 0.014557 0.004687
0.004687 0.014557 0.004687
0.006912 0.014557 0.004687
0.014557 0.014557 0.004687
0.040807 0.014557 0.004687
0.130957 0.014557 0.004687
0.440549 0.014557 0.004687
0.003599 0.040807 0.004687
0.004027 0.040807 0.004687
0.004687 0.040807 0.004687
0.006912 0.040807 0.004687
0.014557 0.040807 0.004687
0.040807 0.040807 0.004687
0.130957 0.040807 0.004687
0.440549 0.040807 0.004687
0.003599 0.130957 0.004687
0.004027 0.130957 0.004687
0.004687 0.130957 0.004687
0.006912 0.130957 0.004687
0.014557 0.130957 0.004687
0.040807 0.130957 0.004687
0.130957 0.130957 0.004687
0.440549 0.130957 0.004687
0.003599 0.440549 0.004687
0.004027 0.440549 0.004687
0.004687 0.440549 0.004687
0.006912 0.440549 0.004687
0.014557 0.440549 0.004687
0.040807 0.440549 0.004687
0.130957 0.440549 0.004687
0.440549 0.440549 0.004687
0.003599 0.003599 0.006912
0.004027 0.003599 0.006912
0.004687 0.003599 0.006912
0.006912 0.003599 0.006912
0.014557 0.003599 0.006912
0.040807 0.003599 0.006912
0.130957 0.003599 0.006912
0.440549 0.003599 0.006912
0.003599 0.004027 0.006912
0.004027 0.004027 0.006912
0.004687 0.004027 0.006912
0.006912 0.004027 0.006912
0.014557 0.004027 0.006912
0.040807 0.004027 0.006912
0.130957 0.004027 0.006912
0.440549 0.004027 0.006912
0.003599 0.004687 0.006912
0.004027 0.004687 0.006912
0.004687 0.004687 0.006912
0.006912 0.004687 0.006912
0.014557 0.004687 0.006912
0.040807 0.004687 0.006912
0.130957 0.004687 0.006912
0.440549 0.004687 0.006912
0.003599 0.006912 0.006912
0.004027 0.006912 0.006912
0.004687 0.006912 0.006912
0.006912 0.006912 0.006912
0.014557 0.006912 0.006912
0.040807 0.006912 0.006912
0.130957 0.006912 0.006912
0.440549 0.006912 0.006912
0.003599 0.014557 0.006912
0.004027 0.014557 0.006912
0.004687 0.014557 0.006912
0.006912 0.014557 0.006912
0.014557 0.014557 0.006912
0.040807 0.014557 0.006912
0.130957 0.014557 0.006912
0.440549 0.014557 0.006912
0.003599 0.040807 0.006912
0.004027 0.040807 0.006912
0.004687 0.040807 0.006912
0.006912 0.040807 0.006912
0.014557 0.040807 0.006912
0.040807 0.040807 0.006912
0.130957 0.040807 0.006912
0.440549 0.040807 0.006912
0.003599 0.130957 0.006912
0.004027 0.130957 0.006912
0.004687 0.130957 0.006912
0.006912 0.130957 0.006912
0.014557 0.130957 0.006912
0.040807 0.130957 0.006912
0.130957 0.130957 0.006912
0.440549 0.130957 0.006912
0.003599 0.440549 0.006912
0.004027 0.440549 0.006912
0.004687 0.440549 0.006912
0.006912 0.440549 0.006912
0.014557 0.440549 0.006912
0.040807 0.440549 0.006912
0.130957 0.440549 0.006912
0.440549 0.440549 0.006912
0.003599 0.003599 0.014557
0.004027 0.003599 0.014557
0.004687 0.003599 0.014557
0.006912 0.003599 0.014557
0.014557 0.003599 0.014557
0.040807 0.003599 0.014557
0.130957 0.003599 0.014557
0.440549 0.003599 0.014557
0.003599 0.004027 0.014557
0.004027 0.004027 0.014557
0.004687 0.004027 0.014557
0.006912 0.004027 0.014557
0.014557 0.004027 0.014557
0.040807 0.004027 0.014557
0.130957 0.004027 0.014557
0.440549 0.004027 0.014557
0.003599 0.004687 0.014557
0.004027 0.004687 0.014557
0.004687 0.004687 0.014557
0.006912 0.004687 0.014557
0.014557 0.004687 0.014557
0.040807 0.004687 0.014557
0.130957 0.004687 0.014557
0.440549 0.004687 0.014557
0.003599 0.006912 0.014557
0.004027 0.006912 0.014557
0.004687 0.006912 0.014557
0.006912 0.006912 0.014557
0.014557 0.006912 0.014557
0.040807 0.006912 0.014557
0.130957 0.006912 0.014557
0.440549 0.006912 0.014557
0.003599 0.014557 0.014557
0.004027 0.014557 0.014557
0.004687 0.014557 0.014557
0.006912 0.014557 0.014557
0.014557 0.014557 0.014557
0.040807 0.014557 0.014557
0.130957 0.014557 0.014557
0.440549 0.014557 0.014557
0.003599 0.040807 0.014557
0.004027 0.040807 0.014557
0.004687 0.040807 0.014557
0.006912 0.040807 0.014557
0.014557 0.040807 0.014557
0.040807 0.040807 0.014557
0.130957 0.040807 0.014557
0.440549 0.040807 0.014557
0.003599 0.130957 0.014557
0.004027 0.130957 0.014557
0.004687 0.130957 0.014557
0.006912 0.130957 0.014557
0.014557 0.130957 0.014557
0.040807 0.130957 0.014557
0.130957 0.130957 0.014557
0.440549 0.130957 0.014557
0.003599 0.440549 0.014557
0.004027 0.440549 0.014557
0.004687 0.440549 0.014557
0.006912 0.440549 0.014557
0.014557 0.440549 0.014557
0.040807 0.440549 0.014557
0.130957 0.440549 0.014557
0.440549 0.440549 0.014557
0.003599 0.003599 0.040807
0.004027 0.003599 0.040807
0.004687 0.003599 0.040807
0.006912 0.003599 0.040807
0.014557 0.003599 0.040807
0.040807 0.003599 0.040807
0.130957 0.003599 0.040807
0.440549 0.003599 0.040807
0.003599 0.004027 0.040807
0.004027 0.004027 0.040807
0.004687 0.004027 0.040807
0.006912 0.004027 0.040807
0.014557 0.004027 0.040807
0.040807 0.004027 0.040807
0.130957 0.004027 0.040807
0.440549 0.004027 0.040807
0.003599 0.004687 0.040807
0.004027 0.004687 0.040807
0.004687 0.004687 0.040807
0.006912 0.004687 0.040807
0.014557 0.004687 0.040807
0.040807 0.004687 0.040807
0.130957 0.004687 0.040807
0.440549 0.004687 0.040807
0.003599 0.006912 0.040807
0.004027 0.006912 0.040807
0.004687 0.006912 0.040807
0.006912 0.006912 0.040807
0.014557 0.006912 0.040807
0.040807 0.006912 0.040807
0.130957 0.006912 0.040807
0.440549 0.006912 0.040807
0.003599 0.014557 0.040807
0.004027 0.014557 0.040807
0.004687 0.014557 0.040807
0.006912 0.014557 0.040807
0.014557 0.014557 0.040807
0.040807 0.014557 0.040807
0.130957 0.014557 0.040807
0.440549 0.014557 0.040807
0.003599 0.040807 0.040807
0.004027 0.040807 0.040807
0.004687 0.040807 0.040807
0.006912 0.040807 0.040807
0.014557 0.040807 0.040807
0.040807 0.040807 0.040807
0.130957 0.040807 0.040807
0.440549 0.040807 0.040807
0.003599 0.130957 0.040807
0.004027 0.130957 0.040807
0.004687 0.130957 0.040807
0.006912 0.130957 0.040807
0.014557 0.130957 0.040807
0.040807 0.130957 0.040807
0.130957 0.130957 0.040807
0.440549 0.130957 0.040807
0.003599 0.440549 0.040807
0.004027 0.440549 0.040807
0.004687 0.440549 0.040807
0.006912 0.440549 0.040807
0.014557 0.440549 0.040807
0.040807 0.440549 0.040807
0.130957 0.440549 0.040807
0.440549 0.440549 0.040807
0.003599 0.003599 0.130957
0.004027 0.003599 0.130957
0.004687 0.003599 0.130957
0.006912 0.003599 0.130957
0.014557 0.003599 0.130957
0.040807 0.003599 0.130957
0.130957 0.003599 0.130957
0.440549 0.003599 0.130957
0.003599 0.004027 0.130957
0.004027 0.004027 0.130957
0.004687 0.004027 0.130957
0.006912 0.004027 0.130957
0.014557 0.004027 0.130957
0.040807 0.004027 0.130957
0.130957 0.004027 0.130957
0.440549 0.004027 0.130957
0.003599 0.004687 0.130957
0.004027 0.004687 0.130957
0.004687 0.004687 0.130957
0.006912 0.004687 0.130957
0.014557 0.004687 0.130957
0.040807 0.004687 0.130957
0.130957 0.004687 0.130957
0.440549 0.004687 0.130957
0.003599 0.006912 0.130957
0.004027 0.006912 0.130957
0.004687 0.006912 0.130957
0.006912 0.006912 0.130957
0.014557 0.006912 0.130957
0.040807 0.006912 0.130957
0.130957 0.006912 0.130957
0.440549 0.006912 0.130957
0.003599 0.014557 0.130957
0.004027 0.014557 0.130957
0.004687 0.014557 0.130957
0.006912 0.014557 0.130957
0.014557 0.014557 0.130957
0.040807 0.014557 0.130957
0.130957 0.014557 0.130957
0.440549 0.014557 0.130957
0.003599 0.040807 0.130957
0.004027 0.040807 0.130957
0.004687 0.040807 0.130957
0.006912 0.040807 0.130957
0.014557 0.040807 0.130957
0.040807 0.040807 0.130957
0.130957 0.040807 0.130957
0.440549 0.040807 0.130957
0.003599 0.130957 0.130957
0.004027 0.130957 0.130957
0.004687 0.130957 0.130957
0.006912 0.130957 0.130957
0.014557 0.130957 0.130957
0.040807 0.130957 0.130957
0.130957 0.130957 0.130957
0.440549 0.130957 0.130957
0.003599 0.440549 0.130957
0.004027 0.440549 0.130957
0.004687 0.440549 0.130957
0.006912 0.440549 0.130957
0.014557 0.440549 0.130957
0.040807 0.440549 0.130957
0.130957 0.440549 0.130957
0.440549 0.440549 0.130957
0.003599 0.003599 0.440549
0.004027 0.003599 0.440549
0.004687 0.003599 0.440549
0.006912 0.003599 0.440549
0.014557 0.003599 0.440549
0.040807 0.003599 0.440549
0.130957 0.003599 0.440549
0.440549 0.003599 0.440549
0.003599 0.004027 0.440549
0.004027 0.004027 0.440549
0.004687 0.004027 0.440549
0.006912 0.004027 0.440549
0.014557 0.004027 0.440549
0.040807 0.004027 0.440549
0.130957 0.004027 0.440549
0.440549 0.004027 0.440549
0.003599 0.004687 0.440549
0.004027 0.004687 0.440549
0.004687 0.004687 0.440549
0.006912 0.004687 0.440549
0.014557 0.004687 0.440549
0.040807 0.004687 0.440549
0.130957 0.004687 0.440549
0.440549 0.004687 0.440549
0.003599 0.006912 0.440549
0.004027 0.006912 0.440549
0.004687 0.006912 0.440549
0.006912 0.006912 0.440549
0.014557 0.006912 0.440549
0.040807 0.006912 0.440549
0.130957 0.006912 0.440549
0.440549 0.006912 0.440549
0.003599 0.014557 0.440549
0.004027 0.014557 0.440549
0.004687 0.014557 0.440549
0.006912 0.014557 0.440549
0.014557 0.014557 0.440549
0.040807 0.014557 0.440549
0.130957 0.014557 0.440549
0.440549 0.014557 0.440549
0.003599 0.040807 0.440549
0.004027 0.040807 0.440549
0.004687 0.040807 0.440549
0.006912 0.040807 0.440549
0.014557 0.040807 0.440549
0.040807 0.040807 0.440549
0.130957 0.040807 0.440549
0.440549 0.040807 0.440549
0.003599 0.130957 0.440549
0.004027 0.130957 0.440549
0.004687 0.130957 0.440549
0.006912 0.130957 0.440549
0.014557 0.130957 0.440549
0.040807 0.130957 0.440549
0.130957 0.130957 0.440549
0.440549 0.130957 0.440549
0.003599 0.440549 0.440549
0.004027 0.440549 0.440549
0.004687 0.440549 0.440549
0.006912 0.440549 0.440549
0.014557 0.440549 0.440549
0.040807 0.440549 0.440549
0.130957 0.440549 0.440549
0.440549 0.440549 0.440549
