.nuke/nuke.LUT/logC-2-linear_extended/AlexaV3_EI1000_LogC2Linear_EE_nuke3d.cube
# Alexa conversion LUT, logc2lin. Full in/full out.
# created by alexalutconv (2.07)
LUT_3D_SIZE 8
DOMAIN_MIN 0.000000 0.000000 0.000000
DOMAIN_MAX 0.903226 0.903226 0.903226
0.003518 0.003518 0.003518
0.004059 0.003518 0.003518
0.004912 0.003518 0.003518
0.007755 0.003518 0.003518
0.017357 0.003518 0.003518
0.049778 0.003518 0.003518
0.159248 0.003518 0.003518
0.528880 0.003518 0.003518
0.003518 0.004059 0.003518
0.004059 0.004059 0.003518
0.004912 0.004059 0.003518
0.007755 0.004059 0.003518
0.017357 0.004059 0.003518
0.049778 0.004059 0.003518
0.159248 0.004059 0.003518
0.528880 0.004059 0.003518
0.003518 0.004912 0.003518
0.004059 0.004912 0.003518
0.004912 0.004912 0.003518
0.007755 0.004912 0.003518
0.017357 0.004912 0.003518
0.049778 0.004912 0.003518
0.159248 0.004912 0.003518
0.528880 0.004912 0.003518
0.003518 0.007755 0.003518
0.004059 0.007755 0.003518
0.004912 0.007755 0.003518
0.007755 0.007755 0.003518
0.017357 0.007755 0.003518
0.049778 0.007755 0.003518
0.159248 0.007755 0.003518
0.528880 0.007755 0.003518
0.003518 0.017357 0.003518
0.004059 0.017357 0.003518
0.004912 0.017357 0.003518
0.007755 0.017357 0.003518
0.017357 0.017357 0.003518
0.049778 0.017357 0.003518
0.159248 0.017357 0.003518
0.528880 0.017357 0.003518
0.003518 0.049778 0.003518
0.004059 0.049778 0.003518
0.004912 0.049778 0.003518
0.007755 0.049778 0.003518
0.017357 0.049778 0.003518
0.049778 0.049778 0.003518
0.159248 0.049778 0.003518
0.528880 0.049778 0.003518
0.003518 0.159248 0.003518
0.004059 0.159248 0.003518
0.004912 0.159248 0.003518
0.007755 0.159248 0.003518
0.017357 0.159248 0.003518
0.049778 0.159248 0.003518
0.159248 0.159248 0.003518
0.528880 0.159248 0.003518
0.003518 0.528880 0.003518
0.004059 0.528880 0.003518
0.004912 0.528880 0.003518
0.007755 0.528880 0.003518
0.017357 0.528880 0.003518
0.049778 0.528880 0.003518
0.159248 0.528880 0.003518
0.528880 0.528880 0.003518
0.003518 0.003518 0.004059
0.004059 0.003518 0.004059
0.004912 0.003518 0.004059
0.007755 0.003518 0.004059
0.017357 0.003518 0.004059
0.049778 0.003518 0.004059
0.159248 0.003518 0.004059
0.528880 0.003518 0.004059
0.003518 0.004059 0.004059
0.004059 0.004059 0.004059
0.004912 0.004059 0.004059
0.007755 0.004059 0.004059
0.017357 0.004059 0.004059
0.049778 0.004059 0.004059
0.159248 0.004059 0.004059
0.528880 0.004059 0.004059
0.003518 0.004912 0.004059
0.004059 0.004912 0.004059
0.004912 0.004912 0.004059
0.007755 0.004912 0.004059
0.017357 0.004912 0.004059
0.049778 0.004912 0.004059
0.159248 0.004912 0.004059
0.528880 0.004912 0.004059
0.003518 0.007755 0.004059
0.004059 0.007755 0.004059
0.004912 0.007755 0.004059
0.007755 0.007755 0.004059
0.017357 0.007755 0.004059
0.049778 0.007755 0.004059
0.159248 0.007755 0.004059
0.528880 0.007755 0.004059
0.003518 0.017357 0.004059
0.004059 0.017357 0.004059
0.004912 0.017357 0.004059
0.007755 0.017357 0.004059
0.017357 0.017357 0.004059
0.049778 0.017357 0.004059
0.159248 0.017357 0.004059
0.528880 0.017357 0.004059
0.003518 0.049778 0.004059
0.004059 0.049778 0.004059
0.004912 0.049778 0.004059
0.007755 0.049778 0.004059
0.017357 0.049778 0.004059
0.049778 0.049778 0.004059
0.159248 0.049778 0.004059
0.528880 0.049778 0.004059
0.003518 0.159248 0.004059
0.004059 0.159248 0.004059
0.004912 0.159248 0.004059
0.007755 0.159248 0.004059
0.017357 0.159248 0.004059
0.049778 0.159248 0.004059
0.159248 0.159248 0.004059
0.528880 0.159248 0.004059
0.003518 0.528880 0.004059
0.004059 0.528880 0.004059
0.004912 0.528880 0.004059
0.007755 0.528880 0.004059
0.017357 0.528880 0.004059
0.049778 0.528880 0.004059
0.159248 0.528880 0.004059
0.528880 0.528880 0.004059
0.003518 0.003518 0.004912
0.004059 0.003518 0.004912
0.004912 0.003518 0.004912
0.007755 0.003518 0.004912
0.017357 0.003518 0.004912
0.049778 0.003518 0.004912
0.159248 0.003518 0.004912
0.528880 0.003518 0.004912
0.003518 0.004059 0.004912
0.004059 0.004059 0.004912
0.004912 0.004059 0.004912
0.007755 0.004059 0.004912
0.017357 0.004059 0.004912
0.049778 0.004059 0.004912
0.159248 0.004059 0.004912
0.528880 0.004059 0.004912
0.003518 0.004912 0.004912
0.004059 0.004912 0.004912
0.004912 0.004912 0.004912
0.007755 0.004912 0.004912
0.017357 0.004912 0.004912
0.049778 0.004912 0.004912
0.159248 0.004912 0.004912
0.528880 0.004912 0.004912
0.003518 0.007755 0.004912
0.004059 0.007755 0.004912
0.004912 0.007755 0.004912
0.007755 0.007755 0.004912
0.017357 0.007755 0.004912
0.049778 0.007755 0.004912
0.159248 0.007755 0.004912
0.528880 0.007755 0.004912
0.003518 0.017357 0.004912
0.004059 0.017357 0.004912
0.004912 0.017357 0.004912
0.007755 0.017357 0.004912
0.017357 0.017357 0.004912
0.049778 0.017357 0.004912
0.159248 0.017357 0.004912
0.528880 0.017357 0.004912
0.003518 0.049778 0.004912
0.004059 0.049778 0.004912
0.004912 0.049778 0.004912
0.007755 0.049778 0.004912
0.017357 0.049778 0.004912
0.049778 0.049778 0.004912
0.159248 0.049778 0.004912
0.528880 0.049778 0.004912
0.003518 0.159248 0.004912
0.004059 0.159248 0.004912
0.004912 0.159248 0.004912
0.007755 0.159248 0.004912
0.017357 0.159248 0.004912
0.049778 0.159248 0.004912
0.159248 0.159248 0.004912
0.528880 0.159248 0.004912
0.003518 0.528880 0.004912
0.004059 0.528880 0.004912
0.004912 0.528880 0.004912
0.007755 0.528880 0.004912
0.017357 0.528880 0.004912
0.049778 0.528880 0.004912
0.159248 0.528880 0.004912
0.528880 0.528880 0.004912
0.003518 0.003518 0.007755
0.004059 0.003518 0.007755
0.004912 0.003518 0.007755
0.007755 0.003518 0.007755
0.017357 0.003518 0.007755
0.049778 0.003518 0.007755
0.159248 0.003518 0.007755
0.528880 0.003518 0.007755
0.003518 0.004059 0.007755
0.004059 0.004059 0.007755
0.004912 0.004059 0.007755
0.007755 0.004059 0.007755
0.017357 0.004059 0.007755
0.049778 0.004059 0.007755
0.159248 0.004059 0.007755
0.528880 0.004059 0.007755
0.003518 0.004912 0.007755
0.004059 0.004912 0.007755
0.004912 0.004912 0.007755
0.007755 0.004912 0.007755
0.017357 0.004912 0.007755
0.049778 0.004912 0.007755
0.159248 0.004912 0.007755
0.528880 0.004912 0.007755
0.003518 0.007755 0.007755
0.004059 0.007755 0.007755
0.004912 0.007755 0.007755
0.007755 0.007755 0.007755
0.017357 0.007755 0.007755
0.049778 0.007755 0.007755
0.159248 0.007755 0.007755
0.528880 0.007755 0.007755
0.003518 0.017357 0.007755
0.004059 0.017357 0.007755
0.004912 0.017357 0.007755
0.007755 0.017357 0.007755
0.017357 0.017357 0.007755
0.049778 0.017357 0.007755
0.159248 0.017357 0.007755
0.528880 0.017357 0.007755
0.003518 0.049778 0.007755
0.004059 0.049778 0.007755
0.004912 0.049778 0.007755
0.007755 0.049778 0.007755
0.017357 0.049778 0.007755
0.049778 0.049778 0.007755
0.159248 0.049778 0.007755
0.528880 0.049778 0.007755
0.003518 0.159248 0.007755
0.004059 0.159248 0.007755
0.004912 0.159248 0.007755
0.007755 0.159248 0.007755
0.017357 0.159248 0.007755
0.049778 0.159248 0.007755
0.159248 0.159248 0.007755
0.528880 0.159248 0.007755
0.003518 0.528880 0.007755
0.004059 0.528880 0.007755
0.004912 0.528880 0.007755
0.007755 0.528880 0.007755
0.017357 0.528880 0.007755
0.049778 0.528880 0.007755
0.159248 0.528880 0.007755
0.528880 0.528880 0.007755
0.003518 0.003518 0.017357
0.004059 0.003518 0.017357
0.004912 0.003518 0.017357
0.007755 0.003518 0.017357
0.017357 0.003518 0.017357
0.049778 0.003518 0.017357
0.159248 0.003518 0.017357
0.528880 0.003518 0.017357
0.003518 0.004059 0.017357
0.004059 0.004059 0.017357
0.004912 0.004059 0.017357
0.007755 0.004059 0.017357
0.017357 0.004059 0.017357
0.049778 0.004059 0.017357
0.159248 0.004059 0.017357
0.528880 0.004059 0.017357
0.003518 0.004912 0.017357
0.004059 0.004912 0.017357
0.004912 0.004912 0.017357
0.007755 0.004912 0.017357
0.017357 0.004912 0.017357
0.049778 0.004912 0.017357
0.159248 0.004912 0.017357
0.528880 0.004912 0.017357
0.003518 0.007755 0.017357
0.004059 0.007755 0.017357
0.004912 0.007755 0.017357
0.007755 0.007755 0.017357
0.017357 0.007755 0.017357
0.049778 0.007755 0.017357
0.159248 0.007755 0.017357
0.528880 0.007755 0.017357
0.003518 0.017357 0.017357
0.004059 0.017357 0.017357
0.004912 0.017357 0.017357
0.007755 0.017357 0.017357
0.017357 0.017357 0.017357
0.049778 0.017357 0.017357
0.159248 0.017357 0.017357
0.528880 0.017357 0.017357
0.003518 0.049778 0.017357
0.004059 0.049778 0.017357
0.004912 0.049778 0.017357
0.007755 0.049778 0.017357
0.017357 0.049778 0.017357
0.049778 0.049778 0.017357
0.159248 0.049778 0.017357
0.528880 0.049778 0.017357
0.003518 0.159248 0.017357
0.004059 0.159248 0.017357
0.004912 0.159248 0.017357
0.007755 0.159248 0.017357
0.017357 0.159248 0.017357
0.049778 0.159248 0.017357
0.159248 0.159248 0.017357
0.528880 0.159248 0.017357
0.003518 0.528880 0.017357
0.004059 0.528880 0.017357
0.004912 0.528880 0.017357
0.007755 0.528880 0.017357
0.017357 0.528880 0.017357
0.049778 0.528880 0.017357
0.159248 0.528880 0.017357
0.528880 0.528880 0.017357
0.003518 0.003518 0.049778
0.004059 0.003518 0.049778
0.004912 0.003518 0.049778
0.007755 0.003518 0.049778
0.017357 0.003518 0.049778
0.049778 0.003518 0.049778
0.159248 0.003518 0.049778
0.528880 0.003518 0.049778
0.003518 0.004059 0.049778
0.004059 0.004059 0.049778
0.004912 0.004059 0.049778
0.007755 0.004059 0.049778
0.017357 0.004059 0.049778
0.049778 0.004059 0.049778
0.159248 0.004059 0.049778
0.528880 0.004059 0.049778
0.003518 0.004912 0.049778
0.004059 0.004912 0.049778
0.004912 0.004912 0.049778
0.007755 0.004912 0.049778
0.017357 0.004912 0.049778
0.049778 0.004912 0.049778
0.159248 0.004912 0.049778
0.528880 0.004912 0.049778
0.003518 0.007755 0.049778
0.004059 0.007755 0.049778
0.004912 0.007755 0.049778
0.007755 0.007755 0.049778
0.017357 0.007755 0.049778
0.049778 0.007755 0.049778
0.159248 0.007755 0.049778
0.528880 0.007755 0.049778
0.003518 0.017357 0.049778
0.004059 0.017357 0.049778
0.004912 0.017357 0.049778
0.007755 0.017357 0.049778
0.017357 0.017357 0.049778
0.049778 0.017357 0.049778
0.159248 0.017357 0.049778
0.528880 0.017357 0.049778
0.003518 0.049778 0.049778
0.004059 0.049778 0.049778
0.004912 0.049778 0.049778
0.007755 0.049778 0.049778
0.017357 0.049778 0.049778
0.049778 0.049778 0.049778
0.159248 0.049778 0.049778
0.528880 0.049778 0.049778
0.003518 0.159248 0.049778
0.004059 0.159248 0.049778
0.004912 0.159248 0.049778
0.007755 0.159248 0.049778
0.017357 0.159248 0.049778
0.049778 0.159248 0.049778
0.159248 0.159248 0.049778
0.528880 0.159248 0.049778
0.003518 0.528880 0.049778
0.004059 0.528880 0.049778
0.004912 0.528880 0.049778
0.007755 0.528880 0.049778
0.017357 0.528880 0.049778
0.049778 0.528880 0.049778
0.159248 0.528880 0.049778
0.528880 0.528880 0.049778
0.003518 0.003518 0.159248
0.004059 0.003518 0.159248
0.004912 0.003518 0.159248
0.007755 0.003518 0.159248
0.017357 0.003518 0.159248
0.049778 0.003518 0.159248
0.159248 0.003518 0.159248
0.528880 0.003518 0.159248
0.003518 0.004059 0.159248
0.004059 0.004059 0.159248
0.004912 0.004059 0.159248
0.007755 0.004059 0.159248
0.017357 0.004059 0.159248
0.049778 0.004059 0.159248
0.159248 0.004059 0.159248
0.528880 0.004059 0.159248
0.003518 0.004912 0.159248
0.004059 0.004912 0.159248
0.004912 0.004912 0.159248
0.007755 0.004912 0.159248
0.017357 0.004912 0.159248
0.049778 0.004912 0.159248
0.159248 0.004912 0.159248
0.528880 0.004912 0.159248
0.003518 0.007755 0.159248
0.004059 0.007755 0.159248
0.004912 0.007755 0.159248
0.007755 0.007755 0.159248
0.017357 0.007755 0.159248
0.049778 0.007755 0.159248
0.159248 0.007755 0.159248
0.528880 0.007755 0.159248
0.003518 0.017357 0.159248
0.004059 0.017357 0.159248
0.004912 0.017357 0.159248
0.007755 0.017357 0.159248
0.017357 0.017357 0.159248
0.049778 0.017357 0.159248
0.159248 0.017357 0.159248
0.528880 0.017357 0.159248
0.003518 0.049778 0.159248
0.004059 0.049778 0.159248
0.004912 0.049778 0.159248
0.007755 0.049778 0.159248
0.017357 0.049778 0.159248
0.049778 0.049778 0.159248
0.159248 0.049778 0.159248
0.528880 0.049778 0.159248
0.003518 0.159248 0.159248
0.004059 0.159248 0.159248
0.004912 0.159248 0.159248
0.007755 0.159248 0.159248
0.017357 0.159248 0.159248
0.049778 0.159248 0.159248
0.159248 0.159248 0.159248
0.528880 0.159248 0.159248
0.003518 0.528880 0.159248
0.004059 0.528880 0.159248
0.004912 0.528880 0.159248
0.007755 0.528880 0.159248
0.017357 0.528880 0.159248
0.049778 0.528880 0.159248
0.159248 0.528880 0.159248
0.528880 0.528880 0.159248
0.003518 0.003518 0.528880
0.004059 0.003518 0.528880
0.004912 0.003518 0.528880
0.007755 0.003518 0.528880
0.017357 0.003518 0.528880
0.049778 0.003518 0.528880
0.159248 0.003518 0.528880
0.528880 0.003518 0.528880
0.003518 0.004059 0.528880
0.004059 0.004059 0.528880
0.004912 0.004059 0.528880
0.007755 0.004059 0.528880
0.017357 0.004059 0.528880
0.049778 0.004059 0.528880
0.159248 0.004059 0.528880
0.528880 0.004059 0.528880
0.003518 0.004912 0.528880
0.004059 0.004912 0.528880
0.004912 0.004912 0.528880
0.007755 0.004912 0.528880
0.017357 0.004912 0.528880
0.049778 0.004912 0.528880
0.159248 0.004912 0.528880
0.528880 0.004912 0.528880
0.003518 0.007755 0.528880
0.004059 0.007755 0.528880
0.004912 0.007755 0.528880
0.007755 0.007755 0.528880
0.017357 0.007755 0.528880
0.049778 0.007755 0.528880
0.159248 0.007755 0.528880
0.528880 0.007755 0.528880
0.003518 0.017357 0.528880
0.004059 0.017357 0.528880
0.004912 0.017357 0.528880
0.007755 0.017357 0.528880
0.017357 0.017357 0.528880
0.049778 0.017357 0.528880
0.159248 0.017357 0.528880
0.528880 0.017357 0.528880
0.003518 0.049778 0.528880
0.004059 0.049778 0.528880
0.004912 0.049778 0.528880
0.007755 0.049778 0.528880
0.017357 0.049778 0.528880
0.049778 0.049778 0.528880
0.159248 0.049778 0.528880
0.528880 0.049778 0.528880
0.003518 0.159248 0.528880
0.004059 0.159248 0.528880
0.004912 0.159248 0.528880
0.007755 0.159248 0.528880
0.017357 0.159248 0.528880
0.049778 0.159248 0.528880
0.159248 0.159248 0.528880
0.528880 0.159248 0.528880
0.003518 0.528880 0.528880
0.004059 0.528880 0.528880
0.004912 0.528880 0.528880
0.007755 0.528880 0.528880
0.017357 0.528880 0.528880
0.049778 0.528880 0.528880
0.159248 0.528880 0.528880
0.528880 0.528880 0.528880
