.nuke/nuke.LUT/logC-2-linear_extended/AlexaV3_EI2560_LogC2Linear_EE_nuke3d.cube
# Alexa conversion LUT, logc2lin. Full in/full out.
# created by alexalutconv (2.07)
LUT_3D_SIZE 32
0.003747 0.003747 0.003747
0.003803 0.003747 0.003747
0.003858 0.003747 0.003747
0.003914 0.003747 0.003747
0.003970 0.003747 0.003747
0.004025 0.003747 0.003747
0.004088 0.003747 0.003747
0.004173 0.003747 0.003747
0.004290 0.003747 0.003747
0.004453 0.003747 0.003747
0.004676 0.003747 0.003747
0.004984 0.003747 0.003747
0.005408 0.003747 0.003747
0.005993 0.003747 0.003747
0.006800 0.003747 0.003747
0.007912 0.003747 0.003747
0.009445 0.003747 0.003747
0.011558 0.003747 0.003747
0.014471 0.003747 0.003747
0.018485 0.003747 0.003747
0.024020 0.003747 0.003747
0.031650 0.003747 0.003747
0.042167 0.003747 0.003747
0.056665 0.003747 0.003747
0.076651 0.003747 0.003747
0.104231 0.003747 0.003747
0.143813 0.003747 0.003747
0.202496 0.003747 0.003747
0.291319 0.003747 0.003747
0.428767 0.003747 0.003747
0.646487 0.003747 0.003747
1.000000 0.003747 0.003747
0.003747 0.003803 0.003747
0.003803 0.003803 0.003747
0.003858 0.003803 0.003747
0.003914 0.003803 0.003747
0.003970 0.003803 0.003747
0.004025 0.003803 0.003747
0.004088 0.003803 0.003747
0.004173 0.003803 0.003747
0.004290 0.003803 0.003747
0.004453 0.003803 0.003747
0.004676 0.003803 0.003747
0.004984 0.003803 0.003747
0.005408 0.003803 0.003747
0.005993 0.003803 0.003747
0.006800 0.003803 0.003747
0.007912 0.003803 0.003747
0.009445 0.003803 0.003747
0.011558 0.003803 0.003747
0.014471 0.003803 0.003747
0.018485 0.003803 0.003747
0.024020 0.003803 0.003747
0.031650 0.003803 0.003747
0.042167 0.003803 0.003747
0.056665 0.003803 0.003747
0.076651 0.003803 0.003747
0.104231 0.003803 0.003747
0.143813 0.003803 0.003747
0.202496 0.003803 0.003747
0.291319 0.003803 0.003747
0.428767 0.003803 0.003747
0.646487 0.003803 0.003747
1.000000 0.003803 0.003747
0.003747 0.003858 0.003747
0.003803 0.003858 0.003747
0.003858 0.003858 0.003747
0.003914 0.003858 0.003747
0.003970 0.003858 0.003747
0.004025 0.003858 0.003747
0.004088 0.003858 0.003747
0.004173 0.003858 0.003747
0.004290 0.003858 0.003747
0.004453 0.003858 0.003747
0.004676 0.003858 0.003747
0.004984 0.003858 0.003747
0.005408 0.003858 0.003747
0.005993 0.003858 0.003747
0.006800 0.003858 0.003747
0.007912 0.003858 0.003747
0.009445 0.003858 0.003747
0.011558 0.003858 0.003747
0.014471 0.003858 0.003747
0.018485 0.003858 0.003747
0.024020 0.003858 0.003747
0.031650 0.003858 0.003747
0.042167 0.003858 0.003747
0.056665 0.003858 0.003747
0.076651 0.003858 0.003747
0.104231 0.003858 0.003747
0.143813 0.003858 0.003747
0.202496 0.003858 0.003747
0.291319 0.003858 0.003747
0.428767 0.003858 0.003747
0.646487 0.003858 0.003747
1.000000 0.003858 0.003747
0.003747 0.003914 0.003747
0.003803 0.003914 0.003747
0.003858 0.003914 0.003747
0.003914 0.003914 0.003747
0.003970 0.003914 0.003747
0.004025 0.003914 0.003747
0.004088 0.003914 0.003747
0.004173 0.003914 0.003747
0.004290 0.003914 0.003747
0.004453 0.003914 0.003747
0.004676 0.003914 0.003747
0.004984 0.003914 0.003747
0.005408 0.003914 0.003747
0.005993 0.003914 0.003747
0.006800 0.003914 0.003747
0.007912 0.003914 0.003747
0.009445 0.003914 0.003747
0.011558 0.003914 0.003747
0.014471 0.003914 0.003747
0.018485 0.003914 0.003747
0.024020 0.003914 0.003747
0.031650 0.003914 0.003747
0.042167 0.003914 0.003747
0.056665 0.003914 0.003747
0.076651 0.003914 0.003747
0.104231 0.003914 0.003747
0.143813 0.003914 0.003747
0.202496 0.003914 0.003747
0.291319 0.003914 0.003747
0.428767 0.003914 0.003747
0.646487 0.003914 0.003747
1.000000 0.003914 0.003747
0.003747 0.003970 0.003747
0.003803 0.003970 0.003747
0.003858 0.003970 0.003747
0.003914 0.003970 0.003747
0.003970 0.003970 0.003747
0.004025 0.003970 0.003747
0.004088 0.003970 0.003747
0.004173 0.003970 0.003747
0.004290 0.003970 0.003747
0.004453 0.003970 0.003747
0.004676 0.003970 0.003747
0.004984 0.003970 0.003747
0.005408 0.003970 0.003747
0.005993 0.003970 0.003747
0.006800 0.003970 0.003747
0.007912 0.003970 0.003747
0.009445 0.003970 0.003747
0.011558 0.003970 0.003747
0.014471 0.003970 0.003747
0.018485 0.003970 0.003747
0.024020 0.003970 0.003747
0.031650 0.003970 0.003747
0.042167 0.003970 0.003747
0.056665 0.003970 0.003747
0.076651 0.003970 0.003747
0.104231 0.003970 0.003747
0.143813 0.003970 0.003747
0.202496 0.003970 0.003747
0.291319 0.003970 0.003747
0.428767 0.003970 0.003747
0.646487 0.003970 0.003747
1.000000 0.003970 0.003747
0.003747 0.004025 0.003747
0.003803 0.004025 0.003747
0.003858 0.004025 0.003747
0.003914 0.004025 0.003747
0.003970 0.004025 0.003747
0.004025 0.004025 0.003747
0.004088 0.004025 0.003747
0.004173 0.004025 0.003747
0.004290 0.004025 0.003747
0.004453 0.004025 0.003747
0.004676 0.004025 0.003747
0.004984 0.004025 0.003747
0.005408 0.004025 0.003747
0.005993 0.004025 0.003747
0.006800 0.004025 0.003747
0.007912 0.004025 0.003747
0.009445 0.004025 0.003747
0.011558 0.004025 0.003747
0.014471 0.004025 0.003747
0.018485 0.004025 0.003747
0.024020 0.004025 0.003747
0.031650 0.004025 0.003747
0.042167 0.004025 0.003747
0.056665 0.004025 0.003747
0.076651 0.004025 0.003747
0.104231 0.004025 0.003747
0.143813 0.004025 0.003747
0.202496 0.004025 0.003747
0.291319 0.004025 0.003747
0.428767 0.004025 0.003747
0.646487 0.004025 0.003747
1.000000 0.004025 0.003747
0.003747 0.004088 0.003747
0.003803 0.004088 0.003747
0.003858 0.004088 0.003747
0.003914 0.004088 0.003747
0.003970 0.004088 0.003747
0.004025 0.004088 0.003747
0.004088 0.004088 0.003747
0.004173 0.004088 0.003747
0.004290 0.004088 0.003747
0.004453 0.004088 0.003747
0.004676 0.004088 0.003747
0.004984 0.004088 0.003747
0.005408 0.004088 0.003747
0.005993 0.004088 0.003747
0.006800 0.004088 0.003747
0.007912 0.004088 0.003747
0.009445 0.004088 0.003747
0.011558 0.004088 0.003747
0.014471 0.004088 0.003747
0.018485 0.004088 0.003747
0.024020 0.004088 0.003747
0.031650 0.004088 0.003747
0.042167 0.004088 0.003747
0.056665 0.004088 0.003747
0.076651 0.004088 0.003747
0.104231 0.004088 0.003747
0.143813 0.004088 0.003747
0.202496 0.004088 0.003747
0.291319 0.004088 0.003747
0.428767 0.004088 0.003747
0.646487 0.004088 0.003747
1.000000 0.004088 0.003747
0.003747 0.004173 0.003747
0.003803 0.004173 0.003747
0.003858 0.004173 0.003747
0.003914 0.004173 0.003747
0.003970 0.004173 0.003747
0.004025 0.004173 0.003747
0.004088 0.004173 0.003747
0.004173 0.004173 0.003747
0.004290 0.004173 0.003747
0.004453 0.004173 0.003747
0.004676 0.004173 0.003747
0.004984 0.004173 0.003747
0.005408 0.004173 0.003747
0.005993 0.004173 0.003747
0.006800 0.004173 0.003747
0.007912 0.004173 0.003747
0.009445 0.004173 0.003747
0.011558 0.004173 0.003747
0.014471 0.004173 0.003747
0.018485 0.004173 0.003747
0.024020 0.004173 0.003747
0.031650 0.004173 0.003747
0.042167 0.004173 0.003747
0.056665 0.004173 0.003747
0.076651 0.004173 0.003747
0.104231 0.004173 0.003747
0.143813 0.004173 0.003747
0.202496 0.004173 0.003747
0.291319 0.004173 0.003747
0.428767 0.004173 0.003747
0.646487 0.004173 0.003747
1.000000 0.004173 0.003747
0.003747 0.004290 0.003747
0.003803 0.004290 0.003747
0.003858 0.004290 0.003747
0.003914 0.004290 0.003747
0.003970 0.004290 0.003747
0.004025 0.004290 0.003747
0.004088 0.004290 0.003747
0.004173 0.004290 0.003747
0.004290 0.004290 0.003747
0.004453 0.004290 0.003747
0.004676 0.004290 0.003747
0.004984 0.004290 0.003747
0.005408 0.004290 0.003747
0.005993 0.004290 0.003747
0.006800 0.004290 0.003747
0.007912 0.004290 0.003747
0.009445 0.004290 0.003747
0.011558 0.004290 0.003747
0.014471 0.004290 0.003747
0.018485 0.004290 0.003747
0.024020 0.004290 0.003747
0.031650 0.004290 0.003747
0.042167 0.004290 0.003747
0.056665 0.004290 0.003747
0.076651 0.004290 0.003747
0.104231 0.004290 0.003747
0.143813 0.004290 0.003747
0.202496 0.004290 0.003747
0.291319 0.004290 0.003747
0.428767 0.004290 0.003747
0.646487 0.004290 0.003747
1.000000 0.004290 0.003747
0.003747 0.004453 0.003747
0.003803 0.004453 0.003747
0.003858 0.004453 0.003747
0.003914 0.004453 0.003747
0.003970 0.004453 0.003747
0.004025 0.004453 0.003747
0.004088 0.004453 0.003747
0.004173 0.004453 0.003747
0.004290 0.004453 0.003747
0.004453 0.004453 0.003747
0.004676 0.004453 0.003747
0.004984 0.004453 0.003747
0.005408 0.004453 0.003747
0.005993 0.004453 0.003747
0.006800 0.004453 0.003747
0.007912 0.004453 0.003747
0.009445 0.004453 0.003747
0.011558 0.004453 0.003747
0.014471 0.004453 0.003747
0.018485 0.004453 0.003747
0.024020 0.004453 0.003747
0.031650 0.004453 0.003747
0.042167 0.004453 0.003747
0.056665 0.004453 0.003747
0.076651 0.004453 0.003747
0.104231 0.004453 0.003747
0.143813 0.004453 0.003747
0.202496 0.004453 0.003747
0.291319 0.004453 0.003747
0.428767 0.004453 0.003747
0.646487 0.004453 0.003747
1.000000 0.004453 0.003747
0.003747 0.004676 0.003747
0.003803 0.004676 0.003747
0.003858 0.004676 0.003747
0.003914 0.004676 0.003747
0.003970 0.004676 0.003747
0.004025 0.004676 0.003747
0.004088 0.004676 0.003747
0.004173 0.004676 0.003747
0.004290 0.004676 0.003747
0.004453 0.004676 0.003747
0.004676 0.004676 0.003747
0.004984 0.004676 0.003747
0.005408 0.004676 0.003747
0.005993 0.004676 0.003747
0.006800 0.004676 0.003747
0.007912 0.004676 0.003747
0.009445 0.004676 0.003747
0.011558 0.004676 0.003747
0.014471 0.004676 0.003747
0.018485 0.004676 0.003747
0.024020 0.004676 0.003747
0.031650 0.004676 0.003747
0.042167 0.004676 0.003747
0.056665 0.004676 0.003747
0.076651 0.004676 0.003747
0.104231 0.004676 0.003747
0.143813 0.004676 0.003747
0.202496 0.004676 0.003747
0.291319 0.004676 0.003747
0.428767 0.004676 0.003747
0.646487 0.004676 0.003747
1.000000 0.004676 0.003747
0.003747 0.004984 0.003747
0.003803 0.004984 0.003747
0.003858 0.004984 0.003747
0.003914 0.004984 0.003747
0.003970 0.004984 0.003747
0.004025 0.004984 0.003747
0.004088 0.004984 0.003747
0.004173 0.004984 0.003747
0.004290 0.004984 0.003747
0.004453 0.004984 0.003747
0.004676 0.004984 0.003747
0.004984 0.004984 0.003747
0.005408 0.004984 0.003747
0.005993 0.004984 0.003747
0.006800 0.004984 0.003747
0.007912 0.004984 0.003747
0.009445 0.004984 0.003747
0.011558 0.004984 0.003747
0.014471 0.004984 0.003747
0.018485 0.004984 0.003747
0.024020 0.004984 0.003747
0.031650 0.004984 0.003747
0.042167 0.004984 0.003747
0.056665 0.004984 0.003747
0.076651 0.004984 0.003747
0.104231 0.004984 0.003747
0.143813 0.004984 0.003747
0.202496 0.004984 0.003747
0.291319 0.004984 0.003747
0.428767 0.004984 0.003747
0.646487 0.004984 0.003747
1.000000 0.004984 0.003747
0.003747 0.005408 0.003747
0.003803 0.005408 0.003747
0.003858 0.005408 0.003747
0.003914 0.005408 0.003747
0.003970 0.005408 0.003747
0.004025 0.005408 0.003747
0.004088 0.005408 0.003747
0.004173 0.005408 0.003747
0.004290 0.005408 0.003747
0.004453 0.005408 0.003747
0.004676 0.005408 0.003747
0.004984 0.005408 0.003747
0.005408 0.005408 0.003747
0.005993 0.005408 0.003747
0.006800 0.005408 0.003747
0.007912 0.005408 0.003747
0.009445 0.005408 0.003747
0.011558 0.005408 0.003747
0.014471 0.005408 0.003747
0.018485 0.005408 0.003747
0.024020 0.005408 0.003747
0.031650 0.005408 0.003747
0.042167 0.005408 0.003747
0.056665 0.005408 0.003747
0.076651 0.005408 0.003747
0.104231 0.005408 0.003747
0.143813 0.005408 0.003747
0.202496 0.005408 0.003747
0.291319 0.005408 0.003747
0.428767 0.005408 0.003747
0.646487 0.005408 0.003747
1.000000 0.005408 0.003747
0.003747 0.005993 0.003747
0.003803 0.005993 0.003747
0.003858 0.005993 0.003747
0.003914 0.005993 0.003747
0.003970 0.005993 0.003747
0.004025 0.005993 0.003747
0.004088 0.005993 0.003747
0.004173 0.005993 0.003747
0.004290 0.005993 0.003747
0.004453 0.005993 0.003747
0.004676 0.005993 0.003747
0.004984 0.005993 0.003747
0.005408 0.005993 0.003747
0.005993 0.005993 0.003747
0.006800 0.005993 0.003747
0.007912 0.005993 0.003747
0.009445 0.005993 0.003747
0.011558 0.005993 0.003747
0.014471 0.005993 0.003747
0.018485 0.005993 0.003747
0.024020 0.005993 0.003747
0.031650 0.005993 0.003747
0.042167 0.005993 0.003747
0.056665 0.005993 0.003747
0.076651 0.005993 0.003747
0.104231 0.005993 0.003747
0.143813 0.005993 0.003747
0.202496 0.005993 0.003747
0.291319 0.005993 0.003747
0.428767 0.005993 0.003747
0.646487 0.005993 0.003747
1.000000 0.005993 0.003747
0.003747 0.006800 0.003747
0.003803 0.006800 0.003747
0.003858 0.006800 0.003747
0.003914 0.006800 0.003747
0.003970 0.006800 0.003747
0.004025 0.006800 0.003747
0.004088 0.006800 0.003747
0.004173 0.006800 0.003747
0.004290 0.006800 0.003747
0.004453 0.006800 0.003747
0.004676 0.006800 0.003747
0.004984 0.006800 0.003747
0.005408 0.006800 0.003747
0.005993 0.006800 0.003747
0.006800 0.006800 0.003747
0.007912 0.006800 0.003747
0.009445 0.006800 0.003747
0.011558 0.006800 0.003747
0.014471 0.006800 0.003747
0.018485 0.006800 0.003747
0.024020 0.006800 0.003747
0.031650 0.006800 0.003747
0.042167 0.006800 0.003747
0.056665 0.006800 0.003747
0.076651 0.006800 0.003747
0.104231 0.006800 0.003747
0.143813 0.006800 0.003747
0.202496 0.006800 0.003747
0.291319 0.006800 0.003747
0.428767 0.006800 0.003747
0.646487 0.006800 0.003747
1.000000 0.006800 0.003747
0.003747 0.007912 0.003747
0.003803 0.007912 0.003747
0.003858 0.007912 0.003747
0.003914 0.007912 0.003747
0.003970 0.007912 0.003747
0.004025 0.007912 0.003747
0.004088 0.007912 0.003747
0.004173 0.007912 0.003747
0.004290 0.007912 0.003747
0.004453 0.007912 0.003747
0.004676 0.007912 0.003747
0.004984 0.007912 0.003747
0.005408 0.007912 0.003747
0.005993 0.007912 0.003747
0.006800 0.007912 0.003747
0.007912 0.007912 0.003747
0.009445 0.007912 0.003747
0.011558 0.007912 0.003747
0.014471 0.007912 0.003747
0.018485 0.007912 0.003747
0.024020 0.007912 0.003747
0.031650 0.007912 0.003747
0.042167 0.007912 0.003747
0.056665 0.007912 0.003747
0.076651 0.007912 0.003747
0.104231 0.007912 0.003747
0.143813 0.007912 0.003747
0.202496 0.007912 0.003747
0.291319 0.007912 0.003747
0.428767 0.007912 0.003747
0.646487 0.007912 0.003747
1.000000 0.007912 0.003747
0.003747 0.009445 0.003747
0.003803 0.009445 0.003747
0.003858 0.009445 0.003747
0.003914 0.009445 0.003747
0.003970 0.009445 0.003747
0.004025 0.009445 0.003747
0.004088 0.009445 0.003747
0.004173 0.009445 0.003747
0.004290 0.009445 0.003747
0.004453 0.009445 0.003747
0.004676 0.009445 0.003747
0.004984 0.009445 0.003747
0.005408 0.009445 0.003747
0.005993 0.009445 0.003747
0.006800 0.009445 0.003747
0.007912 0.009445 0.003747
0.009445 0.009445 0.003747
0.011558 0.009445 0.003747
0.014471 0.009445 0.003747
0.018485 0.009445 0.003747
0.024020 0.009445 0.003747
0.031650 0.009445 0.003747
0.042167 0.009445 0.003747
0.056665 0.009445 0.003747
0.076651 0.009445 0.003747
0.104231 0.009445 0.003747
0.143813 0.009445 0.003747
0.202496 0.009445 0.003747
0.291319 0.009445 0.003747
0.428767 0.009445 0.003747
0.646487 0.009445 0.003747
1.000000 0.009445 0.003747
0.003747 0.011558 0.003747
0.003803 0.011558 0.003747
0.003858 0.011558 0.003747
0.003914 0.011558 0.003747
0.003970 0.011558 0.003747
0.004025 0.011558 0.003747
0.004088 0.011558 0.003747
0.004173 0.011558 0.003747
0.004290 0.011558 0.003747
0.004453 0.011558 0.003747
0.004676 0.011558 0.003747
0.004984 0.011558 0.003747
0.005408 0.011558 0.003747
0.005993 0.011558 0.003747
0.006800 0.011558 0.003747
0.007912 0.011558 0.003747
0.009445 0.011558 0.003747
0.011558 0.011558 0.003747
0.014471 0.011558 0.003747
0.018485 0.011558 0.003747
0.024020 0.011558 0.003747
0.031650 0.011558 0.003747
0.042167 0.011558 0.003747
0.056665 0.011558 0.003747
0.076651 0.011558 0.003747
0.104231 0.011558 0.003747
0.143813 0.011558 0.003747
0.202496 0.011558 0.003747
0.291319 0.011558 0.003747
0.428767 0.011558 0.003747
0.646487 0.011558 0.003747
1.000000 0.011558 0.003747
0.003747 0.014471 0.003747
0.003803 0.014471 0.003747
0.003858 0.014471 0.003747
0.003914 0.014471 0.003747
0.003970 0.014471 0.003747
0.004025 0.014471 0.003747
0.004088 0.014471 0.003747
0.004173 0.014471 0.003747
0.004290 0.014471 0.003747
0.004453 0.014471 0.003747
0.004676 0.014471 0.003747
0.004984 0.014471 0.003747
0.005408 0.014471 0.003747
0.005993 0.014471 0.003747
0.006800 0.014471 0.003747
0.007912 0.014471 0.003747
0.009445 0.014471 0.003747
0.011558 0.014471 0.003747
0.014471 0.014471 0.003747
0.018485 0.014471 0.003747
0.024020 0.014471 0.003747
0.031650 0.014471 0.003747
0.042167 0.014471 0.003747
0.056665 0.014471 0.003747
0.076651 0.014471 0.003747
0.104231 0.014471 0.003747
0.143813 0.014471 0.003747
0.202496 0.014471 0.003747
0.291319 0.014471 0.003747
0.428767 0.014471 0.003747
0.646487 0.014471 0.003747
1.000000 0.014471 0.003747
0.003747 0.018485 0.003747
0.003803 0.018485 0.003747
0.003858 0.018485 0.003747
0.003914 0.018485 0.003747
0.003970 0.018485 0.003747
0.004025 0.018485 0.003747
0.004088 0.018485 0.003747
0.004173 0.018485 0.003747
0.004290 0.018485 0.003747
0.004453 0.018485 0.003747
0.004676 0.018485 0.003747
0.004984 0.018485 0.003747
0.005408 0.018485 0.003747
0.005993 0.018485 0.003747
0.006800 0.018485 0.003747
0.007912 0.018485 0.003747
0.009445 0.018485 0.003747
0.011558 0.018485 0.003747
0.014471 0.018485 0.003747
0.018485 0.018485 0.003747
0.024020 0.018485 0.003747
0.031650 0.018485 0.003747
0.042167 0.018485 0.003747
0.056665 0.018485 0.003747
0.076651 0.018485 0.003747
0.104231 0.018485 0.003747
0.143813 0.018485 0.003747
0.202496 0.018485 0.003747
0.291319 0.018485 0.003747
0.428767 0.018485 0.003747
0.646487 0.018485 0.003747
1.000000 0.018485 0.003747
0.003747 0.024020 0.003747
0.003803 0.024020 0.003747
0.003858 0.024020 0.003747
0.003914 0.024020 0.003747
0.003970 0.024020 0.003747
0.004025 0.024020 0.003747
0.004088 0.024020 0.003747
0.004173 0.024020 0.003747
0.004290 0.024020 0.003747
0.004453 0.024020 0.003747
0.004676 0.024020 0.003747
0.004984 0.024020 0.003747
0.005408 0.024020 0.003747
0.005993 0.024020 0.003747
0.006800 0.024020 0.003747
0.007912 0.024020 0.003747
0.009445 0.024020 0.003747
0.011558 0.024020 0.003747
0.014471 0.024020 0.003747
0.018485 0.024020 0.003747
0.024020 0.024020 0.003747
0.031650 0.024020 0.003747
0.042167 0.024020 0.003747
0.056665 0.024020 0.003747
0.076651 0.024020 0.003747
0.104231 0.024020 0.003747
0.143813 0.024020 0.003747
0.202496 0.024020 0.003747
0.291319 0.024020 0.003747
0.428767 0.024020 0.003747
0.646487 0.024020 0.003747
1.000000 0.024020 0.003747
0.003747 0.031650 0.003747
0.003803 0.031650 0.003747
0.003858 0.031650 0.003747
0.003914 0.031650 0.003747
0.003970 0.031650 0.003747
0.004025 0.031650 0.003747
0.004088 0.031650 0.003747
0.004173 0.031650 0.003747
0.004290 0.031650 0.003747
0.004453 0.031650 0.003747
0.004676 0.031650 0.003747
0.004984 0.031650 0.003747
0.005408 0.031650 0.003747
0.005993 0.031650 0.003747
0.006800 0.031650 0.003747
0.007912 0.031650 0.003747
0.009445 0.031650 0.003747
0.011558 0.031650 0.003747
0.014471 0.031650 0.003747
0.018485 0.031650 0.003747
0.024020 0.031650 0.003747
0.031650 0.031650 0.003747
0.042167 0.031650 0.003747
0.056665 0.031650 0.003747
0.076651 0.031650 0.003747
0.104231 0.031650 0.003747
0.143813 0.031650 0.003747
0.202496 0.031650 0.003747
0.291319 0.031650 0.003747
0.428767 0.031650 0.003747
0.646487 0.031650 0.003747
1.000000 0.031650 0.003747
0.003747 0.042167 0.003747
0.003803 0.042167 0.003747
0.003858 0.042167 0.003747
0.003914 0.042167 0.003747
0.003970 0.042167 0.003747
0.004025 0.042167 0.003747
0.004088 0.042167 0.003747
0.004173 0.042167 0.003747
0.004290 0.042167 0.003747
0.004453 0.042167 0.003747
0.004676 0.042167 0.003747
0.004984 0.042167 0.003747
0.005408 0.042167 0.003747
0.005993 0.042167 0.003747
0.006800 0.042167 0.003747
0.007912 0.042167 0.003747
0.009445 0.042167 0.003747
0.011558 0.042167 0.003747
0.014471 0.042167 0.003747
0.018485 0.042167 0.003747
0.024020 0.042167 0.003747
0.031650 0.042167 0.003747
0.042167 0.042167 0.003747
0.056665 0.042167 0.003747
0.076651 0.042167 0.003747
0.104231 0.042167 0.003747
0.143813 0.042167 0.003747
0.202496 0.042167 0.003747
0.291319 0.042167 0.003747
0.428767 0.042167 0.003747
0.646487 0.042167 0.003747
1.000000 0.042167 0.003747
0.003747 0.056665 0.003747
0.003803 0.056665 0.003747
0.003858 0.056665 0.003747
0.003914 0.056665 0.003747
0.003970 0.056665 0.003747
0.004025 0.056665 0.003747
0.004088 0.056665 0.003747
0.004173 0.056665 0.003747
0.004290 0.056665 0.003747
0.004453 0.056665 0.003747
0.004676 0.056665 0.003747
0.004984 0.056665 0.003747
0.005408 0.056665 0.003747
0.005993 0.056665 0.003747
0.006800 0.056665 0.003747
0.007912 0.056665 0.003747
0.009445 0.056665 0.003747
0.011558 0.056665 0.003747
0.014471 0.056665 0.003747
0.018485 0.056665 0.003747
0.024020 0.056665 0.003747
0.031650 0.056665 0.003747
0.042167 0.056665 0.003747
0.056665 0.056665 0.003747
0.076651 0.056665 0.003747
0.104231 0.056665 0.003747
0.143813 0.056665 0.003747
0.202496 0.056665 0.003747
0.291319 0.056665 0.003747
0.428767 0.056665 0.003747
0.646487 0.056665 0.003747
1.000000 0.056665 0.003747
0.003747 0.076651 0.003747
0.003803 0.076651 0.003747
0.003858 0.076651 0.003747
0.003914 0.076651 0.003747
0.003970 0.076651 0.003747
0.004025 0.076651 0.003747
0.004088 0.076651 0.003747
0.004173 0.076651 0.003747
0.004290 0.076651 0.003747
0.004453 0.076651 0.003747
0.004676 0.076651 0.003747
0.004984 0.076651 0.003747
0.005408 0.076651 0.003747
0.005993 0.076651 0.003747
0.006800 0.076651 0.003747
0.007912 0.076651 0.003747
0.009445 0.076651 0.003747
0.011558 0.076651 0.003747
0.014471 0.076651 0.003747
0.018485 0.076651 0.003747
0.024020 0.076651 0.003747
0.031650 0.076651 0.003747
0.042167 0.076651 0.003747
0.056665 0.076651 0.003747
0.076651 0.076651 0.003747
0.104231 0.076651 0.003747
0.143813 0.076651 0.003747
0.202496 0.076651 0.003747
0.291319 0.076651 0.003747
0.428767 0.076651 0.003747
0.646487 0.076651 0.003747
1.000000 0.076651 0.003747
0.003747 0.104231 0.003747
0.003803 0.104231 0.003747
0.003858 0.104231 0.003747
0.003914 0.104231 0.003747
0.003970 0.104231 0.003747
0.004025 0.104231 0.003747
0.004088 0.104231 0.003747
0.004173 0.104231 0.003747
0.004290 0.104231 0.003747
0.004453 0.104231 0.003747
0.004676 0.104231 0.003747
0.004984 0.104231 0.003747
0.005408 0.104231 0.003747
0.005993 0.104231 0.003747
0.006800 0.104231 0.003747
0.007912 0.104231 0.003747
0.009445 0.104231 0.003747
0.011558 0.104231 0.003747
0.014471 0.104231 0.003747
0.018485 0.104231 0.003747
0.024020 0.104231 0.003747
0.031650 0.104231 0.003747
0.042167 0.104231 0.003747
0.056665 0.104231 0.003747
0.076651 0.104231 0.003747
0.104231 0.104231 0.003747
0.143813 0.104231 0.003747
0.202496 0.104231 0.003747
0.291319 0.104231 0.003747
0.428767 0.104231 0.003747
0.646487 0.104231 0.003747
1.000000 0.104231 0.003747
0.003747 0.143813 0.003747
0.003803 0.143813 0.003747
0.003858 0.143813 0.003747
0.003914 0.143813 0.003747
0.003970 0.143813 0.003747
0.004025 0.143813 0.003747
0.004088 0.143813 0.003747
0.004173 0.143813 0.003747
0.004290 0.143813 0.003747
0.004453 0.143813 0.003747
0.004676 0.143813 0.003747
0.004984 0.143813 0.003747
0.005408 0.143813 0.003747
0.005993 0.143813 0.003747
0.006800 0.143813 0.003747
0.007912 0.143813 0.003747
0.009445 0.143813 0.003747
0.011558 0.143813 0.003747
0.014471 0.143813 0.003747
0.018485 0.143813 0.003747
0.024020 0.143813 0.003747
0.031650 0.143813 0.003747
0.042167 0.143813 0.003747
0.056665 0.143813 0.003747
0.076651 0.143813 0.003747
0.104231 0.143813 0.003747
0.143813 0.143813 0.003747
0.202496 0.143813 0.003747
0.291319 0.143813 0.003747
0.428767 0.143813 0.003747
0.646487 0.143813 0.003747
1.000000 0.143813 0.003747
0.003747 0.202496 0.003747
0.003803 0.202496 0.003747
0.003858 0.202496 0.003747
0.003914 0.202496 0.003747
0.003970 0.202496 0.003747
0.004025 0.202496 0.003747
0.004088 0.202496 0.003747
0.004173 0.202496 0.003747
0.004290 0.202496 0.003747
0.004453 0.202496 0.003747
0.004676 0.202496 0.003747
0.004984 0.202496 0.003747
0.005408 0.202496 0.003747
0.005993 0.202496 0.003747
0.006800 0.202496 0.003747
0.007912 0.202496 0.003747
0.009445 0.202496 0.003747
0.011558 0.202496 0.003747
0.014471 0.202496 0.003747
0.018485 0.202496 0.003747
0.024020 0.202496 0.003747
