.nuke/nuke.LUT/logC-2-linear_extended/AlexaV3_EI0800_LogC2Linear_EE_nuke3d.cube
# Alexa conversion LUT, logc2lin. Full in/full out.
# created by alexalutconv (2.07)
LUT_3D_SIZE 8
DOMAIN_MIN 0.000000 0.000000 0.000000
DOMAIN_MAX 0.903226 0.903226 0.903226
0.003427 0.003427 0.003427
0.004095 0.003427 0.003427
0.005171 0.003427 0.003427
0.008719 0.003427 0.003427
0.020522 0.003427 0.003427
0.059786 0.003427 0.003427
0.190400 0.003427 0.003427
0.624898 0.003427 0.003427
0.003427 0.004095 0.003427
0.004095 0.004095 0.003427
0.005171 0.004095 0.003427
0.008719 0.004095 0.003427
0.020522 0.004095 0.003427
0.059786 0.004095 0.003427
0.190400 0.004095 0.003427
0.624898 0.004095 0.003427
0.003427 0.005171 0.003427
0.004095 0.005171 0.003427
0.005171 0.005171 0.003427
0.008719 0.005171 0.003427
0.020522 0.005171 0.003427
0.059786 0.005171 0.003427
0.190400 0.005171 0.003427
0.624898 0.005171 0.003427
0.003427 0.008719 0.003427
0.004095 0.008719 0.003427
0.005171 0.008719 0.003427
0.008719 0.008719 0.003427
0.020522 0.008719 0.003427
0.059786 0.008719 0.003427
0.190400 0.008719 0.003427
0.624898 0.008719 0.003427
0.003427 0.020522 0.003427
0.004095 0.020522 0.003427
0.005171 0.020522 0.003427
0.008719 0.020522 0.003427
0.020522 0.020522 0.003427
0.059786 0.020522 0.003427
0.190400 0.020522 0.003427
0.624898 0.020522 0.003427
0.003427 0.059786 0.003427
0.004095 0.059786 0.003427
0.005171 0.059786 0.003427
0.008719 0.059786 0.003427
0.020522 0.059786 0.003427
0.059786 0.059786 0.003427
0.190400 0.059786 0.003427
0.624898 0.059786 0.003427
0.003427 0.190400 0.003427
0.004095 0.190400 0.003427
0.005171 0.190400 0.003427
0.008719 0.190400 0.003427
0.020522 0.190400 0.003427
0.059786 0.190400 0.003427
0.190400 0.190400 0.003427
0.624898 0.190400 0.003427
0.003427 0.624898 0.003427
0.004095 0.624898 0.003427
0.005171 0.624898 0.003427
0.008719 0.624898 0.003427
0.020522 0.624898 0.003427
0.059786 0.624898 0.003427
0.190400 0.624898 0.003427
0.624898 0.624898 0.003427
0.003427 0.003427 0.004095
0.004095 0.003427 0.004095
0.005171 0.003427 0.004095
0.008719 0.003427 0.004095
0.020522 0.003427 0.004095
0.059786 0.003427 0.004095
0.190400 0.003427 0.004095
0.624898 0.003427 0.004095
0.003427 0.004095 0.004095
0.004095 0.004095 0.004095
0.005171 0.004095 0.004095
0.008719 0.004095 0.004095
0.020522 0.004095 0.004095
0.059786 0.004095 0.004095
0.190400 0.004095 0.004095
0.624898 0.004095 0.004095
0.003427 0.005171 0.004095
0.004095 0.005171 0.004095
0.005171 0.005171 0.004095
0.008719 0.005171 0.004095
0.020522 0.005171 0.004095
0.059786 0.005171 0.004095
0.190400 0.005171 0.004095
0.624898 0.005171 0.004095
0.003427 0.008719 0.004095
0.004095 0.008719 0.004095
0.005171 0.008719 0.004095
0.008719 0.008719 0.004095
0.020522 0.008719 0.004095
0.059786 0.008719 0.004095
0.190400 0.008719 0.004095
0.624898 0.008719 0.004095
0.003427 0.020522 0.004095
0.004095 0.020522 0.004095
0.005171 0.020522 0.004095
0.008719 0.020522 0.004095
0.020522 0.020522 0.004095
0.059786 0.020522 0.004095
0.190400 0.020522 0.004095
0.624898 0.020522 0.004095
0.003427 0.059786 0.004095
0.004095 0.059786 0.004095
0.005171 0.059786 0.004095
0.008719 0.059786 0.004095
0.020522 0.059786 0.004095
0.059786 0.059786 0.004095
0.190400 0.059786 0.004095
0.624898 0.059786 0.004095
0.003427 0.190400 0.004095
0.004095 0.190400 0.004095
0.005171 0.190400 0.004095
0.008719 0.190400 0.004095
0.020522 0.190400 0.004095
0.059786 0.190400 0.004095
0.190400 0.190400 0.004095
0.624898 0.190400 0.004095
0.003427 0.624898 0.004095
0.004095 0.624898 0.004095
0.005171 0.624898 0.004095
0.008719 0.624898 0.004095
0.020522 0.624898 0.004095
0.059786 0.624898 0.004095
0.190400 0.624898 0.004095
0.624898 0.624898 0.004095
0.003427 0.003427 0.005171
0.004095 0.003427 0.005171
0.005171 0.003427 0.005171
0.008719 0.003427 0.005171
0.020522 0.003427 0.005171
0.059786 0.003427 0.005171
0.190400 0.003427 0.005171
0.624898 0.003427 0.005171
0.003427 0.004095 0.005171
0.004095 0.004095 0.005171
0.005171 0.004095 0.005171
0.008719 0.004095 0.005171
0.020522 0.004095 0.005171
0.059786 0.004095 0.005171
0.190400 0.004095 0.005171
0.624898 0.004095 0.005171
0.003427 0.005171 0.005171
0.004095 0.005171 0.005171
0.005171 0.005171 0.005171
0.008719 0.005171 0.005171
0.020522 0.005171 0.005171
0.059786 0.005171 0.005171
0.190400 0.005171 0.005171
0.624898 0.005171 0.005171
0.003427 0.008719 0.005171
0.004095 0.008719 0.005171
0.005171 0.008719 0.005171
0.008719 0.008719 0.005171
0.020522 0.008719 0.005171
0.059786 0.008719 0.005171
0.190400 0.008719 0.005171
0.624898 0.008719 0.005171
0.003427 0.020522 0.005171
0.004095 0.020522 0.005171
0.005171 0.020522 0.005171
0.008719 0.020522 0.005171
0.020522 0.020522 0.005171
0.059786 0.020522 0.005171
0.190400 0.020522 0.005171
0.624898 0.020522 0.005171
0.003427 0.059786 0.005171
0.004095 0.059786 0.005171
0.005171 0.059786 0.005171
0.008719 0.059786 0.005171
0.020522 0.059786 0.005171
0.059786 0.059786 0.005171
0.190400 0.059786 0.005171
0.624898 0.059786 0.005171
0.003427 0.190400 0.005171
0.004095 0.190400 0.005171
0.005171 0.190400 0.005171
0.008719 0.190400 0.005171
0.020522 0.190400 0.005171
0.059786 0.190400 0.005171
0.190400 0.190400 0.005171
0.624898 0.190400 0.005171
0.003427 0.624898 0.005171
0.004095 0.624898 0.005171
0.005171 0.624898 0.005171
0.008719 0.624898 0.005171
0.020522 0.624898 0.005171
0.059786 0.624898 0.005171
0.190400 0.624898 0.005171
0.624898 0.624898 0.005171
0.003427 0.003427 0.008719
0.004095 0.003427 0.008719
0.005171 0.003427 0.008719
0.008719 0.003427 0.008719
0.020522 0.003427 0.008719
0.059786 0.003427 0.008719
0.190400 0.003427 0.008719
0.624898 0.003427 0.008719
0.003427 0.004095 0.008719
0.004095 0.004095 0.008719
0.005171 0.004095 0.008719
0.008719 0.004095 0.008719
0.020522 0.004095 0.008719
0.059786 0.004095 0.008719
0.190400 0.004095 0.008719
0.624898 0.004095 0.008719
0.003427 0.005171 0.008719
0.004095 0.005171 0.008719
0.005171 0.005171 0.008719
0.008719 0.005171 0.008719
0.020522 0.005171 0.008719
0.059786 0.005171 0.008719
0.190400 0.005171 0.008719
0.624898 0.005171 0.008719
0.003427 0.008719 0.008719
0.004095 0.008719 0.008719
0.005171 0.008719 0.008719
0.008719 0.008719 0.008719
0.020522 0.008719 0.008719
0.059786 0.008719 0.008719
0.190400 0.008719 0.008719
0.624898 0.008719 0.008719
0.003427 0.020522 0.008719
0.004095 0.020522 0.008719
0.005171 0.020522 0.008719
0.008719 0.020522 0.008719
0.020522 0.020522 0.008719
0.059786 0.020522 0.008719
0.190400 0.020522 0.008719
0.624898 0.020522 0.008719
0.003427 0.059786 0.008719
0.004095 0.059786 0.008719
0.005171 0.059786 0.008719
0.008719 0.059786 0.008719
0.020522 0.059786 0.008719
0.059786 0.059786 0.008719
0.190400 0.059786 0.008719
0.624898 0.059786 0.008719
0.003427 0.190400 0.008719
0.004095 0.190400 0.008719
0.005171 0.190400 0.008719
0.008719 0.190400 0.008719
0.020522 0.190400 0.008719
0.059786 0.190400 0.008719
0.190400 0.190400 0.008719
0.624898 0.190400 0.008719
0.003427 0.624898 0.008719
0.004095 0.624898 0.008719
0.005171 0.624898 0.008719
0.008719 0.624898 0.008719
0.020522 0.624898 0.008719
0.059786 0.624898 0.008719
0.190400 0.624898 0.008719
0.624898 0.624898 0.008719
0.003427 0.003427 0.020522
0.004095 0.003427 0.020522
0.005171 0.003427 0.020522
0.008719 0.003427 0.020522
0.020522 0.003427 0.020522
0.059786 0.003427 0.020522
0.190400 0.003427 0.020522
0.624898 0.003427 0.020522
0.003427 0.004095 0.020522
0.004095 0.004095 0.020522
0.005171 0.004095 0.020522
0.008719 0.004095 0.020522
0.020522 0.004095 0.020522
0.059786 0.004095 0.020522
0.190400 0.004095 0.020522
0.624898 0.004095 0.020522
0.003427 0.005171 0.020522
0.004095 0.005171 0.020522
0.005171 0.005171 0.020522
0.008719 0.005171 0.020522
0.020522 0.005171 0.020522
0.059786 0.005171 0.020522
0.190400 0.005171 0.020522
0.624898 0.005171 0.020522
0.003427 0.008719 0.020522
0.004095 0.008719 0.020522
0.005171 0.008719 0.020522
0.008719 0.008719 0.020522
0.020522 0.008719 0.020522
0.059786 0.008719 0.020522
0.190400 0.008719 0.020522
0.624898 0.008719 0.020522
0.003427 0.020522 0.020522
0.004095 0.020522 0.020522
0.005171 0.020522 0.020522
0.008719 0.020522 0.020522
0.020522 0.020522 0.020522
0.059786 0.020522 0.020522
0.190400 0.020522 0.020522
0.624898 0.020522 0.020522
0.003427 0.059786 0.020522
0.004095 0.059786 0.020522
0.005171 0.059786 0.020522
0.008719 0.059786 0.020522
0.020522 0.059786 0.020522
0.059786 0.059786 0.020522
0.190400 0.059786 0.020522
0.624898 0.059786 0.020522
0.003427 0.190400 0.020522
0.004095 0.190400 0.020522
0.005171 0.190400 0.020522
0.008719 0.190400 0.020522
0.020522 0.190400 0.020522
0.059786 0.190400 0.020522
0.190400 0.190400 0.020522
0.624898 0.190400 0.020522
0.003427 0.624898 0.020522
0.004095 0.624898 0.020522
0.005171 0.624898 0.020522
0.008719 0.624898 0.020522
0.020522 0.624898 0.020522
0.059786 0.624898 0.020522
0.190400 0.624898 0.020522
0.624898 0.624898 0.020522
0.003427 0.003427 0.059786
0.004095 0.003427 0.059786
0.005171 0.003427 0.059786
0.008719 0.003427 0.059786
0.020522 0.003427 0.059786
0.059786 0.003427 0.059786
0.190400 0.003427 0.059786
0.624898 0.003427 0.059786
0.003427 0.004095 0.059786
0.004095 0.004095 0.059786
0.005171 0.004095 0.059786
0.008719 0.004095 0.059786
0.020522 0.004095 0.059786
0.059786 0.004095 0.059786
0.190400 0.004095 0.059786
0.624898 0.004095 0.059786
0.003427 0.005171 0.059786
0.004095 0.005171 0.059786
0.005171 0.005171 0.059786
0.008719 0.005171 0.059786
0.020522 0.005171 0.059786
0.059786 0.005171 0.059786
0.190400 0.005171 0.059786
0.624898 0.005171 0.059786
0.003427 0.008719 0.059786
0.004095 0.008719 0.059786
0.005171 0.008719 0.059786
0.008719 0.008719 0.059786
0.020522 0.008719 0.059786
0.059786 0.008719 0.059786
0.190400 0.008719 0.059786
0.624898 0.008719 0.059786
0.003427 0.020522 0.059786
0.004095 0.020522 0.059786
0.005171 0.020522 0.059786
0.008719 0.020522 0.059786
0.020522 0.020522 0.059786
0.059786 0.020522 0.059786
0.190400 0.020522 0.059786
0.624898 0.020522 0.059786
0.003427 0.059786 0.059786
0.004095 0.059786 0.059786
0.005171 0.059786 0.059786
0.008719 0.059786 0.059786
0.020522 0.059786 0.059786
0.059786 0.059786 0.059786
0.190400 0.059786 0.059786
0.624898 0.059786 0.059786
0.003427 0.190400 0.059786
0.004095 0.190400 0.059786
0.005171 0.190400 0.059786
0.008719 0.190400 0.059786
0.020522 0.190400 0.059786
0.059786 0.190400 0.059786
0.190400 0.190400 0.059786
0.624898 0.190400 0.059786
0.003427 0.624898 0.059786
0.004095 0.624898 0.059786
0.005171 0.624898 0.059786
0.008719 0.624898 0.059786
0.020522 0.624898 0.059786
0.059786 0.624898 0.059786
0.190400 0.624898 0.059786
0.624898 0.624898 0.059786
0.003427 0.003427 0.190400
0.004095 0.003427 0.190400
0.005171 0.003427 0.190400
0.008719 0.003427 0.190400
0.020522 0.003427 0.190400
0.059786 0.003427 0.190400
0.190400 0.003427 0.190400
0.624898 0.003427 0.190400
0.003427 0.004095 0.190400
0.004095 0.004095 0.190400
0.005171 0.004095 0.190400
0.008719 0.004095 0.190400
0.020522 0.004095 0.190400
0.059786 0.004095 0.190400
0.190400 0.004095 0.190400
0.624898 0.004095 0.190400
0.003427 0.005171 0.190400
0.004095 0.005171 0.190400
0.005171 0.005171 0.190400
0.008719 0.005171 0.190400
0.020522 0.005171 0.190400
0.059786 0.005171 0.190400
0.190400 0.005171 0.190400
0.624898 0.005171 0.190400
0.003427 0.008719 0.190400
0.004095 0.008719 0.190400
0.005171 0.008719 0.190400
0.008719 0.008719 0.190400
0.020522 0.008719 0.190400
0.059786 0.008719 0.190400
0.190400 0.008719 0.190400
0.624898 0.008719 0.190400
0.003427 0.020522 0.190400
0.004095 0.020522 0.190400
0.005171 0.020522 0.190400
0.008719 0.020522 0.190400
0.020522 0.020522 0.190400
0.059786 0.020522 0.190400
0.190400 0.020522 0.190400
0.624898 0.020522 0.190400
0.003427 0.059786 0.190400
0.004095 0.059786 0.190400
0.005171 0.059786 0.190400
0.008719 0.059786 0.190400
0.020522 0.059786 0.190400
0.059786 0.059786 0.190400
0.190400 0.059786 0.190400
0.624898 0.059786 0.190400
0.003427 0.190400 0.190400
0.004095 0.190400 0.190400
0.005171 0.190400 0.190400
0.008719 0.190400 0.190400
0.020522 0.190400 0.190400
0.059786 0.190400 0.190400
0.190400 0.190400 0.190400
0.624898 0.190400 0.190400
0.003427 0.624898 0.190400
0.004095 0.624898 0.190400
0.005171 0.624898 0.190400
0.008719 0.624898 0.190400
0.020522 0.624898 0.190400
0.059786 0.624898 0.190400
0.190400 0.624898 0.190400
0.624898 0.624898 0.190400
0.003427 0.003427 0.624898
0.004095 0.003427 0.624898
0.005171 0.003427 0.624898
0.008719 0.003427 0.624898
0.020522 0.003427 0.624898
0.059786 0.003427 0.624898
0.190400 0.003427 0.624898
0.624898 0.003427 0.624898
0.003427 0.004095 0.624898
0.004095 0.004095 0.624898
0.005171 0.004095 0.624898
0.008719 0.004095 0.624898
0.020522 0.004095 0.624898
0.059786 0.004095 0.624898
0.190400 0.004095 0.624898
0.624898 0.004095 0.624898
0.003427 0.005171 0.624898
0.004095 0.005171 0.624898
0.005171 0.005171 0.624898
0.008719 0.005171 0.624898
0.020522 0.005171 0.624898
0.059786 0.005171 0.624898
0.190400 0.005171 0.624898
0.624898 0.005171 0.624898
0.003427 0.008719 0.624898
0.004095 0.008719 0.624898
0.005171 0.008719 0.624898
0.008719 0.008719 0.624898
0.020522 0.008719 0.624898
0.059786 0.008719 0.624898
0.190400 0.008719 0.624898
0.624898 0.008719 0.624898
0.003427 0.020522 0.624898
0.004095 0.020522 0.624898
0.005171 0.020522 0.624898
0.008719 0.020522 0.624898
0.020522 0.020522 0.624898
0.059786 0.020522 0.624898
0.190400 0.020522 0.624898
0.624898 0.020522 0.624898
0.003427 0.059786 0.624898
0.004095 0.059786 0.624898
0.005171 0.059786 0.624898
0.008719 0.059786 0.624898
0.020522 0.059786 0.624898
0.059786 0.059786 0.624898
0.190400 0.059786 0.624898
0.624898 0.059786 0.624898
0.003427 0.190400 0.624898
0.004095 0.190400 0.624898
0.005171 0.190400 0.624898
0.008719 0.190400 0.624898
0.020522 0.190400 0.624898
0.059786 0.190400 0.624898
0.190400 0.190400 0.624898
0.624898 0.190400 0.624898
0.003427 0.624898 0.624898
0.004095 0.624898 0.624898
0.005171 0.624898 0.624898
0.008719 0.624898 0.624898
0.020522 0.624898 0.624898
0.059786 0.624898 0.624898
0.190400 0.624898 0.624898
0.624898 0.624898 0.624898
