.nuke/nuke.LUT/logC-2-linear_extended/AlexaV3_EI0640_LogC2Linear_EE_nuke3d.cube
# Alexa conversion LUT, logc2lin. Full in/full out.
# created by alexalutconv (2.07)
LUT_3D_SIZE 8
DOMAIN_MIN 0.000000 0.000000 0.000000
DOMAIN_MAX 0.903226 0.903226 0.903226
0.003314 0.003314 0.003314
0.004139 0.003314 0.003314
0.005497 0.003314 0.003314
0.009924 0.003314 0.003314
0.024437 0.003314 0.003314
0.072017 0.003314 0.003314
0.228012 0.003314 0.003314
0.739444 0.003314 0.003314
0.003314 0.004139 0.003314
0.004139 0.004139 0.003314
0.005497 0.004139 0.003314
0.009924 0.004139 0.003314
0.024437 0.004139 0.003314
0.072017 0.004139 0.003314
0.228012 0.004139 0.003314
0.739444 0.004139 0.003314
0.003314 0.005497 0.003314
0.004139 0.005497 0.003314
0.005497 0.005497 0.003314
0.009924 0.005497 0.003314
0.024437 0.005497 0.003314
0.072017 0.005497 0.003314
0.228012 0.005497 0.003314
0.739444 0.005497 0.003314
0.003314 0.009924 0.003314
0.004139 0.009924 0.003314
0.005497 0.009924 0.003314
0.009924 0.009924 0.003314
0.024437 0.009924 0.003314
0.072017 0.009924 0.003314
0.228012 0.009924 0.003314
0.739444 0.009924 0.003314
0.003314 0.024437 0.003314
0.004139 0.024437 0.003314
0.005497 0.024437 0.003314
0.009924 0.024437 0.003314
0.024437 0.024437 0.003314
0.072017 0.024437 0.003314
0.228012 0.024437 0.003314
0.739444 0.024437 0.003314
0.003314 0.072017 0.003314
0.004139 0.072017 0.003314
0.005497 0.072017 0.003314
0.009924 0.072017 0.003314
0.024437 0.072017 0.003314
0.072017 0.072017 0.003314
0.228012 0.072017 0.003314
0.739444 0.072017 0.003314
0.003314 0.228012 0.003314
0.004139 0.228012 0.003314
0.005497 0.228012 0.003314
0.009924 0.228012 0.003314
0.024437 0.228012 0.003314
0.072017 0.228012 0.003314
0.228012 0.228012 0.003314
0.739444 0.228012 0.003314
0.003314 0.739444 0.003314
0.004139 0.739444 0.003314
0.005497 0.739444 0.003314
0.009924 0.739444 0.003314
0.024437 0.739444 0.003314
0.072017 0.739444 0.003314
0.228012 0.739444 0.003314
0.739444 0.739444 0.003314
0.003314 0.003314 0.004139
0.004139 0.003314 0.004139
0.005497 0.003314 0.004139
0.009924 0.003314 0.004139
0.024437 0.003314 0.004139
0.072017 0.003314 0.004139
0.228012 0.003314 0.004139
0.739444 0.003314 0.004139
0.003314 0.004139 0.004139
0.004139 0.004139 0.004139
0.005497 0.004139 0.004139
0.009924 0.004139 0.004139
0.024437 0.004139 0.004139
0.072017 0.004139 0.004139
0.228012 0.004139 0.004139
0.739444 0.004139 0.004139
0.003314 0.005497 0.004139
0.004139 0.005497 0.004139
0.005497 0.005497 0.004139
0.009924 0.005497 0.004139
0.024437 0.005497 0.004139
0.072017 0.005497 0.004139
0.228012 0.005497 0.004139
0.739444 0.005497 0.004139
0.003314 0.009924 0.004139
0.004139 0.009924 0.004139
0.005497 0.009924 0.004139
0.009924 0.009924 0.004139
0.024437 0.009924 0.004139
0.072017 0.009924 0.004139
0.228012 0.009924 0.004139
0.739444 0.009924 0.004139
0.003314 0.024437 0.004139
0.004139 0.024437 0.004139
0.005497 0.024437 0.004139
0.009924 0.024437 0.004139
0.024437 0.024437 0.004139
0.072017 0.024437 0.004139
0.228012 0.024437 0.004139
0.739444 0.024437 0.004139
0.003314 0.072017 0.004139
0.004139 0.072017 0.004139
0.005497 0.072017 0.004139
0.009924 0.072017 0.004139
0.024437 0.072017 0.004139
0.072017 0.072017 0.004139
0.228012 0.072017 0.004139
0.739444 0.072017 0.004139
0.003314 0.228012 0.004139
0.004139 0.228012 0.004139
0.005497 0.228012 0.004139
0.009924 0.228012 0.004139
0.024437 0.228012 0.004139
0.072017 0.228012 0.004139
0.228012 0.228012 0.004139
0.739444 0.228012 0.004139
0.003314 0.739444 0.004139
0.004139 0.739444 0.004139
0.005497 0.739444 0.004139
0.009924 0.739444 0.004139
0.024437 0.739444 0.004139
0.072017 0.739444 0.004139
0.228012 0.739444 0.004139
0.739444 0.739444 0.004139
0.003314 0.003314 0.005497
0.004139 0.003314 0.005497
0.005497 0.003314 0.005497
0.009924 0.003314 0.005497
0.024437 0.003314 0.005497
0.072017 0.003314 0.005497
0.228012 0.003314 0.005497
0.739444 0.003314 0.005497
0.003314 0.004139 0.005497
0.004139 0.004139 0.005497
0.005497 0.004139 0.005497
0.009924 0.004139 0.005497
0.024437 0.004139 0.005497
0.072017 0.004139 0.005497
0.228012 0.004139 0.005497
0.739444 0.004139 0.005497
0.003314 0.005497 0.005497
0.004139 0.005497 0.005497
0.005497 0.005497 0.005497
0.009924 0.005497 0.005497
0.024437 0.005497 0.005497
0.072017 0.005497 0.005497
0.228012 0.005497 0.005497
0.739444 0.005497 0.005497
0.003314 0.009924 0.005497
0.004139 0.009924 0.005497
0.005497 0.009924 0.005497
0.009924 0.009924 0.005497
0.024437 0.009924 0.005497
0.072017 0.009924 0.005497
0.228012 0.009924 0.005497
0.739444 0.009924 0.005497
0.003314 0.024437 0.005497
0.004139 0.024437 0.005497
0.005497 0.024437 0.005497
0.009924 0.024437 0.005497
0.024437 0.024437 0.005497
0.072017 0.024437 0.005497
0.228012 0.024437 0.005497
0.739444 0.024437 0.005497
0.003314 0.072017 0.005497
0.004139 0.072017 0.005497
0.005497 0.072017 0.005497
0.009924 0.072017 0.005497
0.024437 0.072017 0.005497
0.072017 0.072017 0.005497
0.228012 0.072017 0.005497
0.739444 0.072017 0.005497
0.003314 0.228012 0.005497
0.004139 0.228012 0.005497
0.005497 0.228012 0.005497
0.009924 0.228012 0.005497
0.024437 0.228012 0.005497
0.072017 0.228012 0.005497
0.228012 0.228012 0.005497
0.739444 0.228012 0.005497
0.003314 0.739444 0.005497
0.004139 0.739444 0.005497
0.005497 0.739444 0.005497
0.009924 0.739444 0.005497
0.024437 0.739444 0.005497
0.072017 0.739444 0.005497
0.228012 0.739444 0.005497
0.739444 0.739444 0.005497
0.003314 0.003314 0.009924
0.004139 0.003314 0.009924
0.005497 0.003314 0.009924
0.009924 0.003314 0.009924
0.024437 0.003314 0.009924
0.072017 0.003314 0.009924
0.228012 0.003314 0.009924
0.739444 0.003314 0.009924
0.003314 0.004139 0.009924
0.004139 0.004139 0.009924
0.005497 0.004139 0.009924
0.009924 0.004139 0.009924
0.024437 0.004139 0.009924
0.072017 0.004139 0.009924
0.228012 0.004139 0.009924
0.739444 0.004139 0.009924
0.003314 0.005497 0.009924
0.004139 0.005497 0.009924
0.005497 0.005497 0.009924
0.009924 0.005497 0.009924
0.024437 0.005497 0.009924
0.072017 0.005497 0.009924
0.228012 0.005497 0.009924
0.739444 0.005497 0.009924
0.003314 0.009924 0.009924
0.004139 0.009924 0.009924
0.005497 0.009924 0.009924
0.009924 0.009924 0.009924
0.024437 0.009924 0.009924
0.072017 0.009924 0.009924
0.228012 0.009924 0.009924
0.739444 0.009924 0.009924
0.003314 0.024437 0.009924
0.004139 0.024437 0.009924
0.005497 0.024437 0.009924
0.009924 0.024437 0.009924
0.024437 0.024437 0.009924
0.072017 0.024437 0.009924
0.228012 0.024437 0.009924
0.739444 0.024437 0.009924
0.003314 0.072017 0.009924
0.004139 0.072017 0.009924
0.005497 0.072017 0.009924
0.009924 0.072017 0.009924
0.024437 0.072017 0.009924
0.072017 0.072017 0.009924
0.228012 0.072017 0.009924
0.739444 0.072017 0.009924
0.003314 0.228012 0.009924
0.004139 0.228012 0.009924
0.005497 0.228012 0.009924
0.009924 0.228012 0.009924
0.024437 0.228012 0.009924
0.072017 0.228012 0.009924
0.228012 0.228012 0.009924
0.739444 0.228012 0.009924
0.003314 0.739444 0.009924
0.004139 0.739444 0.009924
0.005497 0.739444 0.009924
0.009924 0.739444 0.009924
0.024437 0.739444 0.009924
0.072017 0.739444 0.009924
0.228012 0.739444 0.009924
0.739444 0.739444 0.009924
0.003314 0.003314 0.024437
0.004139 0.003314 0.024437
0.005497 0.003314 0.024437
0.009924 0.003314 0.024437
0.024437 0.003314 0.024437
0.072017 0.003314 0.024437
0.228012 0.003314 0.024437
0.739444 0.003314 0.024437
0.003314 0.004139 0.024437
0.004139 0.004139 0.024437
0.005497 0.004139 0.024437
0.009924 0.004139 0.024437
0.024437 0.004139 0.024437
0.072017 0.004139 0.024437
0.228012 0.004139 0.024437
0.739444 0.004139 0.024437
0.003314 0.005497 0.024437
0.004139 0.005497 0.024437
0.005497 0.005497 0.024437
0.009924 0.005497 0.024437
0.024437 0.005497 0.024437
0.072017 0.005497 0.024437
0.228012 0.005497 0.024437
0.739444 0.005497 0.024437
0.003314 0.009924 0.024437
0.004139 0.009924 0.024437
0.005497 0.009924 0.024437
0.009924 0.009924 0.024437
0.024437 0.009924 0.024437
0.072017 0.009924 0.024437
0.228012 0.009924 0.024437
0.739444 0.009924 0.024437
0.003314 0.024437 0.024437
0.004139 0.024437 0.024437
0.005497 0.024437 0.024437
0.009924 0.024437 0.024437
0.024437 0.024437 0.024437
0.072017 0.024437 0.024437
0.228012 0.024437 0.024437
0.739444 0.024437 0.024437
0.003314 0.072017 0.024437
0.004139 0.072017 0.024437
0.005497 0.072017 0.024437
0.009924 0.072017 0.024437
0.024437 0.072017 0.024437
0.072017 0.072017 0.024437
0.228012 0.072017 0.024437
0.739444 0.072017 0.024437
0.003314 0.228012 0.024437
0.004139 0.228012 0.024437
0.005497 0.228012 0.024437
0.009924 0.228012 0.024437
0.024437 0.228012 0.024437
0.072017 0.228012 0.024437
0.228012 0.228012 0.024437
0.739444 0.228012 0.024437
0.003314 0.739444 0.024437
0.004139 0.739444 0.024437
0.005497 0.739444 0.024437
0.009924 0.739444 0.024437
0.024437 0.739444 0.024437
0.072017 0.739444 0.024437
0.228012 0.739444 0.024437
0.739444 0.739444 0.024437
0.003314 0.003314 0.072017
0.004139 0.003314 0.072017
0.005497 0.003314 0.072017
0.009924 0.003314 0.072017
0.024437 0.003314 0.072017
0.072017 0.003314 0.072017
0.228012 0.003314 0.072017
0.739444 0.003314 0.072017
0.003314 0.004139 0.072017
0.004139 0.004139 0.072017
0.005497 0.004139 0.072017
0.009924 0.004139 0.072017
0.024437 0.004139 0.072017
0.072017 0.004139 0.072017
0.228012 0.004139 0.072017
0.739444 0.004139 0.072017
0.003314 0.005497 0.072017
0.004139 0.005497 0.072017
0.005497 0.005497 0.072017
0.009924 0.005497 0.072017
0.024437 0.005497 0.072017
0.072017 0.005497 0.072017
0.228012 0.005497 0.072017
0.739444 0.005497 0.072017
0.003314 0.009924 0.072017
0.004139 0.009924 0.072017
0.005497 0.009924 0.072017
0.009924 0.009924 0.072017
0.024437 0.009924 0.072017
0.072017 0.009924 0.072017
0.228012 0.009924 0.072017
0.739444 0.009924 0.072017
0.003314 0.024437 0.072017
0.004139 0.024437 0.072017
0.005497 0.024437 0.072017
0.009924 0.024437 0.072017
0.024437 0.024437 0.072017
0.072017 0.024437 0.072017
0.228012 0.024437 0.072017
0.739444 0.024437 0.072017
0.003314 0.072017 0.072017
0.004139 0.072017 0.072017
0.005497 0.072017 0.072017
0.009924 0.072017 0.072017
0.024437 0.072017 0.072017
0.072017 0.072017 0.072017
0.228012 0.072017 0.072017
0.739444 0.072017 0.072017
0.003314 0.228012 0.072017
0.004139 0.228012 0.072017
0.005497 0.228012 0.072017
0.009924 0.228012 0.072017
0.024437 0.228012 0.072017
0.072017 0.228012 0.072017
0.228012 0.228012 0.072017
0.739444 0.228012 0.072017
0.003314 0.739444 0.072017
0.004139 0.739444 0.072017
0.005497 0.739444 0.072017
0.009924 0.739444 0.072017
0.024437 0.739444 0.072017
0.072017 0.739444 0.072017
0.228012 0.739444 0.072017
0.739444 0.739444 0.072017
0.003314 0.003314 0.228012
0.004139 0.003314 0.228012
0.005497 0.003314 0.228012
0.009924 0.003314 0.228012
0.024437 0.003314 0.228012
0.072017 0.003314 0.228012
0.228012 0.003314 0.228012
0.739444 0.003314 0.228012
0.003314 0.004139 0.228012
0.004139 0.004139 0.228012
0.005497 0.004139 0.228012
0.009924 0.004139 0.228012
0.024437 0.004139 0.228012
0.072017 0.004139 0.228012
0.228012 0.004139 0.228012
0.739444 0.004139 0.228012
0.003314 0.005497 0.228012
0.004139 0.005497 0.228012
0.005497 0.005497 0.228012
0.009924 0.005497 0.228012
0.024437 0.005497 0.228012
0.072017 0.005497 0.228012
0.228012 0.005497 0.228012
0.739444 0.005497 0.228012
0.003314 0.009924 0.228012
0.004139 0.009924 0.228012
0.005497 0.009924 0.228012
0.009924 0.009924 0.228012
0.024437 0.009924 0.228012
0.072017 0.009924 0.228012
0.228012 0.009924 0.228012
0.739444 0.009924 0.228012
0.003314 0.024437 0.228012
0.004139 0.024437 0.228012
0.005497 0.024437 0.228012
0.009924 0.024437 0.228012
0.024437 0.024437 0.228012
0.072017 0.024437 0.228012
0.228012 0.024437 0.228012
0.739444 0.024437 0.228012
0.003314 0.072017 0.228012
0.004139 0.072017 0.228012
0.005497 0.072017 0.228012
0.009924 0.072017 0.228012
0.024437 0.072017 0.228012
0.072017 0.072017 0.228012
0.228012 0.072017 0.228012
0.739444 0.072017 0.228012
0.003314 0.228012 0.228012
0.004139 0.228012 0.228012
0.005497 0.228012 0.228012
0.009924 0.228012 0.228012
0.024437 0.228012 0.228012
0.072017 0.228012 0.228012
0.228012 0.228012 0.228012
0.739444 0.228012 0.228012
0.003314 0.739444 0.228012
0.004139 0.739444 0.228012
0.005497 0.739444 0.228012
0.009924 0.739444 0.228012
0.024437 0.739444 0.228012
0.072017 0.739444 0.228012
0.228012 0.739444 0.228012
0.739444 0.739444 0.228012
0.003314 0.003314 0.739444
0.004139 0.003314 0.739444
0.005497 0.003314 0.739444
0.009924 0.003314 0.739444
0.024437 0.003314 0.739444
0.072017 0.003314 0.739444
0.228012 0.003314 0.739444
0.739444 0.003314 0.739444
0.003314 0.004139 0.739444
0.004139 0.004139 0.739444
0.005497 0.004139 0.739444
0.009924 0.004139 0.739444
0.024437 0.004139 0.739444
0.072017 0.004139 0.739444
0.228012 0.004139 0.739444
0.739444 0.004139 0.739444
0.003314 0.005497 0.739444
0.004139 0.005497 0.739444
0.005497 0.005497 0.739444
0.009924 0.005497 0.739444
0.024437 0.005497 0.739444
0.072017 0.005497 0.739444
0.228012 0.005497 0.739444
0.739444 0.005497 0.739444
0.003314 0.009924 0.739444
0.004139 0.009924 0.739444
0.005497 0.009924 0.739444
0.009924 0.009924 0.739444
0.024437 0.009924 0.739444
0.072017 0.009924 0.739444
0.228012 0.009924 0.739444
0.739444 0.009924 0.739444
0.003314 0.024437 0.739444
0.004139 0.024437 0.739444
0.005497 0.024437 0.739444
0.009924 0.024437 0.739444
0.024437 0.024437 0.739444
0.072017 0.024437 0.739444
0.228012 0.024437 0.739444
0.739444 0.024437 0.739444
0.003314 0.072017 0.739444
0.004139 0.072017 0.739444
0.005497 0.072017 0.739444
0.009924 0.072017 0.739444
0.024437 0.072017 0.739444
0.072017 0.072017 0.739444
0.228012 0.072017 0.739444
0.739444 0.072017 0.739444
0.003314 0.228012 0.739444
0.004139 0.228012 0.739444
0.005497 0.228012 0.739444
0.009924 0.228012 0.739444
0.024437 0.228012 0.739444
0.072017 0.228012 0.739444
0.228012 0.228012 0.739444
0.739444 0.228012 0.739444
0.003314 0.739444 0.739444
0.004139 0.739444 0.739444
0.005497 0.739444 0.739444
0.009924 0.739444 0.739444
0.024437 0.739444 0.739444
0.072017 0.739444 0.739444
0.228012 0.739444 0.739444
0.739444 0.739444 0.739444
