.nuke/nuke.LUT/logC-2-linear_extended/AlexaV3_EI0800_LogC2Linear_EE_nuke3d.cube
# Alexa conversion LUT, logc2lin. Full in/full out.
# created by alexalutconv (2.07)
LUT_3D_SIZE 5
DOMAIN_MIN 0.000000 0.000000 0.000000
DOMAIN_MAX 0.903226 0.903226 0.903226
0.003427 0.003427 0.003427
0.004775 0.003427 0.003427
0.012898 0.003427 0.003427
0.079464 0.003427 0.003427
0.624898 0.003427 0.003427
0.003427 0.004775 0.003427
0.004775 0.004775 0.003427
0.012898 0.004775 0.003427
0.079464 0.004775 0.003427
0.624898 0.004775 0.003427
0.003427 0.012898 0.003427
0.004775 0.012898 0.003427
0.012898 0.012898 0.003427
0.079464 0.012898 0.003427
0.624898 0.012898 0.003427
0.003427 0.079464 0.003427
0.004775 0.079464 0.003427
0.012898 0.079464 0.003427
0.079464 0.079464 0.003427
0.624898 0.079464 0.003427
0.003427 0.624898 0.003427
0.004775 0.624898 0.003427
0.012898 0.624898 0.003427
0.079464 0.624898 0.003427
0.624898 0.624898 0.003427
0.003427 0.003427 0.004775
0.004775 0.003427 0.004775
0.012898 0.003427 0.004775
0.079464 0.003427 0.004775
0.624898 0.003427 0.004775
0.003427 0.004775 0.004775
0.004775 0.004775 0.004775
0.012898 0.004775 0.004775
0.079464 0.004775 0.004775
0.624898 0.004775 0.004775
0.003427 0.012898 0.004775
0.004775 0.012898 0.004775
0.012898 0.012898 0.004775
0.079464 0.012898 0.004775
0.624898 0.012898 0.004775
0.003427 0.079464 0.004775
0.004775 0.079464 0.004775
0.012898 0.079464 0.004775
0.079464 0.079464 0.004775
0.624898 0.079464 0.004775
0.003427 0.624898 0.004775
0.004775 0.624898 0.004775
0.012898 0.624898 0.004775
0.079464 0.624898 0.004775
0.624898 0.624898 0.004775
0.003427 0.003427 0.012898
0.004775 0.003427 0.012898
0.012898 0.003427 0.012898
0.079464 0.003427 0.012898
0.624898 0.003427 0.012898
0.003427 0.004775 0.012898
0.004775 0.004775 0.012898
0.012898 0.004775 0.012898
0.079464 0.004775 0.012898
0.624898 0.004775 0.012898
0.003427 0.012898 0.012898
0.004775 0.012898 0.012898
0.012898 0.012898 0.012898
0.079464 0.012898 0.012898
0.624898 0.012898 0.012898
0.003427 0.079464 0.012898
0.004775 0.079464 0.012898
0.012898 0.079464 0.012898
0.079464 0.079464 0.012898
0.624898 0.079464 0.012898
0.003427 0.624898 0.012898
0.004775 0.624898 0.012898
0.012898 0.624898 0.012898
0.079464 0.624898 0.012898
0.624898 0.624898 0.012898
0.003427 0.003427 0.079464
0.004775 0.003427 0.079464
0.012898 0.003427 0.079464
0.079464 0.003427 0.079464
0.624898 0.003427 0.079464
0.003427 0.004775 0.079464
0.004775 0.004775 0.079464
0.012898 0.004775 0.079464
0.079464 0.004775 0.079464
0.624898 0.004775 0.079464
0.003427 0.012898 0.079464
0.004775 0.012898 0.079464
0.012898 0.012898 0.079464
0.079464 0.012898 0.079464
0.624898 0.012898 0.079464
0.003427 0.079464 0.079464
0.004775 0.079464 0.079464
0.012898 0.079464 0.079464
0.079464 0.079464 0.079464
0.624898 0.079464 0.079464
0.003427 0.624898 0.079464
0.004775 0.624898 0.079464
0.012898 0.624898 0.079464
0.079464 0.624898 0.079464
0.624898 0.624898 0.079464
0.003427 0.003427 0.624898
0.004775 0.003427 0.624898
0.012898 0.003427 0.624898
0.079464 0.003427 0.624898
0.624898 0.003427 0.624898
0.003427 0.004775 0.624898
0.004775 0.004775 0.624898
0.012898 0.004775 0.624898
0.079464 0.004775 0.624898
0.624898 0.004775 0.624898
0.003427 0.012898 0.624898
0.004775 0.012898 0.624898
0.012898 0.012898 0.624898
0.079464 0.012898 0.624898
0.624898 0.012898 0.624898
0.003427 0.079464 0.624898
0.004775 0.079464 0.624898
0.012898 0.079464 0.624898
0.079464 0.079464 0.624898
0.624898 0.079464 0.624898
0.003427 0.624898 0.624898
0.004775 0.624898 0.624898
0.012898 0.624898 0.624898
0.079464 0.624898 0.624898
0.624898 0.624898 0.624898
