.nuke/nuke.LUT/logC-2-linear_extended/AlexaV3_EI0320_LogC2Linear_EE_nuke3d.cube
# Alexa conversion LUT, logc2lin. Full in/full out.
# created by alexalutconv (2.07)
LUT_3D_SIZE 5
DOMAIN_MIN 0.000000 0.000000 0.000000
DOMAIN_MAX 0.903226 0.903226 0.903226
0.002764 0.002764 0.002764
0.006134 0.002764 0.002764
0.025915 0.002764 0.002764
0.172467 0.002764 0.002764
1.000000 0.002764 0.002764
0.002764 0.006134 0.002764
0.006134 0.006134 0.002764
0.025915 0.006134 0.002764
0.172467 0.006134 0.002764
1.000000 0.006134 0.002764
0.002764 0.025915 0.002764
0.006134 0.025915 0.002764
0.025915 0.025915 0.002764
0.172467 0.025915 0.002764
1.000000 0.025915 0.002764
0.002764 0.172467 0.002764
0.006134 0.172467 0.002764
0.025915 0.172467 0.002764
0.172467 0.172467 0.002764
1.000000 0.172467 0.002764
0.002764 1.000000 0.002764
0.006134 1.000000 0.002764
0.025915 1.000000 0.002764
0.172467 1.000000 0.002764
1.000000 1.000000 0.002764
0.002764 0.002764 0.006134
0.006134 0.002764 0.006134
0.025915 0.002764 0.006134
0.172467 0.002764 0.006134
1.000000 0.002764 0.006134
0.002764 0.006134 0.006134
0.006134 0.006134 0.006134
0.025915 0.006134 0.006134
0.172467 0.006134 0.006134
1.000000 0.006134 0.006134
0.002764 0.025915 0.006134
0.006134 0.025915 0.006134
0.025915 0.025915 0.006134
0.172467 0.025915 0.006134
1.000000 0.025915 0.006134
0.002764 0.172467 0.006134
0.006134 0.172467 0.006134
0.025915 0.172467 0.006134
0.172467 0.172467 0.006134
1.000000 0.172467 0.006134
0.002764 1.000000 0.006134
0.006134 1.000000 0.006134
0.025915 1.000000 0.006134
0.172467 1.000000 0.006134
1.000000 1.000000 0.006134
0.002764 0.002764 0.025915
0.006134 0.002764 0.025915
0.025915 0.002764 0.025915
0.172467 0.002764 0.025915
1.000000 0.002764 0.025915
0.002764 0.006134 0.025915
0.006134 0.006134 0.025915
0.025915 0.006134 0.025915
0.172467 0.006134 0.025915
1.000000 0.006134 0.025915
0.002764 0.025915 0.025915
0.006134 0.025915 0.025915
0.025915 0.025915 0.025915
0.172467 0.025915 0.025915
1.000000 0.025915 0.025915
0.002764 0.172467 0.025915
0.006134 0.172467 0.025915
0.025915 0.172467 0.025915
0.172467 0.172467 0.025915
1.000000 0.172467 0.025915
0.002764 1.000000 0.025915
0.006134 1.000000 0.025915
0.025915 1.000000 0.025915
0.172467 1.000000 0.025915
1.000000 1.000000 0.025915
0.002764 0.002764 0.172467
0.006134 0.002764 0.172467
0.025915 0.002764 0.172467
0.172467 0.002764 0.172467
1.000000 0.002764 0.172467
0.002764 0.006134 0.172467
0.006134 0.006134 0.172467
0.025915 0.006134 0.172467
0.172467 0.006134 0.172467
1.000000 0.006134 0.172467
0.002764 0.025915 0.172467
0.006134 0.025915 0.172467
0.025915 0.025915 0.172467
0.172467 0.025915 0.172467
1.000000 0.025915 0.172467
0.002764 0.172467 0.172467
0.006134 0.172467 0.172467
0.025915 0.172467 0.172467
0.172467 0.172467 0.172467
1.000000 0.172467 0.172467
0.002764 1.000000 0.172467
0.006134 1.000000 0.172467
0.025915 1.000000 0.172467
0.172467 1.000000 0.172467
1.000000 1.000000 0.172467
0.002764 0.002764 1.000000
0.006134 0.002764 1.000000
0.025915 0.002764 1.000000
0.172467 0.002764 1.000000
1.000000 0.002764 1.000000
0.002764 0.006134 1.000000
0.006134 0.006134 1.000000
0.025915 0.006134 1.000000
0.172467 0.006134 1.000000
1.000000 0.006134 1.000000
0.002764 0.025915 1.000000
0.006134 0.025915 1.000000
0.025915 0.025915 1.000000
0.172467 0.025915 1.000000
1.000000 0.025915 1.000000
0.002764 0.172467 1.000000
0.006134 0.172467 1.000000
0.025915 0.172467 1.000000
0.172467 0.172467 1.000000
1.000000 0.172467 1.000000
0.002764 1.000000 1.000000
0.006134 1.000000 1.000000
0.025915 1.000000 1.000000
0.172467 1.000000 1.000000
1.000000 1.000000 1.000000
