.nuke/nuke.LUT/logC-2-linear_extended/AlexaV3_EI2560_LogC2Linear_EE_nuke3d.cube
# Alexa conversion LUT, logc2lin. Full in/full out.
# created by alexalutconv (2.07)
LUT_3D_SIZE 8
DOMAIN_MIN 0.000000 0.000000 0.000000
DOMAIN_MAX 0.903226 0.903226 0.903226
0.003747 0.003747 0.003747
0.003970 0.003747 0.003747
0.004290 0.003747 0.003747
0.005408 0.003747 0.003747
0.009445 0.003747 0.003747
0.024020 0.003747 0.003747
0.076651 0.003747 0.003747
0.291319 0.003747 0.003747
0.003747 0.003970 0.003747
0.003970 0.003970 0.003747
0.004290 0.003970 0.003747
0.005408 0.003970 0.003747
0.009445 0.003970 0.003747
0.024020 0.003970 0.003747
0.076651 0.003970 0.003747
0.291319 0.003970 0.003747
0.003747 0.004290 0.003747
0.003970 0.004290 0.003747
0.004290 0.004290 0.003747
0.005408 0.004290 0.003747
0.009445 0.004290 0.003747
0.024020 0.004290 0.003747
0.076651 0.004290 0.003747
0.291319 0.004290 0.003747
0.003747 0.005408 0.003747
0.003970 0.005408 0.003747
0.004290 0.005408 0.003747
0.005408 0.005408 0.003747
0.009445 0.005408 0.003747
0.024020 0.005408 0.003747
0.076651 0.005408 0.003747
0.291319 0.005408 0.003747
0.003747 0.009445 0.003747
0.003970 0.009445 0.003747
0.004290 0.009445 0.003747
0.005408 0.009445 0.003747
0.009445 0.009445 0.003747
0.024020 0.009445 0.003747
0.076651 0.009445 0.003747
0.291319 0.009445 0.003747
0.003747 0.024020 0.003747
0.003970 0.024020 0.003747
0.004290 0.024020 0.003747
0.005408 0.024020 0.003747
0.009445 0.024020 0.003747
0.024020 0.024020 0.003747
0.076651 0.024020 0.003747
0.291319 0.024020 0.003747
0.003747 0.076651 0.003747
0.003970 0.076651 0.003747
0.004290 0.076651 0.003747
0.005408 0.076651 0.003747
0.009445 0.076651 0.003747
0.024020 0.076651 0.003747
0.076651 0.076651 0.003747
0.291319 0.076651 0.003747
0.003747 0.291319 0.003747
0.003970 0.291319 0.003747
0.004290 0.291319 0.003747
0.005408 0.291319 0.003747
0.009445 0.291319 0.003747
0.024020 0.291319 0.003747
0.076651 0.291319 0.003747
0.291319 0.291319 0.003747
0.003747 0.003747 0.003970
0.003970 0.003747 0.003970
0.004290 0.003747 0.003970
0.005408 0.003747 0.003970
0.009445 0.003747 0.003970
0.024020 0.003747 0.003970
0.076651 0.003747 0.003970
0.291319 0.003747 0.003970
0.003747 0.003970 0.003970
0.003970 0.003970 0.003970
0.004290 0.003970 0.003970
0.005408 0.003970 0.003970
0.009445 0.003970 0.003970
0.024020 0.003970 0.003970
0.076651 0.003970 0.003970
0.291319 0.003970 0.003970
0.003747 0.004290 0.003970
0.003970 0.004290 0.003970
0.004290 0.004290 0.003970
0.005408 0.004290 0.003970
0.009445 0.004290 0.003970
0.024020 0.004290 0.003970
0.076651 0.004290 0.003970
0.291319 0.004290 0.003970
0.003747 0.005408 0.003970
0.003970 0.005408 0.003970
0.004290 0.005408 0.003970
0.005408 0.005408 0.003970
0.009445 0.005408 0.003970
0.024020 0.005408 0.003970
0.076651 0.005408 0.003970
0.291319 0.005408 0.003970
0.003747 0.009445 0.003970
0.003970 0.009445 0.003970
0.004290 0.009445 0.003970
0.005408 0.009445 0.003970
0.009445 0.009445 0.003970
0.024020 0.009445 0.003970
0.076651 0.009445 0.003970
0.291319 0.009445 0.003970
0.003747 0.024020 0.003970
0.003970 0.024020 0.003970
0.004290 0.024020 0.003970
0.005408 0.024020 0.003970
0.009445 0.024020 0.003970
0.024020 0.024020 0.003970
0.076651 0.024020 0.003970
0.291319 0.024020 0.003970
0.003747 0.076651 0.003970
0.003970 0.076651 0.003970
0.004290 0.076651 0.003970
0.005408 0.076651 0.003970
0.009445 0.076651 0.003970
0.024020 0.076651 0.003970
0.076651 0.076651 0.003970
0.291319 0.076651 0.003970
0.003747 0.291319 0.003970
0.003970 0.291319 0.003970
0.004290 0.291319 0.003970
0.005408 0.291319 0.003970
0.009445 0.291319 0.003970
0.024020 0.291319 0.003970
0.076651 0.291319 0.003970
0.291319 0.291319 0.003970
0.003747 0.003747 0.004290
0.003970 0.003747 0.004290
0.004290 0.003747 0.004290
0.005408 0.003747 0.004290
0.009445 0.003747 0.004290
0.024020 0.003747 0.004290
0.076651 0.003747 0.004290
0.291319 0.003747 0.004290
0.003747 0.003970 0.004290
0.003970 0.003970 0.004290
0.004290 0.003970 0.004290
0.005408 0.003970 0.004290
0.009445 0.003970 0.004290
0.024020 0.003970 0.004290
0.076651 0.003970 0.004290
0.291319 0.003970 0.004290
0.003747 0.004290 0.004290
0.003970 0.004290 0.004290
0.004290 0.004290 0.004290
0.005408 0.004290 0.004290
0.009445 0.004290 0.004290
0.024020 0.004290 0.004290
0.076651 0.004290 0.004290
0.291319 0.004290 0.004290
0.003747 0.005408 0.004290
0.003970 0.005408 0.004290
0.004290 0.005408 0.004290
0.005408 0.005408 0.004290
0.009445 0.005408 0.004290
0.024020 0.005408 0.004290
0.076651 0.005408 0.004290
0.291319 0.005408 0.004290
0.003747 0.009445 0.004290
0.003970 0.009445 0.004290
0.004290 0.009445 0.004290
0.005408 0.009445 0.004290
0.009445 0.009445 0.004290
0.024020 0.009445 0.004290
0.076651 0.009445 0.004290
0.291319 0.009445 0.004290
0.003747 0.024020 0.004290
0.003970 0.024020 0.004290
0.004290 0.024020 0.004290
0.005408 0.024020 0.004290
0.009445 0.024020 0.004290
0.024020 0.024020 0.004290
0.076651 0.024020 0.004290
0.291319 0.024020 0.004290
0.003747 0.076651 0.004290
0.003970 0.076651 0.004290
0.004290 0.076651 0.004290
0.005408 0.076651 0.004290
0.009445 0.076651 0.004290
0.024020 0.076651 0.004290
0.076651 0.076651 0.004290
0.291319 0.076651 0.004290
0.003747 0.291319 0.004290
0.003970 0.291319 0.004290
0.004290 0.291319 0.004290
0.005408 0.291319 0.004290
0.009445 0.291319 0.004290
0.024020 0.291319 0.004290
0.076651 0.291319 0.004290
0.291319 0.291319 0.004290
0.003747 0.003747 0.005408
0.003970 0.003747 0.005408
0.004290 0.003747 0.005408
0.005408 0.003747 0.005408
0.009445 0.003747 0.005408
0.024020 0.003747 0.005408
0.076651 0.003747 0.005408
0.291319 0.003747 0.005408
0.003747 0.003970 0.005408
0.003970 0.003970 0.005408
0.004290 0.003970 0.005408
0.005408 0.003970 0.005408
0.009445 0.003970 0.005408
0.024020 0.003970 0.005408
0.076651 0.003970 0.005408
0.291319 0.003970 0.005408
0.003747 0.004290 0.005408
0.003970 0.004290 0.005408
0.004290 0.004290 0.005408
0.005408 0.004290 0.005408
0.009445 0.004290 0.005408
0.024020 0.004290 0.005408
0.076651 0.004290 0.005408
0.291319 0.004290 0.005408
0.003747 0.005408 0.005408
0.003970 0.005408 0.005408
0.004290 0.005408 0.005408
0.005408 0.005408 0.005408
0.009445 0.005408 0.005408
0.024020 0.005408 0.005408
0.076651 0.005408 0.005408
0.291319 0.005408 0.005408
0.003747 0.009445 0.005408
0.003970 0.009445 0.005408
0.004290 0.009445 0.005408
0.005408 0.009445 0.005408
0.009445 0.009445 0.005408
0.024020 0.009445 0.005408
0.076651 0.009445 0.005408
0.291319 0.009445 0.005408
0.003747 0.024020 0.005408
0.003970 0.024020 0.005408
0.004290 0.024020 0.005408
0.005408 0.024020 0.005408
0.009445 0.024020 0.005408
0.024020 0.024020 0.005408
0.076651 0.024020 0.005408
0.291319 0.024020 0.005408
0.003747 0.076651 0.005408
0.003970 0.076651 0.005408
0.004290 0.076651 0.005408
0.005408 0.076651 0.005408
0.009445 0.076651 0.005408
0.024020 0.076651 0.005408
0.076651 0.076651 0.005408
0.291319 0.076651 0.005408
0.003747 0.291319 0.005408
0.003970 0.291319 0.005408
0.004290 0.291319 0.005408
0.005408 0.291319 0.005408
0.009445 0.291319 0.005408
0.024020 0.291319 0.005408
0.076651 0.291319 0.005408
0.291319 0.291319 0.005408
0.003747 0.003747 0.009445
0.003970 0.003747 0.009445
0.004290 0.003747 0.009445
0.005408 0.003747 0.009445
0.009445 0.003747 0.009445
0.024020 0.003747 0.009445
0.076651 0.003747 0.009445
0.291319 0.003747 0.009445
0.003747 0.003970 0.009445
0.003970 0.003970 0.009445
0.004290 0.003970 0.009445
0.005408 0.003970 0.009445
0.009445 0.003970 0.009445
0.024020 0.003970 0.009445
0.076651 0.003970 0.009445
0.291319 0.003970 0.009445
0.003747 0.004290 0.009445
0.003970 0.004290 0.009445
0.004290 0.004290 0.009445
0.005408 0.004290 0.009445
0.009445 0.004290 0.009445
0.024020 0.004290 0.009445
0.076651 0.004290 0.009445
0.291319 0.004290 0.009445
0.003747 0.005408 0.009445
0.003970 0.005408 0.009445
0.004290 0.005408 0.009445
0.005408 0.005408 0.009445
0.009445 0.005408 0.009445
0.024020 0.005408 0.009445
0.076651 0.005408 0.009445
0.291319 0.005408 0.009445
0.003747 0.009445 0.009445
0.003970 0.009445 0.009445
0.004290 0.009445 0.009445
0.005408 0.009445 0.009445
0.009445 0.009445 0.009445
0.024020 0.009445 0.009445
0.076651 0.009445 0.009445
0.291319 0.009445 0.009445
0.003747 0.024020 0.009445
0.003970 0.024020 0.009445
0.004290 0.024020 0.009445
0.005408 0.024020 0.009445
0.009445 0.024020 0.009445
0.024020 0.024020 0.009445
0.076651 0.024020 0.009445
0.291319 0.024020 0.009445
0.003747 0.076651 0.009445
0.003970 0.076651 0.009445
0.004290 0.076651 0.009445
0.005408 0.076651 0.009445
0.009445 0.076651 0.009445
0.024020 0.076651 0.009445
0.076651 0.076651 0.009445
0.291319 0.076651 0.009445
0.003747 0.291319 0.009445
0.003970 0.291319 0.009445
0.004290 0.291319 0.009445
0.005408 0.291319 0.009445
0.009445 0.291319 0.009445
0.024020 0.291319 0.009445
0.076651 0.291319 0.009445
0.291319 0.291319 0.009445
0.003747 0.003747 0.024020
0.003970 0.003747 0.024020
0.004290 0.003747 0.024020
0.005408 0.003747 0.024020
0.009445 0.003747 0.024020
0.024020 0.003747 0.024020
0.076651 0.003747 0.024020
0.291319 0.003747 0.024020
0.003747 0.003970 0.024020
0.003970 0.003970 0.024020
0.004290 0.003970 0.024020
0.005408 0.003970 0.024020
0.009445 0.003970 0.024020
0.024020 0.003970 0.024020
0.076651 0.003970 0.024020
0.291319 0.003970 0.024020
0.003747 0.004290 0.024020
0.003970 0.004290 0.024020
0.004290 0.004290 0.024020
0.005408 0.004290 0.024020
0.009445 0.004290 0.024020
0.024020 0.004290 0.024020
0.076651 0.004290 0.024020
0.291319 0.004290 0.024020
0.003747 0.005408 0.024020
0.003970 0.005408 0.024020
0.004290 0.005408 0.024020
0.005408 0.005408 0.024020
0.009445 0.005408 0.024020
0.024020 0.005408 0.024020
0.076651 0.005408 0.024020
0.291319 0.005408 0.024020
0.003747 0.009445 0.024020
0.003970 0.009445 0.024020
0.004290 0.009445 0.024020
0.005408 0.009445 0.024020
0.009445 0.009445 0.024020
0.024020 0.009445 0.024020
0.076651 0.009445 0.024020
0.291319 0.009445 0.024020
0.003747 0.024020 0.024020
0.003970 0.024020 0.024020
0.004290 0.024020 0.024020
0.005408 0.024020 0.024020
0.009445 0.024020 0.024020
0.024020 0.024020 0.024020
0.076651 0.024020 0.024020
0.291319 0.024020 0.024020
0.003747 0.076651 0.024020
0.003970 0.076651 0.024020
0.004290 0.076651 0.024020
0.005408 0.076651 0.024020
0.009445 0.076651 0.024020
0.024020 0.076651 0.024020
0.076651 0.076651 0.024020
0.291319 0.076651 0.024020
0.003747 0.291319 0.024020
0.003970 0.291319 0.024020
0.004290 0.291319 0.024020
0.005408 0.291319 0.024020
0.009445 0.291319 0.024020
0.024020 0.291319 0.024020
0.076651 0.291319 0.024020
0.291319 0.291319 0.024020
0.003747 0.003747 0.076651
0.003970 0.003747 0.076651
0.004290 0.003747 0.076651
0.005408 0.003747 0.076651
0.009445 0.003747 0.076651
0.024020 0.003747 0.076651
0.076651 0.003747 0.076651
0.291319 0.003747 0.076651
0.003747 0.003970 0.076651
0.003970 0.003970 0.076651
0.004290 0.003970 0.076651
0.005408 0.003970 0.076651
0.009445 0.003970 0.076651
0.024020 0.003970 0.076651
0.076651 0.003970 0.076651
0.291319 0.003970 0.076651
0.003747 0.004290 0.076651
0.003970 0.004290 0.076651
0.004290 0.004290 0.076651
0.005408 0.004290 0.076651
0.009445 0.004290 0.076651
0.024020 0.004290 0.076651
0.076651 0.004290 0.076651
0.291319 0.004290 0.076651
0.003747 0.005408 0.076651
0.003970 0.005408 0.076651
0.004290 0.005408 0.076651
0.005408 0.005408 0.076651
0.009445 0.005408 0.076651
0.024020 0.005408 0.076651
0.076651 0.005408 0.076651
0.291319 0.005408 0.076651
0.003747 0.009445 0.076651
0.003970 0.009445 0.076651
0.004290 0.009445 0.076651
0.005408 0.009445 0.076651
0.009445 0.009445 0.076651
0.024020 0.009445 0.076651
0.076651 0.009445 0.076651
0.291319 0.009445 0.076651
0.003747 0.024020 0.076651
0.003970 0.024020 0.076651
0.004290 0.024020 0.076651
0.005408 0.024020 0.076651
0.009445 0.024020 0.076651
0.024020 0.024020 0.076651
0.076651 0.024020 0.076651
0.291319 0.024020 0.076651
0.003747 0.076651 0.076651
0.003970 0.076651 0.076651
0.004290 0.076651 0.076651
0.005408 0.076651 0.076651
0.009445 0.076651 0.076651
0.024020 0.076651 0.076651
0.076651 0.076651 0.076651
0.291319 0.076651 0.076651
0.003747 0.291319 0.076651
0.003970 0.291319 0.076651
0.004290 0.291319 0.076651
0.005408 0.291319 0.076651
0.009445 0.291319 0.076651
0.024020 0.291319 0.076651
0.076651 0.291319 0.076651
0.291319 0.291319 0.076651
0.003747 0.003747 0.291319
0.003970 0.003747 0.291319
0.004290 0.003747 0.291319
0.005408 0.003747 0.291319
0.009445 0.003747 0.291319
0.024020 0.003747 0.291319
0.076651 0.003747 0.291319
0.291319 0.003747 0.291319
0.003747 0.003970 0.291319
0.003970 0.003970 0.291319
0.004290 0.003970 0.291319
0.005408 0.003970 0.291319
0.009445 0.003970 0.291319
0.024020 0.003970 0.291319
0.076651 0.003970 0.291319
0.291319 0.003970 0.291319
0.003747 0.004290 0.291319
0.003970 0.004290 0.291319
0.004290 0.004290 0.291319
0.005408 0.004290 0.291319
0.009445 0.004290 0.291319
0.024020 0.004290 0.291319
0.076651 0.004290 0.291319
0.291319 0.004290 0.291319
0.003747 0.005408 0.291319
0.003970 0.005408 0.291319
0.004290 0.005408 0.291319
0.005408 0.005408 0.291319
0.009445 0.005408 0.291319
0.024020 0.005408 0.291319
0.076651 0.005408 0.291319
0.291319 0.005408 0.291319
0.003747 0.009445 0.291319
0.003970 0.009445 0.291319
0.004290 0.009445 0.291319
0.005408 0.009445 0.291319
0.009445 0.009445 0.291319
0.024020 0.009445 0.291319
0.076651 0.009445 0.291319
0.291319 0.009445 0.291319
0.003747 0.024020 0.291319
0.003970 0.024020 0.291319
0.004290 0.024020 0.291319
0.005408 0.024020 0.291319
0.009445 0.024020 0.291319
0.024020 0.024020 0.291319
0.076651 0.024020 0.291319
0.291319 0.024020 0.291319
0.003747 0.076651 0.291319
0.003970 0.076651 0.291319
0.004290 0.076651 0.291319
0.005408 0.076651 0.291319
0.009445 0.076651 0.291319
0.024020 0.076651 0.291319
0.076651 0.076651 0.291319
0.291319 0.076651 0.291319
0.003747 0.291319 0.291319
0.003970 0.291319 0.291319
0.004290 0.291319 0.291319
0.005408 0.291319 0.291319
0.009445 0.291319 0.291319
0.024020 0.291319 0.291319
0.076651 0.291319 0.291319
0.291319 0.291319 0.291319
