.nuke/nuke.LUT/logC-2-linear_extended/AlexaV3_EI0400_LogC2Linear_EE_nuke3d.cube
# Alexa conversion LUT, logc2lin. Full in/full out.
# created by alexalutconv (2.07)
LUT_3D_SIZE 5
DOMAIN_MIN 0.000000 0.000000 0.000000
DOMAIN_MAX 0.903226 0.903226 0.903226
0.002982 0.002982 0.002982
0.005676 0.002982 0.002982
0.021602 0.002982 0.002982
0.142414 0.002982 0.002982
1.000000 0.002982 0.002982
0.002982 0.005676 0.002982
0.005676 0.005676 0.002982
0.021602 0.005676 0.002982
0.142414 0.005676 0.002982
1.000000 0.005676 0.002982
0.002982 0.021602 0.002982
0.005676 0.021602 0.002982
0.021602 0.021602 0.002982
0.142414 0.021602 0.002982
1.000000 0.021602 0.002982
0.002982 0.142414 0.002982
0.005676 0.142414 0.002982
0.021602 0.142414 0.002982
0.142414 0.142414 0.002982
1.000000 0.142414 0.002982
0.002982 1.000000 0.002982
0.005676 1.000000 0.002982
0.021602 1.000000 0.002982
0.142414 1.000000 0.002982
1.000000 1.000000 0.002982
0.002982 0.002982 0.005676
0.005676 0.002982 0.005676
0.021602 0.002982 0.005676
0.142414 0.002982 0.005676
1.000000 0.002982 0.005676
0.002982 0.005676 0.005676
0.005676 0.005676 0.005676
0.021602 0.005676 0.005676
0.142414 0.005676 0.005676
1.000000 0.005676 0.005676
0.002982 0.021602 0.005676
0.005676 0.021602 0.005676
0.021602 0.021602 0.005676
0.142414 0.021602 0.005676
1.000000 0.021602 0.005676
0.002982 0.142414 0.005676
0.005676 0.142414 0.005676
0.021602 0.142414 0.005676
0.142414 0.142414 0.005676
1.000000 0.142414 0.005676
0.002982 1.000000 0.005676
0.005676 1.000000 0.005676
0.021602 1.000000 0.005676
0.142414 1.000000 0.005676
1.000000 1.000000 0.005676
0.002982 0.002982 0.021602
0.005676 0.002982 0.021602
0.021602 0.002982 0.021602
0.142414 0.002982 0.021602
1.000000 0.002982 0.021602
0.002982 0.005676 0.021602
0.005676 0.005676 0.021602
0.021602 0.005676 0.021602
0.142414 0.005676 0.021602
1.000000 0.005676 0.021602
0.002982 0.021602 0.021602
0.005676 0.021602 0.021602
0.021602 0.021602 0.021602
0.142414 0.021602 0.021602
1.000000 0.021602 0.021602
0.002982 0.142414 0.021602
0.005676 0.142414 0.021602
0.021602 0.142414 0.021602
0.142414 0.142414 0.021602
1.000000 0.142414 0.021602
0.002982 1.000000 0.021602
0.005676 1.000000 0.021602
0.021602 1.000000 0.021602
0.142414 1.000000 0.021602
1.000000 1.000000 0.021602
0.002982 0.002982 0.142414
0.005676 0.002982 0.142414
0.021602 0.002982 0.142414
0.142414 0.002982 0.142414
1.000000 0.002982 0.142414
0.002982 0.005676 0.142414
0.005676 0.005676 0.142414
0.021602 0.005676 0.142414
0.142414 0.005676 0.142414
1.000000 0.005676 0.142414
0.002982 0.021602 0.142414
0.005676 0.021602 0.142414
0.021602 0.021602 0.142414
0.142414 0.021602 0.142414
1.000000 0.021602 0.142414
0.002982 0.142414 0.142414
0.005676 0.142414 0.142414
0.021602 0.142414 0.142414
0.142414 0.142414 0.142414
1.000000 0.142414 0.142414
0.002982 1.000000 0.142414
0.005676 1.000000 0.142414
0.021602 1.000000 0.142414
0.142414 1.000000 0.142414
1.000000 1.000000 0.142414
0.002982 0.002982 1.000000
0.005676 0.002982 1.000000
0.021602 0.002982 1.000000
0.142414 0.002982 1.000000
1.000000 0.002982 1.000000
0.002982 0.005676 1.000000
0.005676 0.005676 1.000000
0.021602 0.005676 1.000000
0.142414 0.005676 1.000000
1.000000 0.005676 1.000000
0.002982 0.021602 1.000000
0.005676 0.021602 1.000000
0.021602 0.021602 1.000000
0.142414 0.021602 1.000000
1.000000 0.021602 1.000000
0.002982 0.142414 1.000000
0.005676 0.142414 1.000000
0.021602 0.142414 1.000000
0.142414 0.142414 1.000000
1.000000 0.142414 1.000000
0.002982 1.000000 1.000000
0.005676 1.000000 1.000000
0.021602 1.000000 1.000000
0.142414 1.000000 1.000000
1.000000 1.000000 1.000000
