.nuke/nuke.LUT/logC-2-linear_extended/AlexaV3_EI1000_LogC2Linear_EE_nuke3d.cube
# Alexa conversion LUT, logc2lin. Full in/full out.
# created by alexalutconv (2.07)
LUT_3D_SIZE 5
DOMAIN_MIN 0.000000 0.000000 0.000000
DOMAIN_MAX 0.903226 0.903226 0.903226
0.003518 0.003518 0.003518
0.004598 0.003518 0.003518
0.011139 0.003518 0.003518
0.066156 0.003518 0.003518
0.528880 0.003518 0.003518
0.003518 0.004598 0.003518
0.004598 0.004598 0.003518
0.011139 0.004598 0.003518
0.066156 0.004598 0.003518
0.528880 0.004598 0.003518
0.003518 0.011139 0.003518
0.004598 0.011139 0.003518
0.011139 0.011139 0.003518
0.066156 0.011139 0.003518
0.528880 0.011139 0.003518
0.003518 0.066156 0.003518
0.004598 0.066156 0.003518
0.011139 0.066156 0.003518
0.066156 0.066156 0.003518
0.528880 0.066156 0.003518
0.003518 0.528880 0.003518
0.004598 0.528880 0.003518
0.011139 0.528880 0.003518
0.066156 0.528880 0.003518
0.528880 0.528880 0.003518
0.003518 0.003518 0.004598
0.004598 0.003518 0.004598
0.011139 0.003518 0.004598
0.066156 0.003518 0.004598
0.528880 0.003518 0.004598
0.003518 0.004598 0.004598
0.004598 0.004598 0.004598
0.011139 0.004598 0.004598
0.066156 0.004598 0.004598
0.528880 0.004598 0.004598
0.003518 0.011139 0.004598
0.004598 0.011139 0.004598
0.011139 0.011139 0.004598
0.066156 0.011139 0.004598
0.528880 0.011139 0.004598
0.003518 0.066156 0.004598
0.004598 0.066156 0.004598
0.011139 0.066156 0.004598
0.066156 0.066156 0.004598
0.528880 0.066156 0.004598
0.003518 0.528880 0.004598
0.004598 0.528880 0.004598
0.011139 0.528880 0.004598
0.066156 0.528880 0.004598
0.528880 0.528880 0.004598
0.003518 0.003518 0.011139
0.004598 0.003518 0.011139
0.011139 0.003518 0.011139
0.066156 0.003518 0.011139
0.528880 0.003518 0.011139
0.003518 0.004598 0.011139
0.004598 0.004598 0.011139
0.011139 0.004598 0.011139
0.066156 0.004598 0.011139
0.528880 0.004598 0.011139
0.003518 0.011139 0.011139
0.004598 0.011139 0.011139
0.011139 0.011139 0.011139
0.066156 0.011139 0.011139
0.528880 0.011139 0.011139
0.003518 0.066156 0.011139
0.004598 0.066156 0.011139
0.011139 0.066156 0.011139
0.066156 0.066156 0.011139
0.528880 0.066156 0.011139
0.003518 0.528880 0.011139
0.004598 0.528880 0.011139
0.011139 0.528880 0.011139
0.066156 0.528880 0.011139
0.528880 0.528880 0.011139
0.003518 0.003518 0.066156
0.004598 0.003518 0.066156
0.011139 0.003518 0.066156
0.066156 0.003518 0.066156
0.528880 0.003518 0.066156
0.003518 0.004598 0.066156
0.004598 0.004598 0.066156
0.011139 0.004598 0.066156
0.066156 0.004598 0.066156
0.528880 0.004598 0.066156
0.003518 0.011139 0.066156
0.004598 0.011139 0.066156
0.011139 0.011139 0.066156
0.066156 0.011139 0.066156
0.528880 0.011139 0.066156
0.003518 0.066156 0.066156
0.004598 0.066156 0.066156
0.011139 0.066156 0.066156
0.066156 0.066156 0.066156
0.528880 0.066156 0.066156
0.003518 0.528880 0.066156
0.004598 0.528880 0.066156
0.011139 0.528880 0.066156
0.066156 0.528880 0.066156
0.528880 0.528880 0.066156
0.003518 0.003518 0.528880
0.004598 0.003518 0.528880
0.011139 0.003518 0.528880
0.066156 0.003518 0.528880
0.528880 0.003518 0.528880
0.003518 0.004598 0.528880
0.004598 0.004598 0.528880
0.011139 0.004598 0.528880
0.066156 0.004598 0.528880
0.528880 0.004598 0.528880
0.003518 0.011139 0.528880
0.004598 0.011139 0.528880
0.011139 0.011139 0.528880
0.066156 0.011139 0.528880
0.528880 0.011139 0.528880
0.003518 0.066156 0.528880
0.004598 0.066156 0.528880
0.011139 0.066156 0.528880
0.066156 0.066156 0.528880
0.528880 0.066156 0.528880
0.003518 0.528880 0.528880
0.004598 0.528880 0.528880
0.011139 0.528880 0.528880
0.066156 0.528880 0.528880
0.528880 0.528880 0.528880
