.nuke/nuke.LUT/logC-2-linear_extended/AlexaV3_EI2000_LogC2Linear_EE_nuke3d.cube
# Alexa conversion LUT, logc2lin. Full in/full out.
# created by alexalutconv (2.07)
LUT_3D_SIZE 32
0.003705 0.003705 0.003705
0.003775 0.003705 0.003705
0.003845 0.003705 0.003705
0.003916 0.003705 0.003705
0.003986 0.003705 0.003705
0.004056 0.003705 0.003705
0.004137 0.003705 0.003705
0.004248 0.003705 0.003705
0.004401 0.003705 0.003705
0.004609 0.003705 0.003705
0.004896 0.003705 0.003705
0.005290 0.003705 0.003705
0.005829 0.003705 0.003705
0.006570 0.003705 0.003705
0.007586 0.003705 0.003705
0.008981 0.003705 0.003705
0.010895 0.003705 0.003705
0.013521 0.003705 0.003705
0.017124 0.003705 0.003705
0.022069 0.003705 0.003705
0.028854 0.003705 0.003705
0.038164 0.003705 0.003705
0.050940 0.003705 0.003705
0.068470 0.003705 0.003705
0.092525 0.003705 0.003705
0.125555 0.003705 0.003705
0.171998 0.003705 0.003705
0.238530 0.003705 0.003705
0.334906 0.003705 0.003705
0.476126 0.003705 0.003705
0.685549 0.003705 0.003705
1.000000 0.003705 0.003705
0.003705 0.003775 0.003705
0.003775 0.003775 0.003705
0.003845 0.003775 0.003705
0.003916 0.003775 0.003705
0.003986 0.003775 0.003705
0.004056 0.003775 0.003705
0.004137 0.003775 0.003705
0.004248 0.003775 0.003705
0.004401 0.003775 0.003705
0.004609 0.003775 0.003705
0.004896 0.003775 0.003705
0.005290 0.003775 0.003705
0.005829 0.003775 0.003705
0.006570 0.003775 0.003705
0.007586 0.003775 0.003705
0.008981 0.003775 0.003705
0.010895 0.003775 0.003705
0.013521 0.003775 0.003705
0.017124 0.003775 0.003705
0.022069 0.003775 0.003705
0.028854 0.003775 0.003705
0.038164 0.003775 0.003705
0.050940 0.003775 0.003705
0.068470 0.003775 0.003705
0.092525 0.003775 0.003705
0.125555 0.003775 0.003705
0.171998 0.003775 0.003705
0.238530 0.003775 0.003705
0.334906 0.003775 0.003705
0.476126 0.003775 0.003705
0.685549 0.003775 0.003705
1.000000 0.003775 0.003705
0.003705 0.003845 0.003705
0.003775 0.003845 0.003705
0.003845 0.003845 0.003705
0.003916 0.003845 0.003705
0.003986 0.003845 0.003705
0.004056 0.003845 0.003705
0.004137 0.003845 0.003705
0.004248 0.003845 0.003705
0.004401 0.003845 0.003705
0.004609 0.003845 0.003705
0.004896 0.003845 0.003705
0.005290 0.003845 0.003705
0.005829 0.003845 0.003705
0.006570 0.003845 0.003705
0.007586 0.003845 0.003705
0.008981 0.003845 0.003705
0.010895 0.003845 0.003705
0.013521 0.003845 0.003705
0.017124 0.003845 0.003705
0.022069 0.003845 0.003705
0.028854 0.003845 0.003705
0.038164 0.003845 0.003705
0.050940 0.003845 0.003705
0.068470 0.003845 0.003705
0.092525 0.003845 0.003705
0.125555 0.003845 0.003705
0.171998 0.003845 0.003705
0.238530 0.003845 0.003705
0.334906 0.003845 0.003705
0.476126 0.003845 0.003705
0.685549 0.003845 0.003705
1.000000 0.003845 0.003705
0.003705 0.003916 0.003705
0.003775 0.003916 0.003705
0.003845 0.003916 0.003705
0.003916 0.003916 0.003705
0.003986 0.003916 0.003705
0.004056 0.003916 0.003705
0.004137 0.003916 0.003705
0.004248 0.003916 0.003705
0.004401 0.003916 0.003705
0.004609 0.003916 0.003705
0.004896 0.003916 0.003705
0.005290 0.003916 0.003705
0.005829 0.003916 0.003705
0.006570 0.003916 0.003705
0.007586 0.003916 0.003705
0.008981 0.003916 0.003705
0.010895 0.003916 0.003705
0.013521 0.003916 0.003705
0.017124 0.003916 0.003705
0.022069 0.003916 0.003705
0.028854 0.003916 0.003705
0.038164 0.003916 0.003705
0.050940 0.003916 0.003705
0.068470 0.003916 0.003705
0.092525 0.003916 0.003705
0.125555 0.003916 0.003705
0.171998 0.003916 0.003705
0.238530 0.003916 0.003705
0.334906 0.003916 0.003705
0.476126 0.003916 0.003705
0.685549 0.003916 0.003705
1.000000 0.003916 0.003705
0.003705 0.003986 0.003705
0.003775 0.003986 0.003705
0.003845 0.003986 0.003705
0.003916 0.003986 0.003705
0.003986 0.003986 0.003705
0.004056 0.003986 0.003705
0.004137 0.003986 0.003705
0.004248 0.003986 0.003705
0.004401 0.003986 0.003705
0.004609 0.003986 0.003705
0.004896 0.003986 0.003705
0.005290 0.003986 0.003705
0.005829 0.003986 0.003705
0.006570 0.003986 0.003705
0.007586 0.003986 0.003705
0.008981 0.003986 0.003705
0.010895 0.003986 0.003705
0.013521 0.003986 0.003705
0.017124 0.003986 0.003705
0.022069 0.003986 0.003705
0.028854 0.003986 0.003705
0.038164 0.003986 0.003705
0.050940 0.003986 0.003705
0.068470 0.003986 0.003705
0.092525 0.003986 0.003705
0.125555 0.003986 0.003705
0.171998 0.003986 0.003705
0.238530 0.003986 0.003705
0.334906 0.003986 0.003705
0.476126 0.003986 0.003705
0.685549 0.003986 0.003705
1.000000 0.003986 0.003705
0.003705 0.004056 0.003705
0.003775 0.004056 0.003705
0.003845 0.004056 0.003705
0.003916 0.004056 0.003705
0.003986 0.004056 0.003705
0.004056 0.004056 0.003705
0.004137 0.004056 0.003705
0.004248 0.004056 0.003705
0.004401 0.004056 0.003705
0.004609 0.004056 0.003705
0.004896 0.004056 0.003705
0.005290 0.004056 0.003705
0.005829 0.004056 0.003705
0.006570 0.004056 0.003705
0.007586 0.004056 0.003705
0.008981 0.004056 0.003705
0.010895 0.004056 0.003705
0.013521 0.004056 0.003705
0.017124 0.004056 0.003705
0.022069 0.004056 0.003705
0.028854 0.004056 0.003705
0.038164 0.004056 0.003705
0.050940 0.004056 0.003705
0.068470 0.004056 0.003705
0.092525 0.004056 0.003705
0.125555 0.004056 0.003705
0.171998 0.004056 0.003705
0.238530 0.004056 0.003705
0.334906 0.004056 0.003705
0.476126 0.004056 0.003705
0.685549 0.004056 0.003705
1.000000 0.004056 0.003705
0.003705 0.004137 0.003705
0.003775 0.004137 0.003705
0.003845 0.004137 0.003705
0.003916 0.004137 0.003705
0.003986 0.004137 0.003705
0.004056 0.004137 0.003705
0.004137 0.004137 0.003705
0.004248 0.004137 0.003705
0.004401 0.004137 0.003705
0.004609 0.004137 0.003705
0.004896 0.004137 0.003705
0.005290 0.004137 0.003705
0.005829 0.004137 0.003705
0.006570 0.004137 0.003705
0.007586 0.004137 0.003705
0.008981 0.004137 0.003705
0.010895 0.004137 0.003705
0.013521 0.004137 0.003705
0.017124 0.004137 0.003705
0.022069 0.004137 0.003705
0.028854 0.004137 0.003705
0.038164 0.004137 0.003705
0.050940 0.004137 0.003705
0.068470 0.004137 0.003705
0.092525 0.004137 0.003705
0.125555 0.004137 0.003705
0.171998 0.004137 0.003705
0.238530 0.004137 0.003705
0.334906 0.004137 0.003705
0.476126 0.004137 0.003705
0.685549 0.004137 0.003705
1.000000 0.004137 0.003705
0.003705 0.004248 0.003705
0.003775 0.004248 0.003705
0.003845 0.004248 0.003705
0.003916 0.004248 0.003705
0.003986 0.004248 0.003705
0.004056 0.004248 0.003705
0.004137 0.004248 0.003705
0.004248 0.004248 0.003705
0.004401 0.004248 0.003705
0.004609 0.004248 0.003705
0.004896 0.004248 0.003705
0.005290 0.004248 0.003705
0.005829 0.004248 0.003705
0.006570 0.004248 0.003705
0.007586 0.004248 0.003705
0.008981 0.004248 0.003705
0.010895 0.004248 0.003705
0.013521 0.004248 0.003705
0.017124 0.004248 0.003705
0.022069 0.004248 0.003705
0.028854 0.004248 0.003705
0.038164 0.004248 0.003705
0.050940 0.004248 0.003705
0.068470 0.004248 0.003705
0.092525 0.004248 0.003705
0.125555 0.004248 0.003705
0.171998 0.004248 0.003705
0.238530 0.004248 0.003705
0.334906 0.004248 0.003705
0.476126 0.004248 0.003705
0.685549 0.004248 0.003705
1.000000 0.004248 0.003705
0.003705 0.004401 0.003705
0.003775 0.004401 0.003705
0.003845 0.004401 0.003705
0.003916 0.004401 0.003705
0.003986 0.004401 0.003705
0.004056 0.004401 0.003705
0.004137 0.004401 0.003705
0.004248 0.004401 0.003705
0.004401 0.004401 0.003705
0.004609 0.004401 0.003705
0.004896 0.004401 0.003705
0.005290 0.004401 0.003705
0.005829 0.004401 0.003705
0.006570 0.004401 0.003705
0.007586 0.004401 0.003705
0.008981 0.004401 0.003705
0.010895 0.004401 0.003705
0.013521 0.004401 0.003705
0.017124 0.004401 0.003705
0.022069 0.004401 0.003705
0.028854 0.004401 0.003705
0.038164 0.004401 0.003705
0.050940 0.004401 0.003705
0.068470 0.004401 0.003705
0.092525 0.004401 0.003705
0.125555 0.004401 0.003705
0.171998 0.004401 0.003705
0.238530 0.004401 0.003705
0.334906 0.004401 0.003705
0.476126 0.004401 0.003705
0.685549 0.004401 0.003705
1.000000 0.004401 0.003705
0.003705 0.004609 0.003705
0.003775 0.004609 0.003705
0.003845 0.004609 0.003705
0.003916 0.004609 0.003705
0.003986 0.004609 0.003705
0.004056 0.004609 0.003705
0.004137 0.004609 0.003705
0.004248 0.004609 0.003705
0.004401 0.004609 0.003705
0.004609 0.004609 0.003705
0.004896 0.004609 0.003705
0.005290 0.004609 0.003705
0.005829 0.004609 0.003705
0.006570 0.004609 0.003705
0.007586 0.004609 0.003705
0.008981 0.004609 0.003705
0.010895 0.004609 0.003705
0.013521 0.004609 0.003705
0.017124 0.004609 0.003705
0.022069 0.004609 0.003705
0.028854 0.004609 0.003705
0.038164 0.004609 0.003705
0.050940 0.004609 0.003705
0.068470 0.004609 0.003705
0.092525 0.004609 0.003705
0.125555 0.004609 0.003705
0.171998 0.004609 0.003705
0.238530 0.004609 0.003705
0.334906 0.004609 0.003705
0.476126 0.004609 0.003705
0.685549 0.004609 0.003705
1.000000 0.004609 0.003705
0.003705 0.004896 0.003705
0.003775 0.004896 0.003705
0.003845 0.004896 0.003705
0.003916 0.004896 0.003705
0.003986 0.004896 0.003705
0.004056 0.004896 0.003705
0.004137 0.004896 0.003705
0.004248 0.004896 0.003705
0.004401 0.004896 0.003705
0.004609 0.004896 0.003705
0.004896 0.004896 0.003705
0.005290 0.004896 0.003705
0.005829 0.004896 0.003705
0.006570 0.004896 0.003705
0.007586 0.004896 0.003705
0.008981 0.004896 0.003705
0.010895 0.004896 0.003705
0.013521 0.004896 0.003705
0.017124 0.004896 0.003705
0.022069 0.004896 0.003705
0.028854 0.004896 0.003705
0.038164 0.004896 0.003705
0.050940 0.004896 0.003705
0.068470 0.004896 0.003705
0.092525 0.004896 0.003705
0.125555 0.004896 0.003705
0.171998 0.004896 0.003705
0.238530 0.004896 0.003705
0.334906 0.004896 0.003705
0.476126 0.004896 0.003705
0.685549 0.004896 0.003705
1.000000 0.004896 0.003705
0.003705 0.005290 0.003705
0.003775 0.005290 0.003705
0.003845 0.005290 0.003705
0.003916 0.005290 0.003705
0.003986 0.005290 0.003705
0.004056 0.005290 0.003705
0.004137 0.005290 0.003705
0.004248 0.005290 0.003705
0.004401 0.005290 0.003705
0.004609 0.005290 0.003705
0.004896 0.005290 0.003705
0.005290 0.005290 0.003705
0.005829 0.005290 0.003705
0.006570 0.005290 0.003705
0.007586 0.005290 0.003705
0.008981 0.005290 0.003705
0.010895 0.005290 0.003705
0.013521 0.005290 0.003705
0.017124 0.005290 0.003705
0.022069 0.005290 0.003705
0.028854 0.005290 0.003705
0.038164 0.005290 0.003705
0.050940 0.005290 0.003705
0.068470 0.005290 0.003705
0.092525 0.005290 0.003705
0.125555 0.005290 0.003705
0.171998 0.005290 0.003705
0.238530 0.005290 0.003705
0.334906 0.005290 0.003705
0.476126 0.005290 0.003705
0.685549 0.005290 0.003705
1.000000 0.005290 0.003705
0.003705 0.005829 0.003705
0.003775 0.005829 0.003705
0.003845 0.005829 0.003705
0.003916 0.005829 0.003705
0.003986 0.005829 0.003705
0.004056 0.005829 0.003705
0.004137 0.005829 0.003705
0.004248 0.005829 0.003705
0.004401 0.005829 0.003705
0.004609 0.005829 0.003705
0.004896 0.005829 0.003705
0.005290 0.005829 0.003705
0.005829 0.005829 0.003705
0.006570 0.005829 0.003705
0.007586 0.005829 0.003705
0.008981 0.005829 0.003705
0.010895 0.005829 0.003705
0.013521 0.005829 0.003705
0.017124 0.005829 0.003705
0.022069 0.005829 0.003705
0.028854 0.005829 0.003705
0.038164 0.005829 0.003705
0.050940 0.005829 0.003705
0.068470 0.005829 0.003705
0.092525 0.005829 0.003705
0.125555 0.005829 0.003705
0.171998 0.005829 0.003705
0.238530 0.005829 0.003705
0.334906 0.005829 0.003705
0.476126 0.005829 0.003705
0.685549 0.005829 0.003705
1.000000 0.005829 0.003705
0.003705 0.006570 0.003705
0.003775 0.006570 0.003705
0.003845 0.006570 0.003705
0.003916 0.006570 0.003705
0.003986 0.006570 0.003705
0.004056 0.006570 0.003705
0.004137 0.006570 0.003705
0.004248 0.006570 0.003705
0.004401 0.006570 0.003705
0.004609 0.006570 0.003705
0.004896 0.006570 0.003705
0.005290 0.006570 0.003705
0.005829 0.006570 0.003705
0.006570 0.006570 0.003705
0.007586 0.006570 0.003705
0.008981 0.006570 0.003705
0.010895 0.006570 0.003705
0.013521 0.006570 0.003705
0.017124 0.006570 0.003705
0.022069 0.006570 0.003705
0.028854 0.006570 0.003705
0.038164 0.006570 0.003705
0.050940 0.006570 0.003705
0.068470 0.006570 0.003705
0.092525 0.006570 0.003705
0.125555 0.006570 0.003705
0.171998 0.006570 0.003705
0.238530 0.006570 0.003705
0.334906 0.006570 0.003705
0.476126 0.006570 0.003705
0.685549 0.006570 0.003705
1.000000 0.006570 0.003705
0.003705 0.007586 0.003705
0.003775 0.007586 0.003705
0.003845 0.007586 0.003705
0.003916 0.007586 0.003705
0.003986 0.007586 0.003705
0.004056 0.007586 0.003705
0.004137 0.007586 0.003705
0.004248 0.007586 0.003705
0.004401 0.007586 0.003705
0.004609 0.007586 0.003705
0.004896 0.007586 0.003705
0.005290 0.007586 0.003705
0.005829 0.007586 0.003705
0.006570 0.007586 0.003705
0.007586 0.007586 0.003705
0.008981 0.007586 0.003705
0.010895 0.007586 0.003705
0.013521 0.007586 0.003705
0.017124 0.007586 0.003705
0.022069 0.007586 0.003705
0.028854 0.007586 0.003705
0.038164 0.007586 0.003705
0.050940 0.007586 0.003705
0.068470 0.007586 0.003705
0.092525 0.007586 0.003705
0.125555 0.007586 0.003705
0.171998 0.007586 0.003705
0.238530 0.007586 0.003705
0.334906 0.007586 0.003705
0.476126 0.007586 0.003705
0.685549 0.007586 0.003705
1.000000 0.007586 0.003705
0.003705 0.008981 0.003705
0.003775 0.008981 0.003705
0.003845 0.008981 0.003705
0.003916 0.008981 0.003705
0.003986 0.008981 0.003705
0.004056 0.008981 0.003705
0.004137 0.008981 0.003705
0.004248 0.008981 0.003705
0.004401 0.008981 0.003705
0.004609 0.008981 0.003705
0.004896 0.008981 0.003705
0.005290 0.008981 0.003705
0.005829 0.008981 0.003705
0.006570 0.008981 0.003705
0.007586 0.008981 0.003705
0.008981 0.008981 0.003705
0.010895 0.008981 0.003705
0.013521 0.008981 0.003705
0.017124 0.008981 0.003705
0.022069 0.008981 0.003705
0.028854 0.008981 0.003705
0.038164 0.008981 0.003705
0.050940 0.008981 0.003705
0.068470 0.008981 0.003705
0.092525 0.008981 0.003705
0.125555 0.008981 0.003705
0.171998 0.008981 0.003705
0.238530 0.008981 0.003705
0.334906 0.008981 0.003705
0.476126 0.008981 0.003705
0.685549 0.008981 0.003705
1.000000 0.008981 0.003705
0.003705 0.010895 0.003705
0.003775 0.010895 0.003705
0.003845 0.010895 0.003705
0.003916 0.010895 0.003705
0.003986 0.010895 0.003705
0.004056 0.010895 0.003705
0.004137 0.010895 0.003705
0.004248 0.010895 0.003705
0.004401 0.010895 0.003705
0.004609 0.010895 0.003705
0.004896 0.010895 0.003705
0.005290 0.010895 0.003705
0.005829 0.010895 0.003705
0.006570 0.010895 0.003705
0.007586 0.010895 0.003705
0.008981 0.010895 0.003705
0.010895 0.010895 0.003705
0.013521 0.010895 0.003705
0.017124 0.010895 0.003705
0.022069 0.010895 0.003705
0.028854 0.010895 0.003705
0.038164 0.010895 0.003705
0.050940 0.010895 0.003705
0.068470 0.010895 0.003705
0.092525 0.010895 0.003705
0.125555 0.010895 0.003705
0.171998 0.010895 0.003705
0.238530 0.010895 0.003705
0.334906 0.010895 0.003705
0.476126 0.010895 0.003705
0.685549 0.010895 0.003705
1.000000 0.010895 0.003705
0.003705 0.013521 0.003705
0.003775 0.013521 0.003705
0.003845 0.013521 0.003705
0.003916 0.013521 0.003705
0.003986 0.013521 0.003705
0.004056 0.013521 0.003705
0.004137 0.013521 0.003705
0.004248 0.013521 0.003705
0.004401 0.013521 0.003705
0.004609 0.013521 0.003705
0.004896 0.013521 0.003705
0.005290 0.013521 0.003705
0.005829 0.013521 0.003705
0.006570 0.013521 0.003705
0.007586 0.013521 0.003705
0.008981 0.013521 0.003705
0.010895 0.013521 0.003705
0.013521 0.013521 0.003705
0.017124 0.013521 0.003705
0.022069 0.013521 0.003705
0.028854 0.013521 0.003705
0.038164 0.013521 0.003705
0.050940 0.013521 0.003705
0.068470 0.013521 0.003705
0.092525 0.013521 0.003705
0.125555 0.013521 0.003705
0.171998 0.013521 0.003705
0.238530 0.013521 0.003705
0.334906 0.013521 0.003705
0.476126 0.013521 0.003705
0.685549 0.013521 0.003705
1.000000 0.013521 0.003705
0.003705 0.017124 0.003705
0.003775 0.017124 0.003705
0.003845 0.017124 0.003705
0.003916 0.017124 0.003705
0.003986 0.017124 0.003705
0.004056 0.017124 0.003705
0.004137 0.017124 0.003705
0.004248 0.017124 0.003705
0.004401 0.017124 0.003705
0.004609 0.017124 0.003705
0.004896 0.017124 0.003705
0.005290 0.017124 0.003705
0.005829 0.017124 0.003705
0.006570 0.017124 0.003705
0.007586 0.017124 0.003705
0.008981 0.017124 0.003705
0.010895 0.017124 0.003705
0.013521 0.017124 0.003705
0.017124 0.017124 0.003705
0.022069 0.017124 0.003705
0.028854 0.017124 0.003705
0.038164 0.017124 0.003705
0.050940 0.017124 0.003705
0.068470 0.017124 0.003705
0.092525 0.017124 0.003705
0.125555 0.017124 0.003705
0.171998 0.017124 0.003705
0.238530 0.017124 0.003705
0.334906 0.017124 0.003705
0.476126 0.017124 0.003705
0.685549 0.017124 0.003705
1.000000 0.017124 0.003705
0.003705 0.022069 0.003705
0.003775 0.022069 0.003705
0.003845 0.022069 0.003705
0.003916 0.022069 0.003705
0.003986 0.022069 0.003705
0.004056 0.022069 0.003705
0.004137 0.022069 0.003705
0.004248 0.022069 0.003705
0.004401 0.022069 0.003705
0.004609 0.022069 0.003705
0.004896 0.022069 0.003705
0.005290 0.022069 0.003705
0.005829 0.022069 0.003705
0.006570 0.022069 0.003705
0.007586 0.022069 0.003705
0.008981 0.022069 0.003705
0.010895 0.022069 0.003705
0.013521 0.022069 0.003705
0.017124 0.022069 0.003705
0.022069 0.022069 0.003705
0.028854 0.022069 0.003705
0.038164 0.022069 0.003705
0.050940 0.022069 0.003705
0.068470 0.022069 0.003705
0.092525 0.022069 0.003705
0.125555 0.022069 0.003705
0.171998 0.022069 0.003705
0.238530 0.022069 0.003705
0.334906 0.022069 0.003705
0.476126 0.022069 0.003705
0.685549 0.022069 0.003705
1.000000 0.022069 0.003705
0.003705 0.028854 0.003705
0.003775 0.028854 0.003705
0.003845 0.028854 0.003705
0.003916 0.028854 0.003705
0.003986 0.028854 0.003705
0.004056 0.028854 0.003705
0.004137 0.028854 0.003705
0.004248 0.028854 0.003705
0.004401 0.028854 0.003705
0.004609 0.028854 0.003705
0.004896 0.028854 0.003705
0.005290 0.028854 0.003705
0.005829 0.028854 0.003705
0.006570 0.028854 0.003705
0.007586 0.028854 0.003705
0.008981 0.028854 0.003705
0.010895 0.028854 0.003705
0.013521 0.028854 0.003705
0.017124 0.028854 0.003705
0.022069 0.028854 0.003705
0.028854 0.028854 0.003705
0.038164 0.028854 0.003705
0.050940 0.028854 0.003705
0.068470 0.028854 0.003705
0.092525 0.028854 0.003705
0.125555 0.028854 0.003705
0.171998 0.028854 0.003705
0.238530 0.028854 0.003705
0.334906 0.028854 0.003705
0.476126 0.028854 0.003705
0.685549 0.028854 0.003705
1.000000 0.028854 0.003705
0.003705 0.038164 0.003705
0.003775 0.038164 0.003705
0.003845 0.038164 0.003705
0.003916 0.038164 0.003705
0.003986 0.038164 0.003705
0.004056 0.038164 0.003705
0.004137 0.038164 0.003705
0.004248 0.038164 0.003705
0.004401 0.038164 0.003705
0.004609 0.038164 0.003705
0.004896 0.038164 0.003705
0.005290 0.038164 0.003705
0.005829 0.038164 0.003705
0.006570 0.038164 0.003705
0.007586 0.038164 0.003705
0.008981 0.038164 0.003705
0.010895 0.038164 0.003705
0.013521 0.038164 0.003705
0.017124 0.038164 0.003705
0.022069 0.038164 0.003705
0.028854 0.038164 0.003705
0.038164 0.038164 0.003705
0.050940 0.038164 0.003705
0.068470 0.038164 0.003705
0.092525 0.038164 0.003705
0.125555 0.038164 0.003705
0.171998 0.038164 0.003705
0.238530 0.038164 0.003705
0.334906 0.038164 0.003705
0.476126 0.038164 0.003705
0.685549 0.038164 0.003705
1.000000 0.038164 0.003705
0.003705 0.050940 0.003705
0.003775 0.050940 0.003705
0.003845 0.050940 0.003705
0.003916 0.050940 0.003705
0.003986 0.050940 0.003705
0.004056 0.050940 0.003705
0.004137 0.050940 0.003705
0.004248 0.050940 0.003705
0.004401 0.050940 0.003705
0.004609 0.050940 0.003705
0.004896 0.050940 0.003705
0.005290 0.050940 0.003705
0.005829 0.050940 0.003705
0.006570 0.050940 0.003705
0.007586 0.050940 0.003705
0.008981 0.050940 0.003705
0.010895 0.050940 0.003705
0.013521 0.050940 0.003705
0.017124 0.050940 0.003705
0.022069 0.050940 0.003705
0.028854 0.050940 0.003705
0.038164 0.050940 0.003705
0.050940 0.050940 0.003705
0.068470 0.050940 0.003705
0.092525 0.050940 0.003705
0.125555 0.050940 0.003705
0.171998 0.050940 0.003705
0.238530 0.050940 0.003705
0.334906 0.050940 0.003705
0.476126 0.050940 0.003705
0.685549 0.050940 0.003705
1.000000 0.050940 0.003705
0.003705 0.068470 0.003705
0.003775 0.068470 0.003705
0.003845 0.068470 0.003705
0.003916 0.068470 0.003705
0.003986 0.068470 0.003705
0.004056 0.068470 0.003705
0.004137 0.068470 0.003705
0.004248 0.068470 0.003705
0.004401 0.068470 0.003705
0.004609 0.068470 0.003705
0.004896 0.068470 0.003705
0.005290 0.068470 0.003705
0.005829 0.068470 0.003705
0.006570 0.068470 0.003705
0.007586 0.068470 0.003705
0.008981 0.068470 0.003705
0.010895 0.068470 0.003705
0.013521 0.068470 0.003705
0.017124 0.068470 0.003705
0.022069 0.068470 0.003705
0.028854 0.068470 0.003705
0.038164 0.068470 0.003705
0.050940 0.068470 0.003705
0.068470 0.068470 0.003705
0.092525 0.068470 0.003705
0.125555 0.068470 0.003705
0.171998 0.068470 0.003705
0.238530 0.068470 0.003705
0.334906 0.068470 0.003705
0.476126 0.068470 0.003705
0.685549 0.068470 0.003705
1.000000 0.068470 0.003705
0.003705 0.092525 0.003705
0.003775 0.092525 0.003705
0.003845 0.092525 0.003705
0.003916 0.092525 0.003705
0.003986 0.092525 0.003705
0.004056 0.092525 0.003705
0.004137 0.092525 0.003705
0.004248 0.092525 0.003705
0.004401 0.092525 0.003705
0.004609 0.092525 0.003705
0.004896 0.092525 0.003705
0.005290 0.092525 0.003705
0.005829 0.092525 0.003705
0.006570 0.092525 0.003705
0.007586 0.092525 0.003705
0.008981 0.092525 0.003705
0.010895 0.092525 0.003705
0.013521 0.092525 0.003705
0.017124 0.092525 0.003705
0.022069 0.092525 0.003705
0.028854 0.092525 0.003705
0.038164 0.092525 0.003705
0.050940 0.092525 0.003705
0.068470 0.092525 0.003705
0.092525 0.092525 0.003705
0.125555 0.092525 0.003705
0.171998 0.092525 0.003705
0.238530 0.092525 0.003705
0.334906 0.092525 0.003705
0.476126 0.092525 0.003705
0.685549 0.092525 0.003705
1.000000 0.092525 0.003705
0.003705 0.125555 0.003705
0.003775 0.125555 0.003705
0.003845 0.125555 0.003705
0.003916 0.125555 0.003705
0.003986 0.125555 0.003705
0.004056 0.125555 0.003705
0.004137 0.125555 0.003705
0.004248 0.125555 0.003705
0.004401 0.125555 0.003705
0.004609 0.125555 0.003705
0.004896 0.125555 0.003705
0.005290 0.125555 0.003705
0.005829 0.125555 0.003705
0.006570 0.125555 0.003705
0.007586 0.125555 0.003705
0.008981 0.125555 0.003705
0.010895 0.125555 0.003705
0.013521 0.125555 0.003705
0.017124 0.125555 0.003705
0.022069 0.125555 0.003705
0.028854 0.125555 0.003705
0.038164 0.125555 0.003705
0.050940 0.125555 0.003705
0.068470 0.125555 0.003705
0.092525 0.125555 0.003705
0.125555 0.125555 0.003705
0.171998 0.125555 0.003705
0.238530 0.125555 0.003705
0.334906 0.125555 0.003705
0.476126 0.125555 0.003705
0.685549 0.125555 0.003705
1.000000 0.125555 0.003705
0.003705 0.171998 0.003705
0.003775 0.171998 0.003705
0.003845 0.171998 0.003705
0.003916 0.171998 0.003705
0.003986 0.171998 0.003705
0.004056 0.171998 0.003705
0.004137 0.171998 0.003705
0.004248 0.171998 0.003705
0.004401 0.171998 0.003705
0.004609 0.171998 0.003705
0.004896 0.171998 0.003705
0.005290 0.171998 0.003705
0.005829 0.171998 0.003705
0.006570 0.171998 0.003705
0.007586 0.171998 0.003705
0.008981 0.171998 0.003705
0.010895 0.171998 0.003705
0.013521 0.171998 0.003705
0.017124 0.171998 0.003705
0.022069 0.171998 0.003705
0.028854 0.171998 0.003705
0.038164 0.171998 0.003705
0.050940 0.171998 0.003705
0.068470 0.171998 0.003705
0.092525 0.171998 0.003705
0.125555 0.171998 0.003705
0.171998 0.171998 0.003705
0.238530 0.171998 0.003705
0.334906 0.171998 0.003705
0.476126 0.171998 0.003705
0.685549 0.171998 0.003705
1.000000 0.171998 0.003705
0.003705 0.238530 0.003705
0.003775 0.238530 0.003705
0.003845 0.238530 0.003705
0.003916 0.238530 0.003705
0.003986 0.238530 0.003705
0.004056 0.238530 0.003705
0.004137 0.238530 0.003705
0.004248 0.238530 0.003705
0.004401 0.238530 0.003705
0.004609 0.238530 0.003705
0.004896 0.238530 0.003705
0.005290 0.238530 0.003705
0.005829 0.238530 0.003705
0.006570 0.238530 0.003705
0.007586 0.238530 0.003705
0.008981 0.238530 0.003705
0.010895 0.238530 0.003705
0.013521 0.238530 0.003705
0.017124 0.238530 0.003705
0.022069 0.238530 0.003705
0.028854 0.238530 0.003705
