.nuke/nuke.LUT/logC-2-linear_extended/AlexaV3_EI0500_LogC2Linear_EE_nuke3d.cube
# Alexa conversion LUT, logc2lin. Full in/full out.
# created by alexalutconv (2.07)
LUT_3D_SIZE 32
0.003158 0.003158 0.003158
0.003419 0.003158 0.003158
0.003679 0.003158 0.003158
0.003939 0.003158 0.003158
0.004200 0.003158 0.003158
0.004474 0.003158 0.003158
0.004832 0.003158 0.003158
0.005313 0.003158 0.003158
0.005958 0.003158 0.003158
0.006821 0.003158 0.003158
0.007979 0.003158 0.003158
0.009531 0.003158 0.003158
0.011611 0.003158 0.003158
0.014399 0.003158 0.003158
0.018136 0.003158 0.003158
0.023144 0.003158 0.003158
0.029858 0.003158 0.003158
0.038856 0.003158 0.003158
0.050915 0.003158 0.003158
0.067081 0.003158 0.003158
0.088747 0.003158 0.003158
0.117788 0.003158 0.003158
0.156712 0.003158 0.003158
0.208884 0.003158 0.003158
0.278812 0.003158 0.003158
0.372540 0.003158 0.003158
0.498167 0.003158 0.003158
0.666551 0.003158 0.003158
0.892243 0.003158 0.003158
1.000000 0.003158 0.003158
1.000000 0.003158 0.003158
1.000000 0.003158 0.003158
0.003158 0.003419 0.003158
0.003419 0.003419 0.003158
0.003679 0.003419 0.003158
0.003939 0.003419 0.003158
0.004200 0.003419 0.003158
0.004474 0.003419 0.003158
0.004832 0.003419 0.003158
0.005313 0.003419 0.003158
0.005958 0.003419 0.003158
0.006821 0.003419 0.003158
0.007979 0.003419 0.003158
0.009531 0.003419 0.003158
0.011611 0.003419 0.003158
0.014399 0.003419 0.003158
0.018136 0.003419 0.003158
0.023144 0.003419 0.003158
0.029858 0.003419 0.003158
0.038856 0.003419 0.003158
0.050915 0.003419 0.003158
0.067081 0.003419 0.003158
0.088747 0.003419 0.003158
0.117788 0.003419 0.003158
0.156712 0.003419 0.003158
0.208884 0.003419 0.003158
0.278812 0.003419 0.003158
0.372540 0.003419 0.003158
0.498167 0.003419 0.003158
0.666551 0.003419 0.003158
0.892243 0.003419 0.003158
1.000000 0.003419 0.003158
1.000000 0.003419 0.003158
1.000000 0.003419 0.003158
0.003158 0.003679 0.003158
0.003419 0.003679 0.003158
0.003679 0.003679 0.003158
0.003939 0.003679 0.003158
0.004200 0.003679 0.003158
0.004474 0.003679 0.003158
0.004832 0.003679 0.003158
0.005313 0.003679 0.003158
0.005958 0.003679 0.003158
0.006821 0.003679 0.003158
0.007979 0.003679 0.003158
0.009531 0.003679 0.003158
0.011611 0.003679 0.003158
0.014399 0.003679 0.003158
0.018136 0.003679 0.003158
0.023144 0.003679 0.003158
0.029858 0.003679 0.003158
0.038856 0.003679 0.003158
0.050915 0.003679 0.003158
0.067081 0.003679 0.003158
0.088747 0.003679 0.003158
0.117788 0.003679 0.003158
0.156712 0.003679 0.003158
0.208884 0.003679 0.003158
0.278812 0.003679 0.003158
0.372540 0.003679 0.003158
0.498167 0.003679 0.003158
0.666551 0.003679 0.003158
0.892243 0.003679 0.003158
1.000000 0.003679 0.003158
1.000000 0.003679 0.003158
1.000000 0.003679 0.003158
0.003158 0.003939 0.003158
0.003419 0.003939 0.003158
0.003679 0.003939 0.003158
0.003939 0.003939 0.003158
0.004200 0.003939 0.003158
0.004474 0.003939 0.003158
0.004832 0.003939 0.003158
0.005313 0.003939 0.003158
0.005958 0.003939 0.003158
0.006821 0.003939 0.003158
0.007979 0.003939 0.003158
0.009531 0.003939 0.003158
0.011611 0.003939 0.003158
0.014399 0.003939 0.003158
0.018136 0.003939 0.003158
0.023144 0.003939 0.003158
0.029858 0.003939 0.003158
0.038856 0.003939 0.003158
0.050915 0.003939 0.003158
0.067081 0.003939 0.003158
0.088747 0.003939 0.003158
0.117788 0.003939 0.003158
0.156712 0.003939 0.003158
0.208884 0.003939 0.003158
0.278812 0.003939 0.003158
0.372540 0.003939 0.003158
0.498167 0.003939 0.003158
0.666551 0.003939 0.003158
0.892243 0.003939 0.003158
1.000000 0.003939 0.003158
1.000000 0.003939 0.003158
1.000000 0.003939 0.003158
0.003158 0.004200 0.003158
0.003419 0.004200 0.003158
0.003679 0.004200 0.003158
0.003939 0.004200 0.003158
0.004200 0.004200 0.003158
0.004474 0.004200 0.003158
0.004832 0.004200 0.003158
0.005313 0.004200 0.003158
0.005958 0.004200 0.003158
0.006821 0.004200 0.003158
0.007979 0.004200 0.003158
0.009531 0.004200 0.003158
0.011611 0.004200 0.003158
0.014399 0.004200 0.003158
0.018136 0.004200 0.003158
0.023144 0.004200 0.003158
0.029858 0.004200 0.003158
0.038856 0.004200 0.003158
0.050915 0.004200 0.003158
0.067081 0.004200 0.003158
0.088747 0.004200 0.003158
0.117788 0.004200 0.003158
0.156712 0.004200 0.003158
0.208884 0.004200 0.003158
0.278812 0.004200 0.003158
0.372540 0.004200 0.003158
0.498167 0.004200 0.003158
0.666551 0.004200 0.003158
0.892243 0.004200 0.003158
1.000000 0.004200 0.003158
1.000000 0.004200 0.003158
1.000000 0.004200 0.003158
0.003158 0.004474 0.003158
0.003419 0.004474 0.003158
0.003679 0.004474 0.003158
0.003939 0.004474 0.003158
0.004200 0.004474 0.003158
0.004474 0.004474 0.003158
0.004832 0.004474 0.003158
0.005313 0.004474 0.003158
0.005958 0.004474 0.003158
0.006821 0.004474 0.003158
0.007979 0.004474 0.003158
0.009531 0.004474 0.003158
0.011611 0.004474 0.003158
0.014399 0.004474 0.003158
0.018136 0.004474 0.003158
0.023144 0.004474 0.003158
0.029858 0.004474 0.003158
0.038856 0.004474 0.003158
0.050915 0.004474 0.003158
0.067081 0.004474 0.003158
0.088747 0.004474 0.003158
0.117788 0.004474 0.003158
0.156712 0.004474 0.003158
0.208884 0.004474 0.003158
0.278812 0.004474 0.003158
0.372540 0.004474 0.003158
0.498167 0.004474 0.003158
0.666551 0.004474 0.003158
0.892243 0.004474 0.003158
1.000000 0.004474 0.003158
1.000000 0.004474 0.003158
1.000000 0.004474 0.003158
0.003158 0.004832 0.003158
0.003419 0.004832 0.003158
0.003679 0.004832 0.003158
0.003939 0.004832 0.003158
0.004200 0.004832 0.003158
0.004474 0.004832 0.003158
0.004832 0.004832 0.003158
0.005313 0.004832 0.003158
0.005958 0.004832 0.003158
0.006821 0.004832 0.003158
0.007979 0.004832 0.003158
0.009531 0.004832 0.003158
0.011611 0.004832 0.003158
0.014399 0.004832 0.003158
0.018136 0.004832 0.003158
0.023144 0.004832 0.003158
0.029858 0.004832 0.003158
0.038856 0.004832 0.003158
0.050915 0.004832 0.003158
0.067081 0.004832 0.003158
0.088747 0.004832 0.003158
0.117788 0.004832 0.003158
0.156712 0.004832 0.003158
0.208884 0.004832 0.003158
0.278812 0.004832 0.003158
0.372540 0.004832 0.003158
0.498167 0.004832 0.003158
0.666551 0.004832 0.003158
0.892243 0.004832 0.003158
1.000000 0.004832 0.003158
1.000000 0.004832 0.003158
1.000000 0.004832 0.003158
0.003158 0.005313 0.003158
0.003419 0.005313 0.003158
0.003679 0.005313 0.003158
0.003939 0.005313 0.003158
0.004200 0.005313 0.003158
0.004474 0.005313 0.003158
0.004832 0.005313 0.003158
0.005313 0.005313 0.003158
0.005958 0.005313 0.003158
0.006821 0.005313 0.003158
0.007979 0.005313 0.003158
0.009531 0.005313 0.003158
0.011611 0.005313 0.003158
0.014399 0.005313 0.003158
0.018136 0.005313 0.003158
0.023144 0.005313 0.003158
0.029858 0.005313 0.003158
0.038856 0.005313 0.003158
0.050915 0.005313 0.003158
0.067081 0.005313 0.003158
0.088747 0.005313 0.003158
0.117788 0.005313 0.003158
0.156712 0.005313 0.003158
0.208884 0.005313 0.003158
0.278812 0.005313 0.003158
0.372540 0.005313 0.003158
0.498167 0.005313 0.003158
0.666551 0.005313 0.003158
0.892243 0.005313 0.003158
1.000000 0.005313 0.003158
1.000000 0.005313 0.003158
1.000000 0.005313 0.003158
0.003158 0.005958 0.003158
0.003419 0.005958 0.003158
0.003679 0.005958 0.003158
0.003939 0.005958 0.003158
0.004200 0.005958 0.003158
0.004474 0.005958 0.003158
0.004832 0.005958 0.003158
0.005313 0.005958 0.003158
0.005958 0.005958 0.003158
0.006821 0.005958 0.003158
0.007979 0.005958 0.003158
0.009531 0.005958 0.003158
0.011611 0.005958 0.003158
0.014399 0.005958 0.003158
0.018136 0.005958 0.003158
0.023144 0.005958 0.003158
0.029858 0.005958 0.003158
0.038856 0.005958 0.003158
0.050915 0.005958 0.003158
0.067081 0.005958 0.003158
0.088747 0.005958 0.003158
0.117788 0.005958 0.003158
0.156712 0.005958 0.003158
0.208884 0.005958 0.003158
0.278812 0.005958 0.003158
0.372540 0.005958 0.003158
0.498167 0.005958 0.003158
0.666551 0.005958 0.003158
0.892243 0.005958 0.003158
1.000000 0.005958 0.003158
1.000000 0.005958 0.003158
1.000000 0.005958 0.003158
0.003158 0.006821 0.003158
0.003419 0.006821 0.003158
0.003679 0.006821 0.003158
0.003939 0.006821 0.003158
0.004200 0.006821 0.003158
0.004474 0.006821 0.003158
0.004832 0.006821 0.003158
0.005313 0.006821 0.003158
0.005958 0.006821 0.003158
0.006821 0.006821 0.003158
0.007979 0.006821 0.003158
0.009531 0.006821 0.003158
0.011611 0.006821 0.003158
0.014399 0.006821 0.003158
0.018136 0.006821 0.003158
0.023144 0.006821 0.003158
0.029858 0.006821 0.003158
0.038856 0.006821 0.003158
0.050915 0.006821 0.003158
0.067081 0.006821 0.003158
0.088747 0.006821 0.003158
0.117788 0.006821 0.003158
0.156712 0.006821 0.003158
0.208884 0.006821 0.003158
0.278812 0.006821 0.003158
0.372540 0.006821 0.003158
0.498167 0.006821 0.003158
0.666551 0.006821 0.003158
0.892243 0.006821 0.003158
1.000000 0.006821 0.003158
1.000000 0.006821 0.003158
1.000000 0.006821 0.003158
0.003158 0.007979 0.003158
0.003419 0.007979 0.003158
0.003679 0.007979 0.003158
0.003939 0.007979 0.003158
0.004200 0.007979 0.003158
0.004474 0.007979 0.003158
0.004832 0.007979 0.003158
0.005313 0.007979 0.003158
0.005958 0.007979 0.003158
0.006821 0.007979 0.003158
0.007979 0.007979 0.003158
0.009531 0.007979 0.003158
0.011611 0.007979 0.003158
0.014399 0.007979 0.003158
0.018136 0.007979 0.003158
0.023144 0.007979 0.003158
0.029858 0.007979 0.003158
0.038856 0.007979 0.003158
0.050915 0.007979 0.003158
0.067081 0.007979 0.003158
0.088747 0.007979 0.003158
0.117788 0.007979 0.003158
0.156712 0.007979 0.003158
0.208884 0.007979 0.003158
0.278812 0.007979 0.003158
0.372540 0.007979 0.003158
0.498167 0.007979 0.003158
0.666551 0.007979 0.003158
0.892243 0.007979 0.003158
1.000000 0.007979 0.003158
1.000000 0.007979 0.003158
1.000000 0.007979 0.003158
0.003158 0.009531 0.003158
0.003419 0.009531 0.003158
0.003679 0.009531 0.003158
0.003939 0.009531 0.003158
0.004200 0.009531 0.003158
0.004474 0.009531 0.003158
0.004832 0.009531 0.003158
0.005313 0.009531 0.003158
0.005958 0.009531 0.003158
0.006821 0.009531 0.003158
0.007979 0.009531 0.003158
0.009531 0.009531 0.003158
0.011611 0.009531 0.003158
0.014399 0.009531 0.003158
0.018136 0.009531 0.003158
0.023144 0.009531 0.003158
0.029858 0.009531 0.003158
0.038856 0.009531 0.003158
0.050915 0.009531 0.003158
0.067081 0.009531 0.003158
0.088747 0.009531 0.003158
0.117788 0.009531 0.003158
0.156712 0.009531 0.003158
0.208884 0.009531 0.003158
0.278812 0.009531 0.003158
0.372540 0.009531 0.003158
0.498167 0.009531 0.003158
0.666551 0.009531 0.003158
0.892243 0.009531 0.003158
1.000000 0.009531 0.003158
1.000000 0.009531 0.003158
1.000000 0.009531 0.003158
0.003158 0.011611 0.003158
0.003419 0.011611 0.003158
0.003679 0.011611 0.003158
0.003939 0.011611 0.003158
0.004200 0.011611 0.003158
0.004474 0.011611 0.003158
0.004832 0.011611 0.003158
0.005313 0.011611 0.003158
0.005958 0.011611 0.003158
0.006821 0.011611 0.003158
0.007979 0.011611 0.003158
0.009531 0.011611 0.003158
0.011611 0.011611 0.003158
0.014399 0.011611 0.003158
0.018136 0.011611 0.003158
0.023144 0.011611 0.003158
0.029858 0.011611 0.003158
0.038856 0.011611 0.003158
0.050915 0.011611 0.003158
0.067081 0.011611 0.003158
0.088747 0.011611 0.003158
0.117788 0.011611 0.003158
0.156712 0.011611 0.003158
0.208884 0.011611 0.003158
0.278812 0.011611 0.003158
0.372540 0.011611 0.003158
0.498167 0.011611 0.003158
0.666551 0.011611 0.003158
0.892243 0.011611 0.003158
1.000000 0.011611 0.003158
1.000000 0.011611 0.003158
1.000000 0.011611 0.003158
0.003158 0.014399 0.003158
0.003419 0.014399 0.003158
0.003679 0.014399 0.003158
0.003939 0.014399 0.003158
0.004200 0.014399 0.003158
0.004474 0.014399 0.003158
0.004832 0.014399 0.003158
0.005313 0.014399 0.003158
0.005958 0.014399 0.003158
0.006821 0.014399 0.003158
0.007979 0.014399 0.003158
0.009531 0.014399 0.003158
0.011611 0.014399 0.003158
0.014399 0.014399 0.003158
0.018136 0.014399 0.003158
0.023144 0.014399 0.003158
0.029858 0.014399 0.003158
0.038856 0.014399 0.003158
0.050915 0.014399 0.003158
0.067081 0.014399 0.003158
0.088747 0.014399 0.003158
0.117788 0.014399 0.003158
0.156712 0.014399 0.003158
0.208884 0.014399 0.003158
0.278812 0.014399 0.003158
0.372540 0.014399 0.003158
0.498167 0.014399 0.003158
0.666551 0.014399 0.003158
0.892243 0.014399 0.003158
1.000000 0.014399 0.003158
1.000000 0.014399 0.003158
1.000000 0.014399 0.003158
0.003158 0.018136 0.003158
0.003419 0.018136 0.003158
0.003679 0.018136 0.003158
0.003939 0.018136 0.003158
0.004200 0.018136 0.003158
0.004474 0.018136 0.003158
0.004832 0.018136 0.003158
0.005313 0.018136 0.003158
0.005958 0.018136 0.003158
0.006821 0.018136 0.003158
0.007979 0.018136 0.003158
0.009531 0.018136 0.003158
0.011611 0.018136 0.003158
0.014399 0.018136 0.003158
0.018136 0.018136 0.003158
0.023144 0.018136 0.003158
0.029858 0.018136 0.003158
0.038856 0.018136 0.003158
0.050915 0.018136 0.003158
0.067081 0.018136 0.003158
0.088747 0.018136 0.003158
0.117788 0.018136 0.003158
0.156712 0.018136 0.003158
0.208884 0.018136 0.003158
0.278812 0.018136 0.003158
0.372540 0.018136 0.003158
0.498167 0.018136 0.003158
0.666551 0.018136 0.003158
0.892243 0.018136 0.003158
1.000000 0.018136 0.003158
1.000000 0.018136 0.003158
1.000000 0.018136 0.003158
0.003158 0.023144 0.003158
0.003419 0.023144 0.003158
0.003679 0.023144 0.003158
0.003939 0.023144 0.003158
0.004200 0.023144 0.003158
0.004474 0.023144 0.003158
0.004832 0.023144 0.003158
0.005313 0.023144 0.003158
0.005958 0.023144 0.003158
0.006821 0.023144 0.003158
0.007979 0.023144 0.003158
0.009531 0.023144 0.003158
0.011611 0.023144 0.003158
0.014399 0.023144 0.003158
0.018136 0.023144 0.003158
0.023144 0.023144 0.003158
0.029858 0.023144 0.003158
0.038856 0.023144 0.003158
0.050915 0.023144 0.003158
0.067081 0.023144 0.003158
0.088747 0.023144 0.003158
0.117788 0.023144 0.003158
0.156712 0.023144 0.003158
0.208884 0.023144 0.003158
0.278812 0.023144 0.003158
0.372540 0.023144 0.003158
0.498167 0.023144 0.003158
0.666551 0.023144 0.003158
0.892243 0.023144 0.003158
1.000000 0.023144 0.003158
1.000000 0.023144 0.003158
1.000000 0.023144 0.003158
0.003158 0.029858 0.003158
0.003419 0.029858 0.003158
0.003679 0.029858 0.003158
0.003939 0.029858 0.003158
0.004200 0.029858 0.003158
0.004474 0.029858 0.003158
0.004832 0.029858 0.003158
0.005313 0.029858 0.003158
0.005958 0.029858 0.003158
0.006821 0.029858 0.003158
0.007979 0.029858 0.003158
0.009531 0.029858 0.003158
0.011611 0.029858 0.003158
0.014399 0.029858 0.003158
0.018136 0.029858 0.003158
0.023144 0.029858 0.003158
0.029858 0.029858 0.003158
0.038856 0.029858 0.003158
0.050915 0.029858 0.003158
0.067081 0.029858 0.003158
0.088747 0.029858 0.003158
0.117788 0.029858 0.003158
0.156712 0.029858 0.003158
0.208884 0.029858 0.003158
0.278812 0.029858 0.003158
0.372540 0.029858 0.003158
0.498167 0.029858 0.003158
0.666551 0.029858 0.003158
0.892243 0.029858 0.003158
1.000000 0.029858 0.003158
1.000000 0.029858 0.003158
1.000000 0.029858 0.003158
0.003158 0.038856 0.003158
0.003419 0.038856 0.003158
0.003679 0.038856 0.003158
0.003939 0.038856 0.003158
0.004200 0.038856 0.003158
0.004474 0.038856 0.003158
0.004832 0.038856 0.003158
0.005313 0.038856 0.003158
0.005958 0.038856 0.003158
0.006821 0.038856 0.003158
0.007979 0.038856 0.003158
0.009531 0.038856 0.003158
0.011611 0.038856 0.003158
0.014399 0.038856 0.003158
0.018136 0.038856 0.003158
0.023144 0.038856 0.003158
0.029858 0.038856 0.003158
0.038856 0.038856 0.003158
0.050915 0.038856 0.003158
0.067081 0.038856 0.003158
0.088747 0.038856 0.003158
0.117788 0.038856 0.003158
0.156712 0.038856 0.003158
0.208884 0.038856 0.003158
0.278812 0.038856 0.003158
0.372540 0.038856 0.003158
0.498167 0.038856 0.003158
0.666551 0.038856 0.003158
0.892243 0.038856 0.003158
1.000000 0.038856 0.003158
1.000000 0.038856 0.003158
1.000000 0.038856 0.003158
0.003158 0.050915 0.003158
0.003419 0.050915 0.003158
0.003679 0.050915 0.003158
0.003939 0.050915 0.003158
0.004200 0.050915 0.003158
0.004474 0.050915 0.003158
0.004832 0.050915 0.003158
0.005313 0.050915 0.003158
0.005958 0.050915 0.003158
0.006821 0.050915 0.003158
0.007979 0.050915 0.003158
0.009531 0.050915 0.003158
0.011611 0.050915 0.003158
0.014399 0.050915 0.003158
0.018136 0.050915 0.003158
0.023144 0.050915 0.003158
0.029858 0.050915 0.003158
0.038856 0.050915 0.003158
0.050915 0.050915 0.003158
0.067081 0.050915 0.003158
0.088747 0.050915 0.003158
0.117788 0.050915 0.003158
0.156712 0.050915 0.003158
0.208884 0.050915 0.003158
0.278812 0.050915 0.003158
0.372540 0.050915 0.003158
0.498167 0.050915 0.003158
0.666551 0.050915 0.003158
0.892243 0.050915 0.003158
1.000000 0.050915 0.003158
1.000000 0.050915 0.003158
1.000000 0.050915 0.003158
0.003158 0.067081 0.003158
0.003419 0.067081 0.003158
0.003679 0.067081 0.003158
0.003939 0.067081 0.003158
0.004200 0.067081 0.003158
0.004474 0.067081 0.003158
0.004832 0.067081 0.003158
0.005313 0.067081 0.003158
0.005958 0.067081 0.003158
0.006821 0.067081 0.003158
0.007979 0.067081 0.003158
0.009531 0.067081 0.003158
0.011611 0.067081 0.003158
0.014399 0.067081 0.003158
0.018136 0.067081 0.003158
0.023144 0.067081 0.003158
0.029858 0.067081 0.003158
0.038856 0.067081 0.003158
0.050915 0.067081 0.003158
0.067081 0.067081 0.003158
0.088747 0.067081 0.003158
0.117788 0.067081 0.003158
0.156712 0.067081 0.003158
0.208884 0.067081 0.003158
0.278812 0.067081 0.003158
0.372540 0.067081 0.003158
0.498167 0.067081 0.003158
0.666551 0.067081 0.003158
0.892243 0.067081 0.003158
1.000000 0.067081 0.003158
1.000000 0.067081 0.003158
1.000000 0.067081 0.003158
0.003158 0.088747 0.003158
0.003419 0.088747 0.003158
0.003679 0.088747 0.003158
0.003939 0.088747 0.003158
0.004200 0.088747 0.003158
0.004474 0.088747 0.003158
0.004832 0.088747 0.003158
0.005313 0.088747 0.003158
0.005958 0.088747 0.003158
0.006821 0.088747 0.003158
0.007979 0.088747 0.003158
0.009531 0.088747 0.003158
0.011611 0.088747 0.003158
0.014399 0.088747 0.003158
0.018136 0.088747 0.003158
0.023144 0.088747 0.003158
0.029858 0.088747 0.003158
0.038856 0.088747 0.003158
0.050915 0.088747 0.003158
0.067081 0.088747 0.003158
0.088747 0.088747 0.003158
0.117788 0.088747 0.003158
0.156712 0.088747 0.003158
0.208884 0.088747 0.003158
0.278812 0.088747 0.003158
0.372540 0.088747 0.003158
0.498167 0.088747 0.003158
0.666551 0.088747 0.003158
0.892243 0.088747 0.003158
1.000000 0.088747 0.003158
1.000000 0.088747 0.003158
1.000000 0.088747 0.003158
0.003158 0.117788 0.003158
0.003419 0.117788 0.003158
0.003679 0.117788 0.003158
0.003939 0.117788 0.003158
0.004200 0.117788 0.003158
0.004474 0.117788 0.003158
0.004832 0.117788 0.003158
0.005313 0.117788 0.003158
0.005958 0.117788 0.003158
0.006821 0.117788 0.003158
0.007979 0.117788 0.003158
0.009531 0.117788 0.003158
0.011611 0.117788 0.003158
0.014399 0.117788 0.003158
0.018136 0.117788 0.003158
0.023144 0.117788 0.003158
0.029858 0.117788 0.003158
0.038856 0.117788 0.003158
0.050915 0.117788 0.003158
0.067081 0.117788 0.003158
0.088747 0.117788 0.003158
0.117788 0.117788 0.003158
0.156712 0.117788 0.003158
0.208884 0.117788 0.003158
0.278812 0.117788 0.003158
0.372540 0.117788 0.003158
0.498167 0.117788 0.003158
0.666551 0.117788 0.003158
0.892243 0.117788 0.003158
1.000000 0.117788 0.003158
1.000000 0.117788 0.003158
1.000000 0.117788 0.003158
0.003158 0.156712 0.003158
0.003419 0.156712 0.003158
0.003679 0.156712 0.003158
0.003939 0.156712 0.003158
0.004200 0.156712 0.003158
0.004474 0.156712 0.003158
0.004832 0.156712 0.003158
0.005313 0.156712 0.003158
0.005958 0.156712 0.003158
0.006821 0.156712 0.003158
0.007979 0.156712 0.003158
0.009531 0.156712 0.003158
0.011611 0.156712 0.003158
0.014399 0.156712 0.003158
0.018136 0.156712 0.003158
0.023144 0.156712 0.003158
0.029858 0.156712 0.003158
0.038856 0.156712 0.003158
0.050915 0.156712 0.003158
0.067081 0.156712 0.003158
0.088747 0.156712 0.003158
0.117788 0.156712 0.003158
0.156712 0.156712 0.003158
0.208884 0.156712 0.003158
0.278812 0.156712 0.003158
0.372540 0.156712 0.003158
0.498167 0.156712 0.003158
0.666551 0.156712 0.003158
0.892243 0.156712 0.003158
1.000000 0.156712 0.003158
1.000000 0.156712 0.003158
1.000000 0.156712 0.003158
0.003158 0.208884 0.003158
0.003419 0.208884 0.003158
0.003679 0.208884 0.003158
0.003939 0.208884 0.003158
0.004200 0.208884 0.003158
0.004474 0.208884 0.003158
0.004832 0.208884 0.003158
0.005313 0.208884 0.003158
0.005958 0.208884 0.003158
0.006821 0.208884 0.003158
0.007979 0.208884 0.003158
0.009531 0.208884 0.003158
0.011611 0.208884 0.003158
0.014399 0.208884 0.003158
0.018136 0.208884 0.003158
0.023144 0.208884 0.003158
0.029858 0.208884 0.003158
0.038856 0.208884 0.003158
0.050915 0.208884 0.003158
0.067081 0.208884 0.003158
0.088747 0.208884 0.003158
0.117788 0.208884 0.003158
0.156712 0.208884 0.003158
0.208884 0.208884 0.003158
0.278812 0.208884 0.003158
0.372540 0.208884 0.003158
0.498167 0.208884 0.003158
0.666551 0.208884 0.003158
0.892243 0.208884 0.003158
1.000000 0.208884 0.003158
1.000000 0.208884 0.003158
1.000000 0.208884 0.003158
0.003158 0.278812 0.003158
0.003419 0.278812 0.003158
0.003679 0.278812 0.003158
0.003939 0.278812 0.003158
0.004200 0.278812 0.003158
0.004474 0.278812 0.003158
0.004832 0.278812 0.003158
0.005313 0.278812 0.003158
0.005958 0.278812 0.003158
0.006821 0.278812 0.003158
0.007979 0.278812 0.003158
0.009531 0.278812 0.003158
0.011611 0.278812 0.003158
0.014399 0.278812 0.003158
0.018136 0.278812 0.003158
0.023144 0.278812 0.003158
0.029858 0.278812 0.003158
0.038856 0.278812 0.003158
0.050915 0.278812 0.003158
0.067081 0.278812 0.003158
0.088747 0.278812 0.003158
0.117788 0.278812 0.003158
0.156712 0.278812 0.003158
0.208884 0.278812 0.003158
0.278812 0.278812 0.003158
0.372540 0.278812 0.003158
0.498167 0.278812 0.003158
0.666551 0.278812 0.003158
0.892243 0.278812 0.003158
1.000000 0.278812 0.003158
1.000000 0.278812 0.003158
1.000000 0.278812 0.003158
0.003158 0.372540 0.003158
0.003419 0.372540 0.003158
0.003679 0.372540 0.003158
0.003939 0.372540 0.003158
0.004200 0.372540 0.003158
0.004474 0.372540 0.003158
0.004832 0.372540 0.003158
0.005313 0.372540 0.003158
0.005958 0.372540 0.003158
0.006821 0.372540 0.003158
0.007979 0.372540 0.003158
0.009531 0.372540 0.003158
0.011611 0.372540 0.003158
0.014399 0.372540 0.003158
0.018136 0.372540 0.003158
0.023144 0.372540 0.003158
0.029858 0.372540 0.003158
0.038856 0.372540 0.003158
0.050915 0.372540 0.003158
0.067081 0.372540 0.003158
0.088747 0.372540 0.003158
0.117788 0.372540 0.003158
0.156712 0.372540 0.003158
0.208884 0.372540 0.003158
0.278812 0.372540 0.003158
0.372540 0.372540 0.003158
0.498167 0.372540 0.003158
0.666551 0.372540 0.003158
0.892243 0.372540 0.003158
1.000000 0.372540 0.003158
1.000000 0.372540 0.003158
1.000000 0.372540 0.003158
0.003158 0.498167 0.003158
0.003419 0.498167 0.003158
0.003679 0.498167 0.003158
0.003939 0.498167 0.003158
0.004200 0.498167 0.003158
0.004474 0.498167 0.003158
0.004832 0.498167 0.003158
0.005313 0.498167 0.003158
0.005958 0.498167 0.003158
0.006821 0.498167 0.003158
0.007979 0.498167 0.003158
0.009531 0.498167 0.003158
0.011611 0.498167 0.003158
0.014399 0.498167 0.003158
0.018136 0.498167 0.003158
0.023144 0.498167 0.003158
0.029858 0.498167 0.003158
0.038856 0.498167 0.003158
0.050915 0.498167 0.003158
0.067081 0.498167 0.003158
0.088747 0.498167 0.003158
0.117788 0.498167 0.003158
0.156712 0.498167 0.003158
0.208884 0.498167 0.003158
0.278812 0.498167 0.003158
0.372540 0.498167 0.003158
0.498167 0.498167 0.003158
0.666551 0.498167 0.003158
0.892243 0.498167 0.003158
1.000000 0.498167 0.003158
1.000000 0.498167 0.003158
1.000000 0.498167 0.003158
0.003158 0.666551 0.003158
0.003419 0.666551 0.003158
0.003679 0.666551 0.003158
0.003939 0.666551 0.003158
0.004200 0.666551 0.003158
0.004474 0.666551 0.003158
0.004832 0.666551 0.003158
0.005313 0.666551 0.003158
0.005958 0.666551 0.003158
0.006821 0.666551 0.003158
0.007979 0.666551 0.003158
0.009531 0.666551 0.003158
0.011611 0.666551 0.003158
0.014399 0.666551 0.003158
0.018136 0.666551 0.003158
0.023144 0.666551 0.003158
0.029858 0.666551 0.003158
0.038856 0.666551 0.003158
0.050915 0.666551 0.003158
0.067081 0.666551 0.003158
0.088747 0.666551 0.003158
