.nuke/nuke.LUT/logC-2-linear_extended/AlexaV3_EI1280_LogC2Linear_EE_nuke3d.cube
# Alexa conversion LUT, logc2lin. Full in/full out.
# created by alexalutconv (2.07)
LUT_3D_SIZE 32
0.003599 0.003599 0.003599
0.003706 0.003599 0.003599
0.003813 0.003599 0.003599
0.003920 0.003599 0.003599
0.004027 0.003599 0.003599
0.004135 0.003599 0.003599
0.004266 0.003599 0.003599
0.004444 0.003599 0.003599
0.004687 0.003599 0.003599
0.005017 0.003599 0.003599
0.005467 0.003599 0.003599
0.006079 0.003599 0.003599
0.006912 0.003599 0.003599
0.008047 0.003599 0.003599
0.009591 0.003599 0.003599
0.011694 0.003599 0.003599
0.014557 0.003599 0.003599
0.018453 0.003599 0.003599
0.023757 0.003599 0.003599
0.030977 0.003599 0.003599
0.040807 0.003599 0.003599
0.054188 0.003599 0.003599
0.072403 0.003599 0.003599
0.097200 0.003599 0.003599
0.130957 0.003599 0.003599
0.176909 0.003599 0.003599
0.239465 0.003599 0.003599
0.324623 0.003599 0.003599
0.440549 0.003599 0.003599
0.598359 0.003599 0.003599
0.813189 0.003599 0.003599
1.000000 0.003599 0.003599
0.003599 0.003706 0.003599
0.003706 0.003706 0.003599
0.003813 0.003706 0.003599
0.003920 0.003706 0.003599
0.004027 0.003706 0.003599
0.004135 0.003706 0.003599
0.004266 0.003706 0.003599
0.004444 0.003706 0.003599
0.004687 0.003706 0.003599
0.005017 0.003706 0.003599
0.005467 0.003706 0.003599
0.006079 0.003706 0.003599
0.006912 0.003706 0.003599
0.008047 0.003706 0.003599
0.009591 0.003706 0.003599
0.011694 0.003706 0.003599
0.014557 0.003706 0.003599
0.018453 0.003706 0.003599
0.023757 0.003706 0.003599
0.030977 0.003706 0.003599
0.040807 0.003706 0.003599
0.054188 0.003706 0.003599
0.072403 0.003706 0.003599
0.097200 0.003706 0.003599
0.130957 0.003706 0.003599
0.176909 0.003706 0.003599
0.239465 0.003706 0.003599
0.324623 0.003706 0.003599
0.440549 0.003706 0.003599
0.598359 0.003706 0.003599
0.813189 0.003706 0.003599
1.000000 0.003706 0.003599
0.003599 0.003813 0.003599
0.003706 0.003813 0.003599
0.003813 0.003813 0.003599
0.003920 0.003813 0.003599
0.004027 0.003813 0.003599
0.004135 0.003813 0.003599
0.004266 0.003813 0.003599
0.004444 0.003813 0.003599
0.004687 0.003813 0.003599
0.005017 0.003813 0.003599
0.005467 0.003813 0.003599
0.006079 0.003813 0.003599
0.006912 0.003813 0.003599
0.008047 0.003813 0.003599
0.009591 0.003813 0.003599
0.011694 0.003813 0.003599
0.014557 0.003813 0.003599
0.018453 0.003813 0.003599
0.023757 0.003813 0.003599
0.030977 0.003813 0.003599
0.040807 0.003813 0.003599
0.054188 0.003813 0.003599
0.072403 0.003813 0.003599
0.097200 0.003813 0.003599
0.130957 0.003813 0.003599
0.176909 0.003813 0.003599
0.239465 0.003813 0.003599
0.324623 0.003813 0.003599
0.440549 0.003813 0.003599
0.598359 0.003813 0.003599
0.813189 0.003813 0.003599
1.000000 0.003813 0.003599
0.003599 0.003920 0.003599
0.003706 0.003920 0.003599
0.003813 0.003920 0.003599
0.003920 0.003920 0.003599
0.004027 0.003920 0.003599
0.004135 0.003920 0.003599
0.004266 0.003920 0.003599
0.004444 0.003920 0.003599
0.004687 0.003920 0.003599
0.005017 0.003920 0.003599
0.005467 0.003920 0.003599
0.006079 0.003920 0.003599
0.006912 0.003920 0.003599
0.008047 0.003920 0.003599
0.009591 0.003920 0.003599
0.011694 0.003920 0.003599
0.014557 0.003920 0.003599
0.018453 0.003920 0.003599
0.023757 0.003920 0.003599
0.030977 0.003920 0.003599
0.040807 0.003920 0.003599
0.054188 0.003920 0.003599
0.072403 0.003920 0.003599
0.097200 0.003920 0.003599
0.130957 0.003920 0.003599
0.176909 0.003920 0.003599
0.239465 0.003920 0.003599
0.324623 0.003920 0.003599
0.440549 0.003920 0.003599
0.598359 0.003920 0.003599
0.813189 0.003920 0.003599
1.000000 0.003920 0.003599
0.003599 0.004027 0.003599
0.003706 0.004027 0.003599
0.003813 0.004027 0.003599
0.003920 0.004027 0.003599
0.004027 0.004027 0.003599
0.004135 0.004027 0.003599
0.004266 0.004027 0.003599
0.004444 0.004027 0.003599
0.004687 0.004027 0.003599
0.005017 0.004027 0.003599
0.005467 0.004027 0.003599
0.006079 0.004027 0.003599
0.006912 0.004027 0.003599
0.008047 0.004027 0.003599
0.009591 0.004027 0.003599
0.011694 0.004027 0.003599
0.014557 0.004027 0.003599
0.018453 0.004027 0.003599
0.023757 0.004027 0.003599
0.030977 0.004027 0.003599
0.040807 0.004027 0.003599
0.054188 0.004027 0.003599
0.072403 0.004027 0.003599
0.097200 0.004027 0.003599
0.130957 0.004027 0.003599
0.176909 0.004027 0.003599
0.239465 0.004027 0.003599
0.324623 0.004027 0.003599
0.440549 0.004027 0.003599
0.598359 0.004027 0.003599
0.813189 0.004027 0.003599
1.000000 0.004027 0.003599
0.003599 0.004135 0.003599
0.003706 0.004135 0.003599
0.003813 0.004135 0.003599
0.003920 0.004135 0.003599
0.004027 0.004135 0.003599
0.004135 0.004135 0.003599
0.004266 0.004135 0.003599
0.004444 0.004135 0.003599
0.004687 0.004135 0.003599
0.005017 0.004135 0.003599
0.005467 0.004135 0.003599
0.006079 0.004135 0.003599
0.006912 0.004135 0.003599
0.008047 0.004135 0.003599
0.009591 0.004135 0.003599
0.011694 0.004135 0.003599
0.014557 0.004135 0.003599
0.018453 0.004135 0.003599
0.023757 0.004135 0.003599
0.030977 0.004135 0.003599
0.040807 0.004135 0.003599
0.054188 0.004135 0.003599
0.072403 0.004135 0.003599
0.097200 0.004135 0.003599
0.130957 0.004135 0.003599
0.176909 0.004135 0.003599
0.239465 0.004135 0.003599
0.324623 0.004135 0.003599
0.440549 0.004135 0.003599
0.598359 0.004135 0.003599
0.813189 0.004135 0.003599
1.000000 0.004135 0.003599
0.003599 0.004266 0.003599
0.003706 0.004266 0.003599
0.003813 0.004266 0.003599
0.003920 0.004266 0.003599
0.004027 0.004266 0.003599
0.004135 0.004266 0.003599
0.004266 0.004266 0.003599
0.004444 0.004266 0.003599
0.004687 0.004266 0.003599
0.005017 0.004266 0.003599
0.005467 0.004266 0.003599
0.006079 0.004266 0.003599
0.006912 0.004266 0.003599
0.008047 0.004266 0.003599
0.009591 0.004266 0.003599
0.011694 0.004266 0.003599
0.014557 0.004266 0.003599
0.018453 0.004266 0.003599
0.023757 0.004266 0.003599
0.030977 0.004266 0.003599
0.040807 0.004266 0.003599
0.054188 0.004266 0.003599
0.072403 0.004266 0.003599
0.097200 0.004266 0.003599
0.130957 0.004266 0.003599
0.176909 0.004266 0.003599
0.239465 0.004266 0.003599
0.324623 0.004266 0.003599
0.440549 0.004266 0.003599
0.598359 0.004266 0.003599
0.813189 0.004266 0.003599
1.000000 0.004266 0.003599
0.003599 0.004444 0.003599
0.003706 0.004444 0.003599
0.003813 0.004444 0.003599
0.003920 0.004444 0.003599
0.004027 0.004444 0.003599
0.004135 0.004444 0.003599
0.004266 0.004444 0.003599
0.004444 0.004444 0.003599
0.004687 0.004444 0.003599
0.005017 0.004444 0.003599
0.005467 0.004444 0.003599
0.006079 0.004444 0.003599
0.006912 0.004444 0.003599
0.008047 0.004444 0.003599
0.009591 0.004444 0.003599
0.011694 0.004444 0.003599
0.014557 0.004444 0.003599
0.018453 0.004444 0.003599
0.023757 0.004444 0.003599
0.030977 0.004444 0.003599
0.040807 0.004444 0.003599
0.054188 0.004444 0.003599
0.072403 0.004444 0.003599
0.097200 0.004444 0.003599
0.130957 0.004444 0.003599
0.176909 0.004444 0.003599
0.239465 0.004444 0.003599
0.324623 0.004444 0.003599
0.440549 0.004444 0.003599
0.598359 0.004444 0.003599
0.813189 0.004444 0.003599
1.000000 0.004444 0.003599
0.003599 0.004687 0.003599
0.003706 0.004687 0.003599
0.003813 0.004687 0.003599
0.003920 0.004687 0.003599
0.004027 0.004687 0.003599
0.004135 0.004687 0.003599
0.004266 0.004687 0.003599
0.004444 0.004687 0.003599
0.004687 0.004687 0.003599
0.005017 0.004687 0.003599
0.005467 0.004687 0.003599
0.006079 0.004687 0.003599
0.006912 0.004687 0.003599
0.008047 0.004687 0.003599
0.009591 0.004687 0.003599
0.011694 0.004687 0.003599
0.014557 0.004687 0.003599
0.018453 0.004687 0.003599
0.023757 0.004687 0.003599
0.030977 0.004687 0.003599
0.040807 0.004687 0.003599
0.054188 0.004687 0.003599
0.072403 0.004687 0.003599
0.097200 0.004687 0.003599
0.130957 0.004687 0.003599
0.176909 0.004687 0.003599
0.239465 0.004687 0.003599
0.324623 0.004687 0.003599
0.440549 0.004687 0.003599
0.598359 0.004687 0.003599
0.813189 0.004687 0.003599
1.000000 0.004687 0.003599
0.003599 0.005017 0.003599
0.003706 0.005017 0.003599
0.003813 0.005017 0.003599
0.003920 0.005017 0.003599
0.004027 0.005017 0.003599
0.004135 0.005017 0.003599
0.004266 0.005017 0.003599
0.004444 0.005017 0.003599
0.004687 0.005017 0.003599
0.005017 0.005017 0.003599
0.005467 0.005017 0.003599
0.006079 0.005017 0.003599
0.006912 0.005017 0.003599
0.008047 0.005017 0.003599
0.009591 0.005017 0.003599
0.011694 0.005017 0.003599
0.014557 0.005017 0.003599
0.018453 0.005017 0.003599
0.023757 0.005017 0.003599
0.030977 0.005017 0.003599
0.040807 0.005017 0.003599
0.054188 0.005017 0.003599
0.072403 0.005017 0.003599
0.097200 0.005017 0.003599
0.130957 0.005017 0.003599
0.176909 0.005017 0.003599
0.239465 0.005017 0.003599
0.324623 0.005017 0.003599
0.440549 0.005017 0.003599
0.598359 0.005017 0.003599
0.813189 0.005017 0.003599
1.000000 0.005017 0.003599
0.003599 0.005467 0.003599
0.003706 0.005467 0.003599
0.003813 0.005467 0.003599
0.003920 0.005467 0.003599
0.004027 0.005467 0.003599
0.004135 0.005467 0.003599
0.004266 0.005467 0.003599
0.004444 0.005467 0.003599
0.004687 0.005467 0.003599
0.005017 0.005467 0.003599
0.005467 0.005467 0.003599
0.006079 0.005467 0.003599
0.006912 0.005467 0.003599
0.008047 0.005467 0.003599
0.009591 0.005467 0.003599
0.011694 0.005467 0.003599
0.014557 0.005467 0.003599
0.018453 0.005467 0.003599
0.023757 0.005467 0.003599
0.030977 0.005467 0.003599
0.040807 0.005467 0.003599
0.054188 0.005467 0.003599
0.072403 0.005467 0.003599
0.097200 0.005467 0.003599
0.130957 0.005467 0.003599
0.176909 0.005467 0.003599
0.239465 0.005467 0.003599
0.324623 0.005467 0.003599
0.440549 0.005467 0.003599
0.598359 0.005467 0.003599
0.813189 0.005467 0.003599
1.000000 0.005467 0.003599
0.003599 0.006079 0.003599
0.003706 0.006079 0.003599
0.003813 0.006079 0.003599
0.003920 0.006079 0.003599
0.004027 0.006079 0.003599
0.004135 0.006079 0.003599
0.004266 0.006079 0.003599
0.004444 0.006079 0.003599
0.004687 0.006079 0.003599
0.005017 0.006079 0.003599
0.005467 0.006079 0.003599
0.006079 0.006079 0.003599
0.006912 0.006079 0.003599
0.008047 0.006079 0.003599
0.009591 0.006079 0.003599
0.011694 0.006079 0.003599
0.014557 0.006079 0.003599
0.018453 0.006079 0.003599
0.023757 0.006079 0.003599
0.030977 0.006079 0.003599
0.040807 0.006079 0.003599
0.054188 0.006079 0.003599
0.072403 0.006079 0.003599
0.097200 0.006079 0.003599
0.130957 0.006079 0.003599
0.176909 0.006079 0.003599
0.239465 0.006079 0.003599
0.324623 0.006079 0.003599
0.440549 0.006079 0.003599
0.598359 0.006079 0.003599
0.813189 0.006079 0.003599
1.000000 0.006079 0.003599
0.003599 0.006912 0.003599
0.003706 0.006912 0.003599
0.003813 0.006912 0.003599
0.003920 0.006912 0.003599
0.004027 0.006912 0.003599
0.004135 0.006912 0.003599
0.004266 0.006912 0.003599
0.004444 0.006912 0.003599
0.004687 0.006912 0.003599
0.005017 0.006912 0.003599
0.005467 0.006912 0.003599
0.006079 0.006912 0.003599
0.006912 0.006912 0.003599
0.008047 0.006912 0.003599
0.009591 0.006912 0.003599
0.011694 0.006912 0.003599
0.014557 0.006912 0.003599
0.018453 0.006912 0.003599
0.023757 0.006912 0.003599
0.030977 0.006912 0.003599
0.040807 0.006912 0.003599
0.054188 0.006912 0.003599
0.072403 0.006912 0.003599
0.097200 0.006912 0.003599
0.130957 0.006912 0.003599
0.176909 0.006912 0.003599
0.239465 0.006912 0.003599
0.324623 0.006912 0.003599
0.440549 0.006912 0.003599
0.598359 0.006912 0.003599
0.813189 0.006912 0.003599
1.000000 0.006912 0.003599
0.003599 0.008047 0.003599
0.003706 0.008047 0.003599
0.003813 0.008047 0.003599
0.003920 0.008047 0.003599
0.004027 0.008047 0.003599
0.004135 0.008047 0.003599
0.004266 0.008047 0.003599
0.004444 0.008047 0.003599
0.004687 0.008047 0.003599
0.005017 0.008047 0.003599
0.005467 0.008047 0.003599
0.006079 0.008047 0.003599
0.006912 0.008047 0.003599
0.008047 0.008047 0.003599
0.009591 0.008047 0.003599
0.011694 0.008047 0.003599
0.014557 0.008047 0.003599
0.018453 0.008047 0.003599
0.023757 0.008047 0.003599
0.030977 0.008047 0.003599
0.040807 0.008047 0.003599
0.054188 0.008047 0.003599
0.072403 0.008047 0.003599
0.097200 0.008047 0.003599
0.130957 0.008047 0.003599
0.176909 0.008047 0.003599
0.239465 0.008047 0.003599
0.324623 0.008047 0.003599
0.440549 0.008047 0.003599
0.598359 0.008047 0.003599
0.813189 0.008047 0.003599
1.000000 0.008047 0.003599
0.003599 0.009591 0.003599
0.003706 0.009591 0.003599
0.003813 0.009591 0.003599
0.003920 0.009591 0.003599
0.004027 0.009591 0.003599
0.004135 0.009591 0.003599
0.004266 0.009591 0.003599
0.004444 0.009591 0.003599
0.004687 0.009591 0.003599
0.005017 0.009591 0.003599
0.005467 0.009591 0.003599
0.006079 0.009591 0.003599
0.006912 0.009591 0.003599
0.008047 0.009591 0.003599
0.009591 0.009591 0.003599
0.011694 0.009591 0.003599
0.014557 0.009591 0.003599
0.018453 0.009591 0.003599
0.023757 0.009591 0.003599
0.030977 0.009591 0.003599
0.040807 0.009591 0.003599
0.054188 0.009591 0.003599
0.072403 0.009591 0.003599
0.097200 0.009591 0.003599
0.130957 0.009591 0.003599
0.176909 0.009591 0.003599
0.239465 0.009591 0.003599
0.324623 0.009591 0.003599
0.440549 0.009591 0.003599
0.598359 0.009591 0.003599
0.813189 0.009591 0.003599
1.000000 0.009591 0.003599
0.003599 0.011694 0.003599
0.003706 0.011694 0.003599
0.003813 0.011694 0.003599
0.003920 0.011694 0.003599
0.004027 0.011694 0.003599
0.004135 0.011694 0.003599
0.004266 0.011694 0.003599
0.004444 0.011694 0.003599
0.004687 0.011694 0.003599
0.005017 0.011694 0.003599
0.005467 0.011694 0.003599
0.006079 0.011694 0.003599
0.006912 0.011694 0.003599
0.008047 0.011694 0.003599
0.009591 0.011694 0.003599
0.011694 0.011694 0.003599
0.014557 0.011694 0.003599
0.018453 0.011694 0.003599
0.023757 0.011694 0.003599
0.030977 0.011694 0.003599
0.040807 0.011694 0.003599
0.054188 0.011694 0.003599
0.072403 0.011694 0.003599
0.097200 0.011694 0.003599
0.130957 0.011694 0.003599
0.176909 0.011694 0.003599
0.239465 0.011694 0.003599
0.324623 0.011694 0.003599
0.440549 0.011694 0.003599
0.598359 0.011694 0.003599
0.813189 0.011694 0.003599
1.000000 0.011694 0.003599
0.003599 0.014557 0.003599
0.003706 0.014557 0.003599
0.003813 0.014557 0.003599
0.003920 0.014557 0.003599
0.004027 0.014557 0.003599
0.004135 0.014557 0.003599
0.004266 0.014557 0.003599
0.004444 0.014557 0.003599
0.004687 0.014557 0.003599
0.005017 0.014557 0.003599
0.005467 0.014557 0.003599
0.006079 0.014557 0.003599
0.006912 0.014557 0.003599
0.008047 0.014557 0.003599
0.009591 0.014557 0.003599
0.011694 0.014557 0.003599
0.014557 0.014557 0.003599
0.018453 0.014557 0.003599
0.023757 0.014557 0.003599
0.030977 0.014557 0.003599
0.040807 0.014557 0.003599
0.054188 0.014557 0.003599
0.072403 0.014557 0.003599
0.097200 0.014557 0.003599
0.130957 0.014557 0.003599
0.176909 0.014557 0.003599
0.239465 0.014557 0.003599
0.324623 0.014557 0.003599
0.440549 0.014557 0.003599
0.598359 0.014557 0.003599
0.813189 0.014557 0.003599
1.000000 0.014557 0.003599
0.003599 0.018453 0.003599
0.003706 0.018453 0.003599
0.003813 0.018453 0.003599
0.003920 0.018453 0.003599
0.004027 0.018453 0.003599
0.004135 0.018453 0.003599
0.004266 0.018453 0.003599
0.004444 0.018453 0.003599
0.004687 0.018453 0.003599
0.005017 0.018453 0.003599
0.005467 0.018453 0.003599
0.006079 0.018453 0.003599
0.006912 0.018453 0.003599
0.008047 0.018453 0.003599
0.009591 0.018453 0.003599
0.011694 0.018453 0.003599
0.014557 0.018453 0.003599
0.018453 0.018453 0.003599
0.023757 0.018453 0.003599
0.030977 0.018453 0.003599
0.040807 0.018453 0.003599
0.054188 0.018453 0.003599
0.072403 0.018453 0.003599
0.097200 0.018453 0.003599
0.130957 0.018453 0.003599
0.176909 0.018453 0.003599
0.239465 0.018453 0.003599
0.324623 0.018453 0.003599
0.440549 0.018453 0.003599
0.598359 0.018453 0.003599
0.813189 0.018453 0.003599
1.000000 0.018453 0.003599
0.003599 0.023757 0.003599
0.003706 0.023757 0.003599
0.003813 0.023757 0.003599
0.003920 0.023757 0.003599
0.004027 0.023757 0.003599
0.004135 0.023757 0.003599
0.004266 0.023757 0.003599
0.004444 0.023757 0.003599
0.004687 0.023757 0.003599
0.005017 0.023757 0.003599
0.005467 0.023757 0.003599
0.006079 0.023757 0.003599
0.006912 0.023757 0.003599
0.008047 0.023757 0.003599
0.009591 0.023757 0.003599
0.011694 0.023757 0.003599
0.014557 0.023757 0.003599
0.018453 0.023757 0.003599
0.023757 0.023757 0.003599
0.030977 0.023757 0.003599
0.040807 0.023757 0.003599
0.054188 0.023757 0.003599
0.072403 0.023757 0.003599
0.097200 0.023757 0.003599
0.130957 0.023757 0.003599
0.176909 0.023757 0.003599
0.239465 0.023757 0.003599
0.324623 0.023757 0.003599
0.440549 0.023757 0.003599
0.598359 0.023757 0.003599
0.813189 0.023757 0.003599
1.000000 0.023757 0.003599
0.003599 0.030977 0.003599
0.003706 0.030977 0.003599
0.003813 0.030977 0.003599
0.003920 0.030977 0.003599
0.004027 0.030977 0.003599
0.004135 0.030977 0.003599
0.004266 0.030977 0.003599
0.004444 0.030977 0.003599
0.004687 0.030977 0.003599
0.005017 0.030977 0.003599
0.005467 0.030977 0.003599
0.006079 0.030977 0.003599
0.006912 0.030977 0.003599
0.008047 0.030977 0.003599
0.009591 0.030977 0.003599
0.011694 0.030977 0.003599
0.014557 0.030977 0.003599
0.018453 0.030977 0.003599
0.023757 0.030977 0.003599
0.030977 0.030977 0.003599
0.040807 0.030977 0.003599
0.054188 0.030977 0.003599
0.072403 0.030977 0.003599
0.097200 0.030977 0.003599
0.130957 0.030977 0.003599
0.176909 0.030977 0.003599
0.239465 0.030977 0.003599
0.324623 0.030977 0.003599
0.440549 0.030977 0.003599
0.598359 0.030977 0.003599
0.813189 0.030977 0.003599
1.000000 0.030977 0.003599
0.003599 0.040807 0.003599
0.003706 0.040807 0.003599
0.003813 0.040807 0.003599
0.003920 0.040807 0.003599
0.004027 0.040807 0.003599
0.004135 0.040807 0.003599
0.004266 0.040807 0.003599
0.004444 0.040807 0.003599
0.004687 0.040807 0.003599
0.005017 0.040807 0.003599
0.005467 0.040807 0.003599
0.006079 0.040807 0.003599
0.006912 0.040807 0.003599
0.008047 0.040807 0.003599
0.009591 0.040807 0.003599
0.011694 0.040807 0.003599
0.014557 0.040807 0.003599
0.018453 0.040807 0.003599
0.023757 0.040807 0.003599
0.030977 0.040807 0.003599
0.040807 0.040807 0.003599
0.054188 0.040807 0.003599
0.072403 0.040807 0.003599
0.097200 0.040807 0.003599
0.130957 0.040807 0.003599
0.176909 0.040807 0.003599
0.239465 0.040807 0.003599
0.324623 0.040807 0.003599
0.440549 0.040807 0.003599
0.598359 0.040807 0.003599
0.813189 0.040807 0.003599
1.000000 0.040807 0.003599
0.003599 0.054188 0.003599
0.003706 0.054188 0.003599
0.003813 0.054188 0.003599
0.003920 0.054188 0.003599
0.004027 0.054188 0.003599
0.004135 0.054188 0.003599
0.004266 0.054188 0.003599
0.004444 0.054188 0.003599
0.004687 0.054188 0.003599
0.005017 0.054188 0.003599
0.005467 0.054188 0.003599
0.006079 0.054188 0.003599
0.006912 0.054188 0.003599
0.008047 0.054188 0.003599
0.009591 0.054188 0.003599
0.011694 0.054188 0.003599
0.014557 0.054188 0.003599
0.018453 0.054188 0.003599
0.023757 0.054188 0.003599
0.030977 0.054188 0.003599
0.040807 0.054188 0.003599
0.054188 0.054188 0.003599
0.072403 0.054188 0.003599
0.097200 0.054188 0.003599
0.130957 0.054188 0.003599
0.176909 0.054188 0.003599
0.239465 0.054188 0.003599
0.324623 0.054188 0.003599
0.440549 0.054188 0.003599
0.598359 0.054188 0.003599
0.813189 0.054188 0.003599
1.000000 0.054188 0.003599
0.003599 0.072403 0.003599
0.003706 0.072403 0.003599
0.003813 0.072403 0.003599
0.003920 0.072403 0.003599
0.004027 0.072403 0.003599
0.004135 0.072403 0.003599
0.004266 0.072403 0.003599
0.004444 0.072403 0.003599
0.004687 0.072403 0.003599
0.005017 0.072403 0.003599
0.005467 0.072403 0.003599
0.006079 0.072403 0.003599
0.006912 0.072403 0.003599
0.008047 0.072403 0.003599
0.009591 0.072403 0.003599
0.011694 0.072403 0.003599
0.014557 0.072403 0.003599
0.018453 0.072403 0.003599
0.023757 0.072403 0.003599
0.030977 0.072403 0.003599
0.040807 0.072403 0.003599
0.054188 0.072403 0.003599
0.072403 0.072403 0.003599
0.097200 0.072403 0.003599
0.130957 0.072403 0.003599
0.176909 0.072403 0.003599
0.239465 0.072403 0.003599
0.324623 0.072403 0.003599
0.440549 0.072403 0.003599
0.598359 0.072403 0.003599
0.813189 0.072403 0.003599
1.000000 0.072403 0.003599
0.003599 0.097200 0.003599
0.003706 0.097200 0.003599
0.003813 0.097200 0.003599
0.003920 0.097200 0.003599
0.004027 0.097200 0.003599
0.004135 0.097200 0.003599
0.004266 0.097200 0.003599
0.004444 0.097200 0.003599
0.004687 0.097200 0.003599
0.005017 0.097200 0.003599
0.005467 0.097200 0.003599
0.006079 0.097200 0.003599
0.006912 0.097200 0.003599
0.008047 0.097200 0.003599
0.009591 0.097200 0.003599
0.011694 0.097200 0.003599
0.014557 0.097200 0.003599
0.018453 0.097200 0.003599
0.023757 0.097200 0.003599
0.030977 0.097200 0.003599
0.040807 0.097200 0.003599
0.054188 0.097200 0.003599
0.072403 0.097200 0.003599
0.097200 0.097200 0.003599
0.130957 0.097200 0.003599
0.176909 0.097200 0.003599
0.239465 0.097200 0.003599
0.324623 0.097200 0.003599
0.440549 0.097200 0.003599
0.598359 0.097200 0.003599
0.813189 0.097200 0.003599
1.000000 0.097200 0.003599
0.003599 0.130957 0.003599
0.003706 0.130957 0.003599
0.003813 0.130957 0.003599
0.003920 0.130957 0.003599
0.004027 0.130957 0.003599
0.004135 0.130957 0.003599
0.004266 0.130957 0.003599
0.004444 0.130957 0.003599
0.004687 0.130957 0.003599
0.005017 0.130957 0.003599
0.005467 0.130957 0.003599
0.006079 0.130957 0.003599
0.006912 0.130957 0.003599
0.008047 0.130957 0.003599
0.009591 0.130957 0.003599
0.011694 0.130957 0.003599
0.014557 0.130957 0.003599
0.018453 0.130957 0.003599
0.023757 0.130957 0.003599
0.030977 0.130957 0.003599
0.040807 0.130957 0.003599
0.054188 0.130957 0.003599
0.072403 0.130957 0.003599
0.097200 0.130957 0.003599
0.130957 0.130957 0.003599
0.176909 0.130957 0.003599
0.239465 0.130957 0.003599
0.324623 0.130957 0.003599
0.440549 0.130957 0.003599
0.598359 0.130957 0.003599
0.813189 0.130957 0.003599
1.000000 0.130957 0.003599
0.003599 0.176909 0.003599
0.003706 0.176909 0.003599
0.003813 0.176909 0.003599
0.003920 0.176909 0.003599
0.004027 0.176909 0.003599
0.004135 0.176909 0.003599
0.004266 0.176909 0.003599
0.004444 0.176909 0.003599
0.004687 0.176909 0.003599
0.005017 0.176909 0.003599
0.005467 0.176909 0.003599
0.006079 0.176909 0.003599
0.006912 0.176909 0.003599
0.008047 0.176909 0.003599
0.009591 0.176909 0.003599
0.011694 0.176909 0.003599
0.014557 0.176909 0.003599
0.018453 0.176909 0.003599
0.023757 0.176909 0.003599
0.030977 0.176909 0.003599
0.040807 0.176909 0.003599
0.054188 0.176909 0.003599
0.072403 0.176909 0.003599
0.097200 0.176909 0.003599
0.130957 0.176909 0.003599
0.176909 0.176909 0.003599
0.239465 0.176909 0.003599
0.324623 0.176909 0.003599
0.440549 0.176909 0.003599
0.598359 0.176909 0.003599
0.813189 0.176909 0.003599
1.000000 0.176909 0.003599
0.003599 0.239465 0.003599
0.003706 0.239465 0.003599
0.003813 0.239465 0.003599
0.003920 0.239465 0.003599
0.004027 0.239465 0.003599
0.004135 0.239465 0.003599
0.004266 0.239465 0.003599
0.004444 0.239465 0.003599
0.004687 0.239465 0.003599
0.005017 0.239465 0.003599
0.005467 0.239465 0.003599
0.006079 0.239465 0.003599
0.006912 0.239465 0.003599
0.008047 0.239465 0.003599
0.009591 0.239465 0.003599
0.011694 0.239465 0.003599
0.014557 0.239465 0.003599
0.018453 0.239465 0.003599
0.023757 0.239465 0.003599
0.030977 0.239465 0.003599
0.040807 0.239465 0.003599
0.054188 0.239465 0.003599
0.072403 0.239465 0.003599
0.097200 0.239465 0.003599
0.130957 0.239465 0.003599
0.176909 0.239465 0.003599
0.239465 0.239465 0.003599
0.324623 0.239465 0.003599
0.440549 0.239465 0.003599
0.598359 0.239465 0.003599
0.813189 0.239465 0.003599
1.000000 0.239465 0.003599
0.003599 0.324623 0.003599
0.003706 0.324623 0.003599
0.003813 0.324623 0.003599
0.003920 0.324623 0.003599
0.004027 0.324623 0.003599
0.004135 0.324623 0.003599
0.004266 0.324623 0.003599
0.004444 0.324623 0.003599
0.004687 0.324623 0.003599
0.005017 0.324623 0.003599
0.005467 0.324623 0.003599
0.006079 0.324623 0.003599
0.006912 0.324623 0.003599
0.008047 0.324623 0.003599
0.009591 0.324623 0.003599
0.011694 0.324623 0.003599
0.014557 0.324623 0.003599
0.018453 0.324623 0.003599
0.023757 0.324623 0.003599
0.030977 0.324623 0.003599
0.040807 0.324623 0.003599
