.nuke/nuke.LUT/logC-2-linear_extended/AlexaV3_EI2000_LogC2Linear_EE_nuke3d.cube
# Alexa conversion LUT, logc2lin. Full in/full out.
# created by alexalutconv (2.07)
LUT_3D_SIZE 8
DOMAIN_MIN 0.000000 0.000000 0.000000
DOMAIN_MAX 0.903226 0.903226 0.903226
0.003705 0.003705 0.003705
0.003986 0.003705 0.003705
0.004401 0.003705 0.003705
0.005829 0.003705 0.003705
0.010895 0.003705 0.003705
0.028854 0.003705 0.003705
0.092525 0.003705 0.003705
0.334906 0.003705 0.003705
0.003705 0.003986 0.003705
0.003986 0.003986 0.003705
0.004401 0.003986 0.003705
0.005829 0.003986 0.003705
0.010895 0.003986 0.003705
0.028854 0.003986 0.003705
0.092525 0.003986 0.003705
0.334906 0.003986 0.003705
0.003705 0.004401 0.003705
0.003986 0.004401 0.003705
0.004401 0.004401 0.003705
0.005829 0.004401 0.003705
0.010895 0.004401 0.003705
0.028854 0.004401 0.003705
0.092525 0.004401 0.003705
0.334906 0.004401 0.003705
0.003705 0.005829 0.003705
0.003986 0.005829 0.003705
0.004401 0.005829 0.003705
0.005829 0.005829 0.003705
0.010895 0.005829 0.003705
0.028854 0.005829 0.003705
0.092525 0.005829 0.003705
0.334906 0.005829 0.003705
0.003705 0.010895 0.003705
0.003986 0.010895 0.003705
0.004401 0.010895 0.003705
0.005829 0.010895 0.003705
0.010895 0.010895 0.003705
0.028854 0.010895 0.003705
0.092525 0.010895 0.003705
0.334906 0.010895 0.003705
0.003705 0.028854 0.003705
0.003986 0.028854 0.003705
0.004401 0.028854 0.003705
0.005829 0.028854 0.003705
0.010895 0.028854 0.003705
0.028854 0.028854 0.003705
0.092525 0.028854 0.003705
0.334906 0.028854 0.003705
0.003705 0.092525 0.003705
0.003986 0.092525 0.003705
0.004401 0.092525 0.003705
0.005829 0.092525 0.003705
0.010895 0.092525 0.003705
0.028854 0.092525 0.003705
0.092525 0.092525 0.003705
0.334906 0.092525 0.003705
0.003705 0.334906 0.003705
0.003986 0.334906 0.003705
0.004401 0.334906 0.003705
0.005829 0.334906 0.003705
0.010895 0.334906 0.003705
0.028854 0.334906 0.003705
0.092525 0.334906 0.003705
0.334906 0.334906 0.003705
0.003705 0.003705 0.003986
0.003986 0.003705 0.003986
0.004401 0.003705 0.003986
0.005829 0.003705 0.003986
0.010895 0.003705 0.003986
0.028854 0.003705 0.003986
0.092525 0.003705 0.003986
0.334906 0.003705 0.003986
0.003705 0.003986 0.003986
0.003986 0.003986 0.003986
0.004401 0.003986 0.003986
0.005829 0.003986 0.003986
0.010895 0.003986 0.003986
0.028854 0.003986 0.003986
0.092525 0.003986 0.003986
0.334906 0.003986 0.003986
0.003705 0.004401 0.003986
0.003986 0.004401 0.003986
0.004401 0.004401 0.003986
0.005829 0.004401 0.003986
0.010895 0.004401 0.003986
0.028854 0.004401 0.003986
0.092525 0.004401 0.003986
0.334906 0.004401 0.003986
0.003705 0.005829 0.003986
0.003986 0.005829 0.003986
0.004401 0.005829 0.003986
0.005829 0.005829 0.003986
0.010895 0.005829 0.003986
0.028854 0.005829 0.003986
0.092525 0.005829 0.003986
0.334906 0.005829 0.003986
0.003705 0.010895 0.003986
0.003986 0.010895 0.003986
0.004401 0.010895 0.003986
0.005829 0.010895 0.003986
0.010895 0.010895 0.003986
0.028854 0.010895 0.003986
0.092525 0.010895 0.003986
0.334906 0.010895 0.003986
0.003705 0.028854 0.003986
0.003986 0.028854 0.003986
0.004401 0.028854 0.003986
0.005829 0.028854 0.003986
0.010895 0.028854 0.003986
0.028854 0.028854 0.003986
0.092525 0.028854 0.003986
0.334906 0.028854 0.003986
0.003705 0.092525 0.003986
0.003986 0.092525 0.003986
0.004401 0.092525 0.003986
0.005829 0.092525 0.003986
0.010895 0.092525 0.003986
0.028854 0.092525 0.003986
0.092525 0.092525 0.003986
0.334906 0.092525 0.003986
0.003705 0.334906 0.003986
0.003986 0.334906 0.003986
0.004401 0.334906 0.003986
0.005829 0.334906 0.003986
0.010895 0.334906 0.003986
0.028854 0.334906 0.003986
0.092525 0.334906 0.003986
0.334906 0.334906 0.003986
0.003705 0.003705 0.004401
0.003986 0.003705 0.004401
0.004401 0.003705 0.004401
0.005829 0.003705 0.004401
0.010895 0.003705 0.004401
0.028854 0.003705 0.004401
0.092525 0.003705 0.004401
0.334906 0.003705 0.004401
0.003705 0.003986 0.004401
0.003986 0.003986 0.004401
0.004401 0.003986 0.004401
0.005829 0.003986 0.004401
0.010895 0.003986 0.004401
0.028854 0.003986 0.004401
0.092525 0.003986 0.004401
0.334906 0.003986 0.004401
0.003705 0.004401 0.004401
0.003986 0.004401 0.004401
0.004401 0.004401 0.004401
0.005829 0.004401 0.004401
0.010895 0.004401 0.004401
0.028854 0.004401 0.004401
0.092525 0.004401 0.004401
0.334906 0.004401 0.004401
0.003705 0.005829 0.004401
0.003986 0.005829 0.004401
0.004401 0.005829 0.004401
0.005829 0.005829 0.004401
0.010895 0.005829 0.004401
0.028854 0.005829 0.004401
0.092525 0.005829 0.004401
0.334906 0.005829 0.004401
0.003705 0.010895 0.004401
0.003986 0.010895 0.004401
0.004401 0.010895 0.004401
0.005829 0.010895 0.004401
0.010895 0.010895 0.004401
0.028854 0.010895 0.004401
0.092525 0.010895 0.004401
0.334906 0.010895 0.004401
0.003705 0.028854 0.004401
0.003986 0.028854 0.004401
0.004401 0.028854 0.004401
0.005829 0.028854 0.004401
0.010895 0.028854 0.004401
0.028854 0.028854 0.004401
0.092525 0.028854 0.004401
0.334906 0.028854 0.004401
0.003705 0.092525 0.004401
0.003986 0.092525 0.004401
0.004401 0.092525 0.004401
0.005829 0.092525 0.004401
0.010895 0.092525 0.004401
0.028854 0.092525 0.004401
0.092525 0.092525 0.004401
0.334906 0.092525 0.004401
0.003705 0.334906 0.004401
0.003986 0.334906 0.004401
0.004401 0.334906 0.004401
0.005829 0.334906 0.004401
0.010895 0.334906 0.004401
0.028854 0.334906 0.004401
0.092525 0.334906 0.004401
0.334906 0.334906 0.004401
0.003705 0.003705 0.005829
0.003986 0.003705 0.005829
0.004401 0.003705 0.005829
0.005829 0.003705 0.005829
0.010895 0.003705 0.005829
0.028854 0.003705 0.005829
0.092525 0.003705 0.005829
0.334906 0.003705 0.005829
0.003705 0.003986 0.005829
0.003986 0.003986 0.005829
0.004401 0.003986 0.005829
0.005829 0.003986 0.005829
0.010895 0.003986 0.005829
0.028854 0.003986 0.005829
0.092525 0.003986 0.005829
0.334906 0.003986 0.005829
0.003705 0.004401 0.005829
0.003986 0.004401 0.005829
0.004401 0.004401 0.005829
0.005829 0.004401 0.005829
0.010895 0.004401 0.005829
0.028854 0.004401 0.005829
0.092525 0.004401 0.005829
0.334906 0.004401 0.005829
0.003705 0.005829 0.005829
0.003986 0.005829 0.005829
0.004401 0.005829 0.005829
0.005829 0.005829 0.005829
0.010895 0.005829 0.005829
0.028854 0.005829 0.005829
0.092525 0.005829 0.005829
0.334906 0.005829 0.005829
0.003705 0.010895 0.005829
0.003986 0.010895 0.005829
0.004401 0.010895 0.005829
0.005829 0.010895 0.005829
0.010895 0.010895 0.005829
0.028854 0.010895 0.005829
0.092525 0.010895 0.005829
0.334906 0.010895 0.005829
0.003705 0.028854 0.005829
0.003986 0.028854 0.005829
0.004401 0.028854 0.005829
0.005829 0.028854 0.005829
0.010895 0.028854 0.005829
0.028854 0.028854 0.005829
0.092525 0.028854 0.005829
0.334906 0.028854 0.005829
0.003705 0.092525 0.005829
0.003986 0.092525 0.005829
0.004401 0.092525 0.005829
0.005829 0.092525 0.005829
0.010895 0.092525 0.005829
0.028854 0.092525 0.005829
0.092525 0.092525 0.005829
0.334906 0.092525 0.005829
0.003705 0.334906 0.005829
0.003986 0.334906 0.005829
0.004401 0.334906 0.005829
0.005829 0.334906 0.005829
0.010895 0.334906 0.005829
0.028854 0.334906 0.005829
0.092525 0.334906 0.005829
0.334906 0.334906 0.005829
0.003705 0.003705 0.010895
0.003986 0.003705 0.010895
0.004401 0.003705 0.010895
0.005829 0.003705 0.010895
0.010895 0.003705 0.010895
0.028854 0.003705 0.010895
0.092525 0.003705 0.010895
0.334906 0.003705 0.010895
0.003705 0.003986 0.010895
0.003986 0.003986 0.010895
0.004401 0.003986 0.010895
0.005829 0.003986 0.010895
0.010895 0.003986 0.010895
0.028854 0.003986 0.010895
0.092525 0.003986 0.010895
0.334906 0.003986 0.010895
0.003705 0.004401 0.010895
0.003986 0.004401 0.010895
0.004401 0.004401 0.010895
0.005829 0.004401 0.010895
0.010895 0.004401 0.010895
0.028854 0.004401 0.010895
0.092525 0.004401 0.010895
0.334906 0.004401 0.010895
0.003705 0.005829 0.010895
0.003986 0.005829 0.010895
0.004401 0.005829 0.010895
0.005829 0.005829 0.010895
0.010895 0.005829 0.010895
0.028854 0.005829 0.010895
0.092525 0.005829 0.010895
0.334906 0.005829 0.010895
0.003705 0.010895 0.010895
0.003986 0.010895 0.010895
0.004401 0.010895 0.010895
0.005829 0.010895 0.010895
0.010895 0.010895 0.010895
0.028854 0.010895 0.010895
0.092525 0.010895 0.010895
0.334906 0.010895 0.010895
0.003705 0.028854 0.010895
0.003986 0.028854 0.010895
0.004401 0.028854 0.010895
0.005829 0.028854 0.010895
0.010895 0.028854 0.010895
0.028854 0.028854 0.010895
0.092525 0.028854 0.010895
0.334906 0.028854 0.010895
0.003705 0.092525 0.010895
0.003986 0.092525 0.010895
0.004401 0.092525 0.010895
0.005829 0.092525 0.010895
0.010895 0.092525 0.010895
0.028854 0.092525 0.010895
0.092525 0.092525 0.010895
0.334906 0.092525 0.010895
0.003705 0.334906 0.010895
0.003986 0.334906 0.010895
0.004401 0.334906 0.010895
0.005829 0.334906 0.010895
0.010895 0.334906 0.010895
0.028854 0.334906 0.010895
0.092525 0.334906 0.010895
0.334906 0.334906 0.010895
0.003705 0.003705 0.028854
0.003986 0.003705 0.028854
0.004401 0.003705 0.028854
0.005829 0.003705 0.028854
0.010895 0.003705 0.028854
0.028854 0.003705 0.028854
0.092525 0.003705 0.028854
0.334906 0.003705 0.028854
0.003705 0.003986 0.028854
0.003986 0.003986 0.028854
0.004401 0.003986 0.028854
0.005829 0.003986 0.028854
0.010895 0.003986 0.028854
0.028854 0.003986 0.028854
0.092525 0.003986 0.028854
0.334906 0.003986 0.028854
0.003705 0.004401 0.028854
0.003986 0.004401 0.028854
0.004401 0.004401 0.028854
0.005829 0.004401 0.028854
0.010895 0.004401 0.028854
0.028854 0.004401 0.028854
0.092525 0.004401 0.028854
0.334906 0.004401 0.028854
0.003705 0.005829 0.028854
0.003986 0.005829 0.028854
0.004401 0.005829 0.028854
0.005829 0.005829 0.028854
0.010895 0.005829 0.028854
0.028854 0.005829 0.028854
0.092525 0.005829 0.028854
0.334906 0.005829 0.028854
0.003705 0.010895 0.028854
0.003986 0.010895 0.028854
0.004401 0.010895 0.028854
0.005829 0.010895 0.028854
0.010895 0.010895 0.028854
0.028854 0.010895 0.028854
0.092525 0.010895 0.028854
0.334906 0.010895 0.028854
0.003705 0.028854 0.028854
0.003986 0.028854 0.028854
0.004401 0.028854 0.028854
0.005829 0.028854 0.028854
0.010895 0.028854 0.028854
0.028854 0.028854 0.028854
0.092525 0.028854 0.028854
0.334906 0.028854 0.028854
0.003705 0.092525 0.028854
0.003986 0.092525 0.028854
0.004401 0.092525 0.028854
0.005829 0.092525 0.028854
0.010895 0.092525 0.028854
0.028854 0.092525 0.028854
0.092525 0.092525 0.028854
0.334906 0.092525 0.028854
0.003705 0.334906 0.028854
0.003986 0.334906 0.028854
0.004401 0.334906 0.028854
0.005829 0.334906 0.028854
0.010895 0.334906 0.028854
0.028854 0.334906 0.028854
0.092525 0.334906 0.028854
0.334906 0.334906 0.028854
0.003705 0.003705 0.092525
0.003986 0.003705 0.092525
0.004401 0.003705 0.092525
0.005829 0.003705 0.092525
0.010895 0.003705 0.092525
0.028854 0.003705 0.092525
0.092525 0.003705 0.092525
0.334906 0.003705 0.092525
0.003705 0.003986 0.092525
0.003986 0.003986 0.092525
0.004401 0.003986 0.092525
0.005829 0.003986 0.092525
0.010895 0.003986 0.092525
0.028854 0.003986 0.092525
0.092525 0.003986 0.092525
0.334906 0.003986 0.092525
0.003705 0.004401 0.092525
0.003986 0.004401 0.092525
0.004401 0.004401 0.092525
0.005829 0.004401 0.092525
0.010895 0.004401 0.092525
0.028854 0.004401 0.092525
0.092525 0.004401 0.092525
0.334906 0.004401 0.092525
0.003705 0.005829 0.092525
0.003986 0.005829 0.092525
0.004401 0.005829 0.092525
0.005829 0.005829 0.092525
0.010895 0.005829 0.092525
0.028854 0.005829 0.092525
0.092525 0.005829 0.092525
0.334906 0.005829 0.092525
0.003705 0.010895 0.092525
0.003986 0.010895 0.092525
0.004401 0.010895 0.092525
0.005829 0.010895 0.092525
0.010895 0.010895 0.092525
0.028854 0.010895 0.092525
0.092525 0.010895 0.092525
0.334906 0.010895 0.092525
0.003705 0.028854 0.092525
0.003986 0.028854 0.092525
0.004401 0.028854 0.092525
0.005829 0.028854 0.092525
0.010895 0.028854 0.092525
0.028854 0.028854 0.092525
0.092525 0.028854 0.092525
0.334906 0.028854 0.092525
0.003705 0.092525 0.092525
0.003986 0.092525 0.092525
0.004401 0.092525 0.092525
0.005829 0.092525 0.092525
0.010895 0.092525 0.092525
0.028854 0.092525 0.092525
0.092525 0.092525 0.092525
0.334906 0.092525 0.092525
0.003705 0.334906 0.092525
0.003986 0.334906 0.092525
0.004401 0.334906 0.092525
0.005829 0.334906 0.092525
0.010895 0.334906 0.092525
0.028854 0.334906 0.092525
0.092525 0.334906 0.092525
0.334906 0.334906 0.092525
0.003705 0.003705 0.334906
0.003986 0.003705 0.334906
0.004401 0.003705 0.334906
0.005829 0.003705 0.334906
0.010895 0.003705 0.334906
0.028854 0.003705 0.334906
0.092525 0.003705 0.334906
0.334906 0.003705 0.334906
0.003705 0.003986 0.334906
0.003986 0.003986 0.334906
0.004401 0.003986 0.334906
0.005829 0.003986 0.334906
0.010895 0.003986 0.334906
0.028854 0.003986 0.334906
0.092525 0.003986 0.334906
0.334906 0.003986 0.334906
0.003705 0.004401 0.334906
0.003986 0.004401 0.334906
0.004401 0.004401 0.334906
0.005829 0.004401 0.334906
0.010895 0.004401 0.334906
0.028854 0.004401 0.334906
0.092525 0.004401 0.334906
0.334906 0.004401 0.334906
0.003705 0.005829 0.334906
0.003986 0.005829 0.334906
0.004401 0.005829 0.334906
0.005829 0.005829 0.334906
0.010895 0.005829 0.334906
0.028854 0.005829 0.334906
0.092525 0.005829 0.334906
0.334906 0.005829 0.334906
0.003705 0.010895 0.334906
0.003986 0.010895 0.334906
0.004401 0.010895 0.334906
0.005829 0.010895 0.334906
0.010895 0.010895 0.334906
0.028854 0.010895 0.334906
0.092525 0.010895 0.334906
0.334906 0.010895 0.334906
0.003705 0.028854 0.334906
0.003986 0.028854 0.334906
0.004401 0.028854 0.334906
0.005829 0.028854 0.334906
0.010895 0.028854 0.334906
0.028854 0.028854 0.334906
0.092525 0.028854 0.334906
0.334906 0.028854 0.334906
0.003705 0.092525 0.334906
0.003986 0.092525 0.334906
0.004401 0.092525 0.334906
0.005829 0.092525 0.334906
0.010895 0.092525 0.334906
0.028854 0.092525 0.334906
0.092525 0.092525 0.334906
0.334906 0.092525 0.334906
0.003705 0.334906 0.334906
0.003986 0.334906 0.334906
0.004401 0.334906 0.334906
0.005829 0.334906 0.334906
0.010895 0.334906 0.334906
0.028854 0.334906 0.334906
0.092525 0.334906 0.334906
0.334906 0.334906 0.334906
