.nuke/nuke.LUT/logC-2-linear_extended/AlexaV3_EI0640_LogC2Linear_EE_nuke3d.cube
# Alexa conversion LUT, logc2lin. Full in/full out.
# created by alexalutconv (2.07)
LUT_3D_SIZE 32
0.003314 0.003314 0.003314
0.003520 0.003314 0.003314
0.003726 0.003314 0.003314
0.003933 0.003314 0.003314
0.004139 0.003314 0.003314
0.004352 0.003314 0.003314
0.004627 0.003314 0.003314
0.004998 0.003314 0.003314
0.005497 0.003314 0.003314
0.006169 0.003314 0.003314
0.007072 0.003314 0.003314
0.008288 0.003314 0.003314
0.009924 0.003314 0.003314
0.012125 0.003314 0.003314
0.015087 0.003314 0.003314
0.019073 0.003314 0.003314
0.024437 0.003314 0.003314
0.031654 0.003314 0.003314
0.041365 0.003314 0.003314
0.054433 0.003314 0.003314
0.072017 0.003314 0.003314
0.095679 0.003314 0.003314
0.127518 0.003314 0.003314
0.170362 0.003314 0.003314
0.228012 0.003314 0.003314
0.305587 0.003314 0.003314
0.409973 0.003314 0.003314
0.550436 0.003314 0.003314
0.739444 0.003314 0.003314
0.993776 0.003314 0.003314
1.000000 0.003314 0.003314
1.000000 0.003314 0.003314
0.003314 0.003520 0.003314
0.003520 0.003520 0.003314
0.003726 0.003520 0.003314
0.003933 0.003520 0.003314
0.004139 0.003520 0.003314
0.004352 0.003520 0.003314
0.004627 0.003520 0.003314
0.004998 0.003520 0.003314
0.005497 0.003520 0.003314
0.006169 0.003520 0.003314
0.007072 0.003520 0.003314
0.008288 0.003520 0.003314
0.009924 0.003520 0.003314
0.012125 0.003520 0.003314
0.015087 0.003520 0.003314
0.019073 0.003520 0.003314
0.024437 0.003520 0.003314
0.031654 0.003520 0.003314
0.041365 0.003520 0.003314
0.054433 0.003520 0.003314
0.072017 0.003520 0.003314
0.095679 0.003520 0.003314
0.127518 0.003520 0.003314
0.170362 0.003520 0.003314
0.228012 0.003520 0.003314
0.305587 0.003520 0.003314
0.409973 0.003520 0.003314
0.550436 0.003520 0.003314
0.739444 0.003520 0.003314
0.993776 0.003520 0.003314
1.000000 0.003520 0.003314
1.000000 0.003520 0.003314
0.003314 0.003726 0.003314
0.003520 0.003726 0.003314
0.003726 0.003726 0.003314
0.003933 0.003726 0.003314
0.004139 0.003726 0.003314
0.004352 0.003726 0.003314
0.004627 0.003726 0.003314
0.004998 0.003726 0.003314
0.005497 0.003726 0.003314
0.006169 0.003726 0.003314
0.007072 0.003726 0.003314
0.008288 0.003726 0.003314
0.009924 0.003726 0.003314
0.012125 0.003726 0.003314
0.015087 0.003726 0.003314
0.019073 0.003726 0.003314
0.024437 0.003726 0.003314
0.031654 0.003726 0.003314
0.041365 0.003726 0.003314
0.054433 0.003726 0.003314
0.072017 0.003726 0.003314
0.095679 0.003726 0.003314
0.127518 0.003726 0.003314
0.170362 0.003726 0.003314
0.228012 0.003726 0.003314
0.305587 0.003726 0.003314
0.409973 0.003726 0.003314
0.550436 0.003726 0.003314
0.739444 0.003726 0.003314
0.993776 0.003726 0.003314
1.000000 0.003726 0.003314
1.000000 0.003726 0.003314
0.003314 0.003933 0.003314
0.003520 0.003933 0.003314
0.003726 0.003933 0.003314
0.003933 0.003933 0.003314
0.004139 0.003933 0.003314
0.004352 0.003933 0.003314
0.004627 0.003933 0.003314
0.004998 0.003933 0.003314
0.005497 0.003933 0.003314
0.006169 0.003933 0.003314
0.007072 0.003933 0.003314
0.008288 0.003933 0.003314
0.009924 0.003933 0.003314
0.012125 0.003933 0.003314
0.015087 0.003933 0.003314
0.019073 0.003933 0.003314
0.024437 0.003933 0.003314
0.031654 0.003933 0.003314
0.041365 0.003933 0.003314
0.054433 0.003933 0.003314
0.072017 0.003933 0.003314
0.095679 0.003933 0.003314
0.127518 0.003933 0.003314
0.170362 0.003933 0.003314
0.228012 0.003933 0.003314
0.305587 0.003933 0.003314
0.409973 0.003933 0.003314
0.550436 0.003933 0.003314
0.739444 0.003933 0.003314
0.993776 0.003933 0.003314
1.000000 0.003933 0.003314
1.000000 0.003933 0.003314
0.003314 0.004139 0.003314
0.003520 0.004139 0.003314
0.003726 0.004139 0.003314
0.003933 0.004139 0.003314
0.004139 0.004139 0.003314
0.004352 0.004139 0.003314
0.004627 0.004139 0.003314
0.004998 0.004139 0.003314
0.005497 0.004139 0.003314
0.006169 0.004139 0.003314
0.007072 0.004139 0.003314
0.008288 0.004139 0.003314
0.009924 0.004139 0.003314
0.012125 0.004139 0.003314
0.015087 0.004139 0.003314
0.019073 0.004139 0.003314
0.024437 0.004139 0.003314
0.031654 0.004139 0.003314
0.041365 0.004139 0.003314
0.054433 0.004139 0.003314
0.072017 0.004139 0.003314
0.095679 0.004139 0.003314
0.127518 0.004139 0.003314
0.170362 0.004139 0.003314
0.228012 0.004139 0.003314
0.305587 0.004139 0.003314
0.409973 0.004139 0.003314
0.550436 0.004139 0.003314
0.739444 0.004139 0.003314
0.993776 0.004139 0.003314
1.000000 0.004139 0.003314
1.000000 0.004139 0.003314
0.003314 0.004352 0.003314
0.003520 0.004352 0.003314
0.003726 0.004352 0.003314
0.003933 0.004352 0.003314
0.004139 0.004352 0.003314
0.004352 0.004352 0.003314
0.004627 0.004352 0.003314
0.004998 0.004352 0.003314
0.005497 0.004352 0.003314
0.006169 0.004352 0.003314
0.007072 0.004352 0.003314
0.008288 0.004352 0.003314
0.009924 0.004352 0.003314
0.012125 0.004352 0.003314
0.015087 0.004352 0.003314
0.019073 0.004352 0.003314
0.024437 0.004352 0.003314
0.031654 0.004352 0.003314
0.041365 0.004352 0.003314
0.054433 0.004352 0.003314
0.072017 0.004352 0.003314
0.095679 0.004352 0.003314
0.127518 0.004352 0.003314
0.170362 0.004352 0.003314
0.228012 0.004352 0.003314
0.305587 0.004352 0.003314
0.409973 0.004352 0.003314
0.550436 0.004352 0.003314
0.739444 0.004352 0.003314
0.993776 0.004352 0.003314
1.000000 0.004352 0.003314
1.000000 0.004352 0.003314
0.003314 0.004627 0.003314
0.003520 0.004627 0.003314
0.003726 0.004627 0.003314
0.003933 0.004627 0.003314
0.004139 0.004627 0.003314
0.004352 0.004627 0.003314
0.004627 0.004627 0.003314
0.004998 0.004627 0.003314
0.005497 0.004627 0.003314
0.006169 0.004627 0.003314
0.007072 0.004627 0.003314
0.008288 0.004627 0.003314
0.009924 0.004627 0.003314
0.012125 0.004627 0.003314
0.015087 0.004627 0.003314
0.019073 0.004627 0.003314
0.024437 0.004627 0.003314
0.031654 0.004627 0.003314
0.041365 0.004627 0.003314
0.054433 0.004627 0.003314
0.072017 0.004627 0.003314
0.095679 0.004627 0.003314
0.127518 0.004627 0.003314
0.170362 0.004627 0.003314
0.228012 0.004627 0.003314
0.305587 0.004627 0.003314
0.409973 0.004627 0.003314
0.550436 0.004627 0.003314
0.739444 0.004627 0.003314
0.993776 0.004627 0.003314
1.000000 0.004627 0.003314
1.000000 0.004627 0.003314
0.003314 0.004998 0.003314
0.003520 0.004998 0.003314
0.003726 0.004998 0.003314
0.003933 0.004998 0.003314
0.004139 0.004998 0.003314
0.004352 0.004998 0.003314
0.004627 0.004998 0.003314
0.004998 0.004998 0.003314
0.005497 0.004998 0.003314
0.006169 0.004998 0.003314
0.007072 0.004998 0.003314
0.008288 0.004998 0.003314
0.009924 0.004998 0.003314
0.012125 0.004998 0.003314
0.015087 0.004998 0.003314
0.019073 0.004998 0.003314
0.024437 0.004998 0.003314
0.031654 0.004998 0.003314
0.041365 0.004998 0.003314
0.054433 0.004998 0.003314
0.072017 0.004998 0.003314
0.095679 0.004998 0.003314
0.127518 0.004998 0.003314
0.170362 0.004998 0.003314
0.228012 0.004998 0.003314
0.305587 0.004998 0.003314
0.409973 0.004998 0.003314
0.550436 0.004998 0.003314
0.739444 0.004998 0.003314
0.993776 0.004998 0.003314
1.000000 0.004998 0.003314
1.000000 0.004998 0.003314
0.003314 0.005497 0.003314
0.003520 0.005497 0.003314
0.003726 0.005497 0.003314
0.003933 0.005497 0.003314
0.004139 0.005497 0.003314
0.004352 0.005497 0.003314
0.004627 0.005497 0.003314
0.004998 0.005497 0.003314
0.005497 0.005497 0.003314
0.006169 0.005497 0.003314
0.007072 0.005497 0.003314
0.008288 0.005497 0.003314
0.009924 0.005497 0.003314
0.012125 0.005497 0.003314
0.015087 0.005497 0.003314
0.019073 0.005497 0.003314
0.024437 0.005497 0.003314
0.031654 0.005497 0.003314
0.041365 0.005497 0.003314
0.054433 0.005497 0.003314
0.072017 0.005497 0.003314
0.095679 0.005497 0.003314
0.127518 0.005497 0.003314
0.170362 0.005497 0.003314
0.228012 0.005497 0.003314
0.305587 0.005497 0.003314
0.409973 0.005497 0.003314
0.550436 0.005497 0.003314
0.739444 0.005497 0.003314
0.993776 0.005497 0.003314
1.000000 0.005497 0.003314
1.000000 0.005497 0.003314
0.003314 0.006169 0.003314
0.003520 0.006169 0.003314
0.003726 0.006169 0.003314
0.003933 0.006169 0.003314
0.004139 0.006169 0.003314
0.004352 0.006169 0.003314
0.004627 0.006169 0.003314
0.004998 0.006169 0.003314
0.005497 0.006169 0.003314
0.006169 0.006169 0.003314
0.007072 0.006169 0.003314
0.008288 0.006169 0.003314
0.009924 0.006169 0.003314
0.012125 0.006169 0.003314
0.015087 0.006169 0.003314
0.019073 0.006169 0.003314
0.024437 0.006169 0.003314
0.031654 0.006169 0.003314
0.041365 0.006169 0.003314
0.054433 0.006169 0.003314
0.072017 0.006169 0.003314
0.095679 0.006169 0.003314
0.127518 0.006169 0.003314
0.170362 0.006169 0.003314
0.228012 0.006169 0.003314
0.305587 0.006169 0.003314
0.409973 0.006169 0.003314
0.550436 0.006169 0.003314
0.739444 0.006169 0.003314
0.993776 0.006169 0.003314
1.000000 0.006169 0.003314
1.000000 0.006169 0.003314
0.003314 0.007072 0.003314
0.003520 0.007072 0.003314
0.003726 0.007072 0.003314
0.003933 0.007072 0.003314
0.004139 0.007072 0.003314
0.004352 0.007072 0.003314
0.004627 0.007072 0.003314
0.004998 0.007072 0.003314
0.005497 0.007072 0.003314
0.006169 0.007072 0.003314
0.007072 0.007072 0.003314
0.008288 0.007072 0.003314
0.009924 0.007072 0.003314
0.012125 0.007072 0.003314
0.015087 0.007072 0.003314
0.019073 0.007072 0.003314
0.024437 0.007072 0.003314
0.031654 0.007072 0.003314
0.041365 0.007072 0.003314
0.054433 0.007072 0.003314
0.072017 0.007072 0.003314
0.095679 0.007072 0.003314
0.127518 0.007072 0.003314
0.170362 0.007072 0.003314
0.228012 0.007072 0.003314
0.305587 0.007072 0.003314
0.409973 0.007072 0.003314
0.550436 0.007072 0.003314
0.739444 0.007072 0.003314
0.993776 0.007072 0.003314
1.000000 0.007072 0.003314
1.000000 0.007072 0.003314
0.003314 0.008288 0.003314
0.003520 0.008288 0.003314
0.003726 0.008288 0.003314
0.003933 0.008288 0.003314
0.004139 0.008288 0.003314
0.004352 0.008288 0.003314
0.004627 0.008288 0.003314
0.004998 0.008288 0.003314
0.005497 0.008288 0.003314
0.006169 0.008288 0.003314
0.007072 0.008288 0.003314
0.008288 0.008288 0.003314
0.009924 0.008288 0.003314
0.012125 0.008288 0.003314
0.015087 0.008288 0.003314
0.019073 0.008288 0.003314
0.024437 0.008288 0.003314
0.031654 0.008288 0.003314
0.041365 0.008288 0.003314
0.054433 0.008288 0.003314
0.072017 0.008288 0.003314
0.095679 0.008288 0.003314
0.127518 0.008288 0.003314
0.170362 0.008288 0.003314
0.228012 0.008288 0.003314
0.305587 0.008288 0.003314
0.409973 0.008288 0.003314
0.550436 0.008288 0.003314
0.739444 0.008288 0.003314
0.993776 0.008288 0.003314
1.000000 0.008288 0.003314
1.000000 0.008288 0.003314
0.003314 0.009924 0.003314
0.003520 0.009924 0.003314
0.003726 0.009924 0.003314
0.003933 0.009924 0.003314
0.004139 0.009924 0.003314
0.004352 0.009924 0.003314
0.004627 0.009924 0.003314
0.004998 0.009924 0.003314
0.005497 0.009924 0.003314
0.006169 0.009924 0.003314
0.007072 0.009924 0.003314
0.008288 0.009924 0.003314
0.009924 0.009924 0.003314
0.012125 0.009924 0.003314
0.015087 0.009924 0.003314
0.019073 0.009924 0.003314
0.024437 0.009924 0.003314
0.031654 0.009924 0.003314
0.041365 0.009924 0.003314
0.054433 0.009924 0.003314
0.072017 0.009924 0.003314
0.095679 0.009924 0.003314
0.127518 0.009924 0.003314
0.170362 0.009924 0.003314
0.228012 0.009924 0.003314
0.305587 0.009924 0.003314
0.409973 0.009924 0.003314
0.550436 0.009924 0.003314
0.739444 0.009924 0.003314
0.993776 0.009924 0.003314
1.000000 0.009924 0.003314
1.000000 0.009924 0.003314
0.003314 0.012125 0.003314
0.003520 0.012125 0.003314
0.003726 0.012125 0.003314
0.003933 0.012125 0.003314
0.004139 0.012125 0.003314
0.004352 0.012125 0.003314
0.004627 0.012125 0.003314
0.004998 0.012125 0.003314
0.005497 0.012125 0.003314
0.006169 0.012125 0.003314
0.007072 0.012125 0.003314
0.008288 0.012125 0.003314
0.009924 0.012125 0.003314
0.012125 0.012125 0.003314
0.015087 0.012125 0.003314
0.019073 0.012125 0.003314
0.024437 0.012125 0.003314
0.031654 0.012125 0.003314
0.041365 0.012125 0.003314
0.054433 0.012125 0.003314
0.072017 0.012125 0.003314
0.095679 0.012125 0.003314
0.127518 0.012125 0.003314
0.170362 0.012125 0.003314
0.228012 0.012125 0.003314
0.305587 0.012125 0.003314
0.409973 0.012125 0.003314
0.550436 0.012125 0.003314
0.739444 0.012125 0.003314
0.993776 0.012125 0.003314
1.000000 0.012125 0.003314
1.000000 0.012125 0.003314
0.003314 0.015087 0.003314
0.003520 0.015087 0.003314
0.003726 0.015087 0.003314
0.003933 0.015087 0.003314
0.004139 0.015087 0.003314
0.004352 0.015087 0.003314
0.004627 0.015087 0.003314
0.004998 0.015087 0.003314
0.005497 0.015087 0.003314
0.006169 0.015087 0.003314
0.007072 0.015087 0.003314
0.008288 0.015087 0.003314
0.009924 0.015087 0.003314
0.012125 0.015087 0.003314
0.015087 0.015087 0.003314
0.019073 0.015087 0.003314
0.024437 0.015087 0.003314
0.031654 0.015087 0.003314
0.041365 0.015087 0.003314
0.054433 0.015087 0.003314
0.072017 0.015087 0.003314
0.095679 0.015087 0.003314
0.127518 0.015087 0.003314
0.170362 0.015087 0.003314
0.228012 0.015087 0.003314
0.305587 0.015087 0.003314
0.409973 0.015087 0.003314
0.550436 0.015087 0.003314
0.739444 0.015087 0.003314
0.993776 0.015087 0.003314
1.000000 0.015087 0.003314
1.000000 0.015087 0.003314
0.003314 0.019073 0.003314
0.003520 0.019073 0.003314
0.003726 0.019073 0.003314
0.003933 0.019073 0.003314
0.004139 0.019073 0.003314
0.004352 0.019073 0.003314
0.004627 0.019073 0.003314
0.004998 0.019073 0.003314
0.005497 0.019073 0.003314
0.006169 0.019073 0.003314
0.007072 0.019073 0.003314
0.008288 0.019073 0.003314
0.009924 0.019073 0.003314
0.012125 0.019073 0.003314
0.015087 0.019073 0.003314
0.019073 0.019073 0.003314
0.024437 0.019073 0.003314
0.031654 0.019073 0.003314
0.041365 0.019073 0.003314
0.054433 0.019073 0.003314
0.072017 0.019073 0.003314
0.095679 0.019073 0.003314
0.127518 0.019073 0.003314
0.170362 0.019073 0.003314
0.228012 0.019073 0.003314
0.305587 0.019073 0.003314
0.409973 0.019073 0.003314
0.550436 0.019073 0.003314
0.739444 0.019073 0.003314
0.993776 0.019073 0.003314
1.000000 0.019073 0.003314
1.000000 0.019073 0.003314
0.003314 0.024437 0.003314
0.003520 0.024437 0.003314
0.003726 0.024437 0.003314
0.003933 0.024437 0.003314
0.004139 0.024437 0.003314
0.004352 0.024437 0.003314
0.004627 0.024437 0.003314
0.004998 0.024437 0.003314
0.005497 0.024437 0.003314
0.006169 0.024437 0.003314
0.007072 0.024437 0.003314
0.008288 0.024437 0.003314
0.009924 0.024437 0.003314
0.012125 0.024437 0.003314
0.015087 0.024437 0.003314
0.019073 0.024437 0.003314
0.024437 0.024437 0.003314
0.031654 0.024437 0.003314
0.041365 0.024437 0.003314
0.054433 0.024437 0.003314
0.072017 0.024437 0.003314
0.095679 0.024437 0.003314
0.127518 0.024437 0.003314
0.170362 0.024437 0.003314
0.228012 0.024437 0.003314
0.305587 0.024437 0.003314
0.409973 0.024437 0.003314
0.550436 0.024437 0.003314
0.739444 0.024437 0.003314
0.993776 0.024437 0.003314
1.000000 0.024437 0.003314
1.000000 0.024437 0.003314
0.003314 0.031654 0.003314
0.003520 0.031654 0.003314
0.003726 0.031654 0.003314
0.003933 0.031654 0.003314
0.004139 0.031654 0.003314
0.004352 0.031654 0.003314
0.004627 0.031654 0.003314
0.004998 0.031654 0.003314
0.005497 0.031654 0.003314
0.006169 0.031654 0.003314
0.007072 0.031654 0.003314
0.008288 0.031654 0.003314
0.009924 0.031654 0.003314
0.012125 0.031654 0.003314
0.015087 0.031654 0.003314
0.019073 0.031654 0.003314
0.024437 0.031654 0.003314
0.031654 0.031654 0.003314
0.041365 0.031654 0.003314
0.054433 0.031654 0.003314
0.072017 0.031654 0.003314
0.095679 0.031654 0.003314
0.127518 0.031654 0.003314
0.170362 0.031654 0.003314
0.228012 0.031654 0.003314
0.305587 0.031654 0.003314
0.409973 0.031654 0.003314
0.550436 0.031654 0.003314
0.739444 0.031654 0.003314
0.993776 0.031654 0.003314
1.000000 0.031654 0.003314
1.000000 0.031654 0.003314
0.003314 0.041365 0.003314
0.003520 0.041365 0.003314
0.003726 0.041365 0.003314
0.003933 0.041365 0.003314
0.004139 0.041365 0.003314
0.004352 0.041365 0.003314
0.004627 0.041365 0.003314
0.004998 0.041365 0.003314
0.005497 0.041365 0.003314
0.006169 0.041365 0.003314
0.007072 0.041365 0.003314
0.008288 0.041365 0.003314
0.009924 0.041365 0.003314
0.012125 0.041365 0.003314
0.015087 0.041365 0.003314
0.019073 0.041365 0.003314
0.024437 0.041365 0.003314
0.031654 0.041365 0.003314
0.041365 0.041365 0.003314
0.054433 0.041365 0.003314
0.072017 0.041365 0.003314
0.095679 0.041365 0.003314
0.127518 0.041365 0.003314
0.170362 0.041365 0.003314
0.228012 0.041365 0.003314
0.305587 0.041365 0.003314
0.409973 0.041365 0.003314
0.550436 0.041365 0.003314
0.739444 0.041365 0.003314
0.993776 0.041365 0.003314
1.000000 0.041365 0.003314
1.000000 0.041365 0.003314
0.003314 0.054433 0.003314
0.003520 0.054433 0.003314
0.003726 0.054433 0.003314
0.003933 0.054433 0.003314
0.004139 0.054433 0.003314
0.004352 0.054433 0.003314
0.004627 0.054433 0.003314
0.004998 0.054433 0.003314
0.005497 0.054433 0.003314
0.006169 0.054433 0.003314
0.007072 0.054433 0.003314
0.008288 0.054433 0.003314
0.009924 0.054433 0.003314
0.012125 0.054433 0.003314
0.015087 0.054433 0.003314
0.019073 0.054433 0.003314
0.024437 0.054433 0.003314
0.031654 0.054433 0.003314
0.041365 0.054433 0.003314
0.054433 0.054433 0.003314
0.072017 0.054433 0.003314
0.095679 0.054433 0.003314
0.127518 0.054433 0.003314
0.170362 0.054433 0.003314
0.228012 0.054433 0.003314
0.305587 0.054433 0.003314
0.409973 0.054433 0.003314
0.550436 0.054433 0.003314
0.739444 0.054433 0.003314
0.993776 0.054433 0.003314
1.000000 0.054433 0.003314
1.000000 0.054433 0.003314
0.003314 0.072017 0.003314
0.003520 0.072017 0.003314
0.003726 0.072017 0.003314
0.003933 0.072017 0.003314
0.004139 0.072017 0.003314
0.004352 0.072017 0.003314
0.004627 0.072017 0.003314
0.004998 0.072017 0.003314
0.005497 0.072017 0.003314
0.006169 0.072017 0.003314
0.007072 0.072017 0.003314
0.008288 0.072017 0.003314
0.009924 0.072017 0.003314
0.012125 0.072017 0.003314
0.015087 0.072017 0.003314
0.019073 0.072017 0.003314
0.024437 0.072017 0.003314
0.031654 0.072017 0.003314
0.041365 0.072017 0.003314
0.054433 0.072017 0.003314
0.072017 0.072017 0.003314
0.095679 0.072017 0.003314
0.127518 0.072017 0.003314
0.170362 0.072017 0.003314
0.228012 0.072017 0.003314
0.305587 0.072017 0.003314
0.409973 0.072017 0.003314
0.550436 0.072017 0.003314
0.739444 0.072017 0.003314
0.993776 0.072017 0.003314
1.000000 0.072017 0.003314
1.000000 0.072017 0.003314
0.003314 0.095679 0.003314
0.003520 0.095679 0.003314
0.003726 0.095679 0.003314
0.003933 0.095679 0.003314
0.004139 0.095679 0.003314
0.004352 0.095679 0.003314
0.004627 0.095679 0.003314
0.004998 0.095679 0.003314
0.005497 0.095679 0.003314
0.006169 0.095679 0.003314
0.007072 0.095679 0.003314
0.008288 0.095679 0.003314
0.009924 0.095679 0.003314
0.012125 0.095679 0.003314
0.015087 0.095679 0.003314
0.019073 0.095679 0.003314
0.024437 0.095679 0.003314
0.031654 0.095679 0.003314
0.041365 0.095679 0.003314
0.054433 0.095679 0.003314
0.072017 0.095679 0.003314
0.095679 0.095679 0.003314
0.127518 0.095679 0.003314
0.170362 0.095679 0.003314
0.228012 0.095679 0.003314
0.305587 0.095679 0.003314
0.409973 0.095679 0.003314
0.550436 0.095679 0.003314
0.739444 0.095679 0.003314
0.993776 0.095679 0.003314
1.000000 0.095679 0.003314
1.000000 0.095679 0.003314
0.003314 0.127518 0.003314
0.003520 0.127518 0.003314
0.003726 0.127518 0.003314
0.003933 0.127518 0.003314
0.004139 0.127518 0.003314
0.004352 0.127518 0.003314
0.004627 0.127518 0.003314
0.004998 0.127518 0.003314
0.005497 0.127518 0.003314
0.006169 0.127518 0.003314
0.007072 0.127518 0.003314
0.008288 0.127518 0.003314
0.009924 0.127518 0.003314
0.012125 0.127518 0.003314
0.015087 0.127518 0.003314
0.019073 0.127518 0.003314
0.024437 0.127518 0.003314
0.031654 0.127518 0.003314
0.041365 0.127518 0.003314
0.054433 0.127518 0.003314
0.072017 0.127518 0.003314
0.095679 0.127518 0.003314
0.127518 0.127518 0.003314
0.170362 0.127518 0.003314
0.228012 0.127518 0.003314
0.305587 0.127518 0.003314
0.409973 0.127518 0.003314
0.550436 0.127518 0.003314
0.739444 0.127518 0.003314
0.993776 0.127518 0.003314
1.000000 0.127518 0.003314
1.000000 0.127518 0.003314
0.003314 0.170362 0.003314
0.003520 0.170362 0.003314
0.003726 0.170362 0.003314
0.003933 0.170362 0.003314
0.004139 0.170362 0.003314
0.004352 0.170362 0.003314
0.004627 0.170362 0.003314
0.004998 0.170362 0.003314
0.005497 0.170362 0.003314
0.006169 0.170362 0.003314
0.007072 0.170362 0.003314
0.008288 0.170362 0.003314
0.009924 0.170362 0.003314
0.012125 0.170362 0.003314
0.015087 0.170362 0.003314
0.019073 0.170362 0.003314
0.024437 0.170362 0.003314
0.031654 0.170362 0.003314
0.041365 0.170362 0.003314
0.054433 0.170362 0.003314
0.072017 0.170362 0.003314
0.095679 0.170362 0.003314
0.127518 0.170362 0.003314
0.170362 0.170362 0.003314
0.228012 0.170362 0.003314
0.305587 0.170362 0.003314
0.409973 0.170362 0.003314
0.550436 0.170362 0.003314
0.739444 0.170362 0.003314
0.993776 0.170362 0.003314
1.000000 0.170362 0.003314
1.000000 0.170362 0.003314
0.003314 0.228012 0.003314
0.003520 0.228012 0.003314
0.003726 0.228012 0.003314
0.003933 0.228012 0.003314
0.004139 0.228012 0.003314
0.004352 0.228012 0.003314
0.004627 0.228012 0.003314
0.004998 0.228012 0.003314
0.005497 0.228012 0.003314
0.006169 0.228012 0.003314
0.007072 0.228012 0.003314
0.008288 0.228012 0.003314
0.009924 0.228012 0.003314
0.012125 0.228012 0.003314
0.015087 0.228012 0.003314
0.019073 0.228012 0.003314
0.024437 0.228012 0.003314
0.031654 0.228012 0.003314
0.041365 0.228012 0.003314
0.054433 0.228012 0.003314
0.072017 0.228012 0.003314
0.095679 0.228012 0.003314
0.127518 0.228012 0.003314
0.170362 0.228012 0.003314
0.228012 0.228012 0.003314
0.305587 0.228012 0.003314
0.409973 0.228012 0.003314
0.550436 0.228012 0.003314
0.739444 0.228012 0.003314
0.993776 0.228012 0.003314
1.000000 0.228012 0.003314
1.000000 0.228012 0.003314
0.003314 0.305587 0.003314
0.003520 0.305587 0.003314
0.003726 0.305587 0.003314
0.003933 0.305587 0.003314
0.004139 0.305587 0.003314
0.004352 0.305587 0.003314
0.004627 0.305587 0.003314
0.004998 0.305587 0.003314
0.005497 0.305587 0.003314
0.006169 0.305587 0.003314
0.007072 0.305587 0.003314
0.008288 0.305587 0.003314
0.009924 0.305587 0.003314
0.012125 0.305587 0.003314
0.015087 0.305587 0.003314
0.019073 0.305587 0.003314
0.024437 0.305587 0.003314
0.031654 0.305587 0.003314
0.041365 0.305587 0.003314
0.054433 0.305587 0.003314
0.072017 0.305587 0.003314
0.095679 0.305587 0.003314
0.127518 0.305587 0.003314
0.170362 0.305587 0.003314
0.228012 0.305587 0.003314
0.305587 0.305587 0.003314
0.409973 0.305587 0.003314
0.550436 0.305587 0.003314
0.739444 0.305587 0.003314
0.993776 0.305587 0.003314
1.000000 0.305587 0.003314
1.000000 0.305587 0.003314
0.003314 0.409973 0.003314
0.003520 0.409973 0.003314
0.003726 0.409973 0.003314
0.003933 0.409973 0.003314
0.004139 0.409973 0.003314
0.004352 0.409973 0.003314
0.004627 0.409973 0.003314
0.004998 0.409973 0.003314
0.005497 0.409973 0.003314
0.006169 0.409973 0.003314
0.007072 0.409973 0.003314
0.008288 0.409973 0.003314
0.009924 0.409973 0.003314
0.012125 0.409973 0.003314
0.015087 0.409973 0.003314
0.019073 0.409973 0.003314
0.024437 0.409973 0.003314
0.031654 0.409973 0.003314
0.041365 0.409973 0.003314
0.054433 0.409973 0.003314
0.072017 0.409973 0.003314
0.095679 0.409973 0.003314
0.127518 0.409973 0.003314
0.170362 0.409973 0.003314
0.228012 0.409973 0.003314
0.305587 0.409973 0.003314
0.409973 0.409973 0.003314
0.550436 0.409973 0.003314
0.739444 0.409973 0.003314
0.993776 0.409973 0.003314
1.000000 0.409973 0.003314
1.000000 0.409973 0.003314
0.003314 0.550436 0.003314
0.003520 0.550436 0.003314
0.003726 0.550436 0.003314
0.003933 0.550436 0.003314
0.004139 0.550436 0.003314
0.004352 0.550436 0.003314
0.004627 0.550436 0.003314
0.004998 0.550436 0.003314
0.005497 0.550436 0.003314
0.006169 0.550436 0.003314
0.007072 0.550436 0.003314
0.008288 0.550436 0.003314
0.009924 0.550436 0.003314
0.012125 0.550436 0.003314
0.015087 0.550436 0.003314
0.019073 0.550436 0.003314
0.024437 0.550436 0.003314
0.031654 0.550436 0.003314
0.041365 0.550436 0.003314
0.054433 0.550436 0.003314
0.072017 0.550436 0.003314
